;Sliced by ideaMaker 3.6.1.4415, 2020-08-31 21:06:50 UTC+0200
;Dimension: 235.000 235.000 300.000 0.400
;Plate Shape: 0
;Extruder Offset #1: 25.000 0.000
;Filament Diameter #1: 1.750
;Filament Diameter #2: 1.750
;Filament Compensation #1: 100.00
;Filament Compensation #2: 90.00
;Filament Density #1: 1240.00
;Filament Density #2: 1240.00
;Bounding Box: 106.065 128.932 106.137 128.934 0.000 71.600
;Model Gap: 0.000
M92 E130.00000
M221 T0 S100.00
M140 S80.00
M104 T0 S250.00
M109 T0 S250.00
T0
M190 S80.00
M104 S200 ; heat up extruder before calibrating bed
M140 S60 ; same for bed
G28 XY ;Home XY
M561 ; Clear any bed transform that might be in place
G1 X117 Y157 ; Move Probe to middle of bed
G30 ; Do a single probe
G29 ; Probe the bed with the ABL ; **** uncomment this line if you have an always on ABL *****
G92 E0 ; Reset Extruder
G1 Z5.0  ; Move Z Axis up little to prevent scratching of Heat Bed
G1 X10 Y20 Z0.2 F9000.0 ; Move to start position
G1 X10 Y200.0 Z0.2 F1500.0 E15 ; Draw the first line
G1 X13 Y200.0 Z0.2 F6000.0 ; Move to side a little
G1 X13 Y20 Z0.2 F1500.0 E30 ; Draw the second line
G92 E0 ; Reset Extruder
G1 Z5.0 F9000 ; Move Z Axis up little to prevent scratching of Heat Bed
; End of custom start GCode
;end of Start GCode
M83
;LAYER:0
;Z:0.200
;HEIGHT:0.200
M106 S0
G1 F2400 E-2.5000
G0 F6000 X108.294 Y108.605
G0 F900 Z0.200
G0 F6000 X108.364 Y108.675
;TYPE:SKIRT
;WIDTH:0.400
G1 F2400 E2.5000
G1 F900 X109.457 Y107.772 E0.0472
G1 X110.949 Y106.975 E0.0563
G1 X112.321 Y106.553 E0.0477
G1 X112.517 Y106.519 E0.0066
G1 X121.785 Y106.137 E0.3085
G1 X122.254 Y106.210 E0.0158
G1 X122.859 Y106.349 E0.0206
G1 X124.030 Y106.782 E0.0415
G1 X125.180 Y107.427 E0.0439
G1 X125.979 Y108.036 E0.0334
G1 X127.364 Y109.632 E0.0703
G1 X127.876 Y110.555 E0.0351
G1 X128.260 Y111.538 E0.0351
G1 X128.542 Y112.852 E0.0447
G1 X128.932 Y120.869 E0.2670
G1 X128.798 Y122.180 E0.0438
G1 X128.640 Y122.931 E0.0255
G1 X127.906 Y124.687 E0.0633
G1 X127.286 Y125.606 E0.0369
G1 X126.517 Y126.454 E0.0381
G1 X125.274 Y127.423 E0.0524
G1 X123.600 Y128.213 E0.0616
G1 X121.998 Y128.586 E0.0547
G1 X113.920 Y128.934 E0.2689
G1 X112.632 Y128.777 E0.0432
G1 X111.982 Y128.626 E0.0222
G1 X110.455 Y127.989 E0.0550
G1 X109.454 Y127.338 E0.0397
G1 X108.558 Y126.531 E0.0401
G1 X107.588 Y125.287 E0.0525
G1 X106.798 Y123.613 E0.0616
G1 X106.425 Y122.011 E0.0547
G1 X106.065 Y114.133 E0.2623
G1 X106.220 Y112.735 E0.0468
G1 X106.388 Y111.989 E0.0254
G1 X107.017 Y110.477 E0.0545
G1 X107.680 Y109.450 E0.0407
G1 X108.298 Y108.750 E0.0311
G0 F900 X108.364 Y108.675
G1 F2400 E-2.5000
G1 F900 Z0.600
G0 F6000 X108.589 Y108.874
G0 F6000 X108.664 Y108.940
G1 F900 Z0.200
G1 F2400 E2.5000
G1 F900 X109.711 Y108.081 E0.0450
G1 X111.136 Y107.329 E0.0536
G1 X112.437 Y106.936 E0.0452
G1 X112.534 Y106.919 E0.0033
G1 X121.724 Y106.532 E0.3059
G1 X122.164 Y106.600 E0.0148
G1 X122.769 Y106.739 E0.0206
G1 X123.835 Y107.131 E0.0378
G1 X124.938 Y107.745 E0.0420
G1 X125.737 Y108.354 E0.0334
G1 X127.015 Y109.827 E0.0649
G1 X127.503 Y110.701 E0.0333
G1 X127.887 Y111.684 E0.0351
G1 X128.142 Y112.872 E0.0404
G1 X128.534 Y120.828 E0.2649
G1 X128.400 Y122.139 E0.0438
G1 X128.249 Y122.848 E0.0241
G1 X127.573 Y124.465 E0.0583
G1 X126.990 Y125.337 E0.0349
G1 X126.221 Y126.185 E0.0381
G1 X125.029 Y127.106 E0.0501
G1 X123.431 Y127.850 E0.0586
G1 X121.909 Y128.196 E0.0519
G1 X113.968 Y128.537 E0.2644
G1 X112.723 Y128.387 E0.0417
G1 X112.073 Y128.236 E0.0222
G1 X110.610 Y127.620 E0.0528
G1 X109.722 Y127.041 E0.0353
G1 X108.826 Y126.234 E0.0401
G1 X107.905 Y125.042 E0.0501
G1 X107.161 Y123.444 E0.0586
G1 X106.815 Y121.922 E0.0519
G1 X106.463 Y114.177 E0.2579
G1 X106.618 Y112.779 E0.0468
G1 X106.778 Y112.078 E0.0239
G1 X107.386 Y110.632 E0.0522
G1 X107.980 Y109.715 E0.0363
G1 X108.598 Y109.015 E0.0311
G0 F900 X108.664 Y108.940
G1 F2400 E-2.5000
G1 F900 Z0.600
G0 F6000 X108.889 Y109.139
G0 F6000 X108.964 Y109.205
G1 F900 Z0.200
G1 F2400 E2.5000
G1 F900 X109.964 Y108.391 E0.0429
G1 X111.321 Y107.684 E0.0509
G1 X112.551 Y107.319 E0.0427
G1 X121.663 Y106.927 E0.3033
G1 X122.074 Y106.990 E0.0138
G1 X122.679 Y107.129 E0.0206
G1 X123.696 Y107.506 E0.0361
G1 X124.742 Y108.094 E0.0399
G1 X125.494 Y108.671 E0.0315
G1 X126.666 Y110.023 E0.0595
G1 X127.130 Y110.847 E0.0315
G1 X127.514 Y111.830 E0.0351
G1 X127.742 Y112.892 E0.0361
G1 X128.136 Y120.787 E0.2629
G1 X128.002 Y122.098 E0.0438
G1 X127.858 Y122.763 E0.0226
G1 X127.239 Y124.244 E0.0534
G1 X126.694 Y125.068 E0.0329
G1 X125.925 Y125.916 E0.0381
G1 X124.786 Y126.788 E0.0477
G1 X123.264 Y127.486 E0.0557
G1 X121.823 Y127.805 E0.0491
G1 X114.015 Y128.140 E0.2599
G1 X112.814 Y127.997 E0.0402
G1 X112.164 Y127.846 E0.0222
G1 X110.767 Y127.252 E0.0505
G1 X109.943 Y126.707 E0.0329
G1 X109.095 Y125.938 E0.0381
G1 X108.223 Y124.799 E0.0477
G1 X107.525 Y123.277 E0.0557
G1 X107.206 Y121.836 E0.0491
G1 X106.861 Y114.221 E0.2535
G1 X107.016 Y112.823 E0.0468
G1 X107.168 Y112.168 E0.0224
G1 X107.754 Y110.788 E0.0499
G1 X108.280 Y109.980 E0.0321
G1 X108.898 Y109.280 E0.0311
G0 F900 X108.964 Y109.205
G1 F2400 E-2.5000
G1 F900 Z0.600
G0 F6000 X109.189 Y109.404
G0 F6000 X109.264 Y109.470
G1 F900 Z0.200
G1 F2400 E2.5000
G1 F900 X110.215 Y108.702 E0.0407
G1 X111.504 Y108.040 E0.0482
G1 X112.663 Y107.703 E0.0401
G1 X121.604 Y107.323 E0.2976
G1 X121.984 Y107.380 E0.0128
G1 X122.589 Y107.519 E0.0206
G1 X123.500 Y107.855 E0.0323
G1 X124.546 Y108.443 E0.0399
G1 X125.249 Y108.987 E0.0296
G1 X126.318 Y110.221 E0.0543
G1 X126.757 Y110.993 E0.0295
G1 X127.141 Y111.976 E0.0351
G1 X127.342 Y112.912 E0.0318
G1 X127.736 Y120.807 E0.2629
G1 X127.604 Y122.056 E0.0418
G1 X127.467 Y122.677 E0.0212
G1 X126.904 Y124.025 E0.0486
G1 X126.398 Y124.799 E0.0308
G1 X125.629 Y125.647 E0.0381
G1 X124.544 Y126.469 E0.0453
G1 X123.099 Y127.121 E0.0527
G1 X121.739 Y127.414 E0.0463
G1 X114.062 Y127.743 E0.2556
G1 X112.905 Y127.607 E0.0387
G1 X112.255 Y127.456 E0.0222
G1 X110.986 Y126.917 E0.0459
G1 X110.212 Y126.411 E0.0308
G1 X109.364 Y125.642 E0.0381
G1 X108.542 Y124.557 E0.0453
G1 X107.890 Y123.112 E0.0527
G1 X107.597 Y121.752 E0.0463
G1 X107.259 Y114.265 E0.2493
G1 X107.414 Y112.867 E0.0468
G1 X107.557 Y112.260 E0.0207
G1 X108.090 Y111.005 E0.0453
G1 X108.580 Y110.245 E0.0301
G1 X109.198 Y109.545 E0.0311
G0 F900 X109.264 Y109.470
G1 F2400 E-2.5000
G1 F900 Z0.600
G0 F6000 X109.489 Y109.669
G0 F6000 X109.564 Y109.735
G1 F900 Z0.200
G1 F2400 E2.5000
G1 F900 X110.465 Y109.014 E0.0384
G1 X111.685 Y108.397 E0.0455
G1 X112.772 Y108.088 E0.0376
G1 X121.546 Y107.719 E0.2921
G1 X121.894 Y107.770 E0.0117
G1 X122.499 Y107.909 E0.0206
G1 X123.360 Y108.230 E0.0306
G1 X124.349 Y108.791 E0.0378
G1 X125.003 Y109.302 E0.0276
G1 X125.971 Y110.420 E0.0492
G1 X126.385 Y111.140 E0.0276
G1 X126.750 Y112.062 E0.0330
G1 X126.942 Y112.932 E0.0296
G1 X127.336 Y120.827 E0.2629
G1 X127.206 Y122.012 E0.0396
G1 X127.077 Y122.590 E0.0197
G1 X126.568 Y123.808 E0.0439
G1 X126.102 Y124.530 E0.0286
G1 X125.333 Y125.378 E0.0381
G1 X124.304 Y126.149 E0.0428
G1 X122.937 Y126.755 E0.0497
G1 X121.657 Y127.022 E0.0435
G1 X114.108 Y127.346 E0.2513
G1 X112.996 Y127.217 E0.0372
G1 X112.346 Y127.066 E0.0222
G1 X111.203 Y126.581 E0.0413
G1 X110.481 Y126.115 E0.0286
G1 X109.633 Y125.346 E0.0381
G1 X108.862 Y124.317 E0.0428
G1 X108.256 Y122.950 E0.0497
G1 X107.989 Y121.670 E0.0435
G1 X107.659 Y114.247 E0.2471
G1 X107.811 Y112.912 E0.0447
G1 X107.946 Y112.354 E0.0191
G1 X108.427 Y111.220 E0.0410
G1 X108.880 Y110.510 E0.0280
G1 X109.498 Y109.810 E0.0311
G0 F900 X109.564 Y109.735
G1 F2400 E-2.5000
G1 F900 Z0.600
G0 F6000 X109.789 Y109.934
G0 F6000 X109.864 Y110.000
G1 F900 Z0.200
G1 F2400 E2.5000
G1 F900 X110.713 Y109.327 E0.0360
G1 X111.863 Y108.755 E0.0427
G1 X112.879 Y108.474 E0.0351
G1 X121.489 Y108.115 E0.2866
G1 X121.804 Y108.160 E0.0106
G1 X122.409 Y108.299 E0.0206
G1 X123.219 Y108.604 E0.0288
G1 X124.150 Y109.138 E0.0357
G1 X124.755 Y109.616 E0.0256
G1 X125.625 Y110.622 E0.0442
G1 X126.014 Y111.289 E0.0257
G1 X126.360 Y112.151 E0.0309
G1 X126.543 Y112.952 E0.0273
G1 X126.938 Y120.783 E0.2608
G1 X126.808 Y121.968 E0.0396
G1 X126.687 Y122.501 E0.0182
G1 X126.231 Y123.593 E0.0394
G1 X125.806 Y124.261 E0.0263
G1 X125.037 Y125.109 E0.0381
G1 X124.066 Y125.828 E0.0402
G1 X122.778 Y126.388 E0.0467
G1 X121.578 Y126.630 E0.0407
G1 X114.153 Y126.949 E0.2472
G1 X113.087 Y126.827 E0.0357
G1 X112.437 Y126.676 E0.0222
G1 X111.418 Y126.244 E0.0368
G1 X110.750 Y125.819 E0.0263
G1 X109.902 Y125.050 E0.0381
G1 X109.183 Y124.079 E0.0402
G1 X108.623 Y122.791 E0.0467
G1 X108.381 Y121.591 E0.0407
G1 X108.059 Y114.230 E0.2451
G1 X108.200 Y113.006 E0.0410
G1 X108.335 Y112.448 E0.0191
G1 X108.765 Y111.433 E0.0367
G1 X109.180 Y110.775 E0.0259
G1 X109.798 Y110.075 E0.0311
G0 F900 X109.864 Y110.000
G1 F2400 E-2.5000
G1 F900 Z0.600
G0 F6000 X110.089 Y110.199
G0 F6000 X110.164 Y110.265
G1 F900 Z0.200
G1 F2400 E2.5000
G1 F900 X110.960 Y109.642 E0.0336
G1 X112.039 Y109.114 E0.0400
G1 X112.983 Y108.860 E0.0325
G1 X121.434 Y108.511 E0.2813
G1 X121.714 Y108.550 E0.0094
G1 X122.319 Y108.689 E0.0206
G1 X123.076 Y108.978 E0.0270
G1 X123.950 Y109.484 E0.0336
G1 X124.505 Y109.928 E0.0236
G1 X125.281 Y110.826 E0.0395
G1 X125.644 Y111.440 E0.0237
G1 X125.971 Y112.243 E0.0288
G1 X126.144 Y112.972 E0.0249
G1 X126.540 Y120.739 E0.2587
G1 X126.410 Y121.924 E0.0396
G1 X126.297 Y122.411 E0.0166
G1 X125.892 Y123.381 E0.0350
G1 X125.510 Y123.992 E0.0240
G1 X124.741 Y124.840 E0.0381
G1 X123.830 Y125.505 E0.0375
G1 X122.621 Y126.020 E0.0437
G1 X121.502 Y126.237 E0.0379
G1 X114.136 Y126.549 E0.2452
G1 X113.134 Y126.430 E0.0336
G1 X112.529 Y126.287 E0.0207
G1 X111.630 Y125.905 E0.0325
G1 X111.019 Y125.523 E0.0240
G1 X110.171 Y124.754 E0.0381
G1 X109.506 Y123.843 E0.0375
G1 X108.991 Y122.634 E0.0437
G1 X108.774 Y121.515 E0.0379
G1 X108.459 Y114.213 E0.2431
G1 X108.589 Y113.100 E0.0373
G1 X108.724 Y112.542 E0.0191
G1 X109.105 Y111.644 E0.0324
G1 X109.480 Y111.040 E0.0236
G1 X110.098 Y110.340 E0.0311
G0 F900 X110.164 Y110.265
G1 F2400 E-2.5000
G1 F900 Z0.600
G0 F6000 X110.389 Y110.464
G0 F6000 X110.464 Y110.530
G1 F900 Z0.200
G1 F2400 E2.5000
G1 F900 X111.204 Y109.959 E0.0311
G1 X112.212 Y109.474 E0.0372
G1 X113.084 Y109.247 E0.0300
G1 X121.382 Y108.908 E0.2762
G1 X121.624 Y108.940 E0.0081
G1 X122.229 Y109.079 E0.0206
G1 X122.931 Y109.351 E0.0250
G1 X123.700 Y109.796 E0.0296
G1 X124.255 Y110.240 E0.0236
G1 X124.938 Y111.032 E0.0348
G1 X125.274 Y111.593 E0.0217
G1 X125.583 Y112.339 E0.0269
G1 X125.745 Y112.992 E0.0224
G1 X126.141 Y120.759 E0.2587
G1 X126.020 Y121.834 E0.0360
G1 X125.907 Y122.321 E0.0166
G1 X125.551 Y123.172 E0.0307
G1 X125.214 Y123.723 E0.0215
G1 X124.445 Y124.571 E0.0381
G1 X123.597 Y125.180 E0.0347
G1 X122.545 Y125.627 E0.0380
G1 X121.426 Y125.844 E0.0379
G1 X114.183 Y126.152 E0.2411
G1 X113.181 Y126.033 E0.0336
G1 X112.623 Y125.898 E0.0191
G1 X111.839 Y125.564 E0.0283
G1 X111.288 Y125.227 E0.0215
G1 X110.440 Y124.458 E0.0381
G1 X109.831 Y123.610 E0.0347
G1 X109.384 Y122.558 E0.0380
G1 X109.167 Y121.439 E0.0379
G1 X108.859 Y114.196 E0.2411
G1 X108.978 Y113.194 E0.0336
G1 X109.113 Y112.636 E0.0191
G1 X109.447 Y111.852 E0.0283
G1 X109.780 Y111.305 E0.0213
G1 X110.398 Y110.605 E0.0311
G0 F900 X110.464 Y110.530
G1 F2400 E-2.5000
G1 F900 Z0.600
G0 F6000 X110.689 Y110.729
G0 F6000 X110.764 Y110.795
G1 F900 Z0.200
G1 F2400 E2.5000
G1 F900 X111.446 Y110.278 E0.0285
G1 X112.383 Y109.836 E0.0345
G1 X113.182 Y109.635 E0.0274
G1 X121.333 Y109.305 E0.2713
G1 X121.534 Y109.330 E0.0067
G1 X122.139 Y109.469 E0.0206
G1 X122.784 Y109.723 E0.0231
G1 X123.498 Y110.141 E0.0275
G1 X124.003 Y110.551 E0.0216
G1 X124.596 Y111.240 E0.0302
G1 X124.905 Y111.748 E0.0198
G1 X125.196 Y112.440 E0.0250
G1 X125.346 Y113.012 E0.0197
G1 X125.742 Y120.779 E0.2587
G1 X125.623 Y121.787 E0.0338
G1 X125.518 Y122.229 E0.0151
G1 X125.207 Y122.968 E0.0267
G1 X124.918 Y123.454 E0.0188
G1 X124.149 Y124.302 E0.0381
G1 X123.367 Y124.853 E0.0318
G1 X122.392 Y125.258 E0.0351
G1 X121.353 Y125.451 E0.0351
G1 X114.166 Y125.752 E0.2393
G1 X113.230 Y125.636 E0.0314
G1 X112.719 Y125.510 E0.0175
G1 X112.043 Y125.220 E0.0245
G1 X111.557 Y124.931 E0.0188
G1 X110.709 Y124.162 E0.0381
G1 X110.158 Y123.380 E0.0318
G1 X109.753 Y122.405 E0.0351
G1 X109.560 Y121.366 E0.0351
G1 X109.259 Y114.179 E0.2393
G1 X109.375 Y113.243 E0.0314
G1 X109.501 Y112.732 E0.0175
G1 X109.791 Y112.056 E0.0245
G1 X110.080 Y111.570 E0.0188
G1 X110.698 Y110.870 E0.0311
G0 F900 X110.764 Y110.795
G1 F2400 E-2.5000
G1 F900 Z0.600
G0 F6000 X110.946 Y111.035
G0 F6000 X111.006 Y111.114
G1 F900 Z0.200
G1 F2400 E2.5000
G1 F900 X111.688 Y110.597 E0.0285
G1 X112.551 Y110.199 E0.0316
G1 X113.276 Y110.024 E0.0248
G1 X121.289 Y109.703 E0.2667
G1 X121.444 Y109.720 E0.0052
G1 X122.049 Y109.859 E0.0206
G1 X122.635 Y110.094 E0.0210
G1 X123.294 Y110.485 E0.0255
G1 X123.749 Y110.860 E0.0196
G1 X124.254 Y111.448 E0.0258
G1 X124.563 Y111.956 E0.0198
G1 X124.809 Y112.541 E0.0211
G1 X124.959 Y113.113 E0.0197
G1 X125.342 Y120.799 E0.2560
G1 X125.226 Y121.738 E0.0315
G1 X125.129 Y122.134 E0.0136
G1 X124.839 Y122.810 E0.0245
G1 X124.575 Y123.248 E0.0170
G1 X123.855 Y124.031 E0.0354
G1 X123.140 Y124.523 E0.0289
G1 X122.317 Y124.865 E0.0296
G1 X121.336 Y125.051 E0.0332
G1 X114.215 Y125.355 E0.2371
G1 X113.279 Y125.239 E0.0314
G1 X112.877 Y125.142 E0.0138
G1 X112.201 Y124.852 E0.0245
G1 X111.763 Y124.588 E0.0170
G1 X110.980 Y123.868 E0.0354
G1 X110.488 Y123.153 E0.0289
G1 X110.146 Y122.330 E0.0296
G1 X109.960 Y121.349 E0.0332
G1 X109.656 Y114.228 E0.2371
G1 X109.772 Y113.292 E0.0314
G1 X109.869 Y112.890 E0.0138
G1 X110.159 Y112.214 E0.0245
G1 X110.423 Y111.776 E0.0170
G1 X110.940 Y111.189 E0.0260
G0 F900 X111.006 Y111.114
G1 F2400 E-2.5000
G1 F900 Z0.600
G0 F6000 X111.230 Y111.315
G0 F6000 X111.304 Y111.381
G1 F900 Z0.200
G1 F2400 E2.5000
G1 F900 X111.927 Y110.918 E0.0258
G1 X112.645 Y110.588 E0.0263
G1 X113.370 Y110.413 E0.0248
G1 X121.253 Y110.101 E0.2624
G1 X121.354 Y110.110 E0.0034
G1 X121.959 Y110.249 E0.0206
G1 X122.483 Y110.464 E0.0188
G1 X123.040 Y110.794 E0.0215
G1 X123.495 Y111.169 E0.0196
G1 X123.912 Y111.656 E0.0213
G1 X124.221 Y112.164 E0.0198
G1 X124.439 Y112.693 E0.0190
G1 X124.571 Y113.212 E0.0178
G1 X124.942 Y120.818 E0.2533
G1 X124.829 Y121.686 E0.0291
G1 X124.761 Y121.976 E0.0099
G1 X124.471 Y122.652 E0.0245
G1 X124.234 Y123.039 E0.0151
G1 X123.628 Y123.701 E0.0299
G1 X122.913 Y124.193 E0.0289
G1 X122.167 Y124.494 E0.0268
G1 X121.319 Y124.651 E0.0287
G1 X114.264 Y124.958 E0.2349
G1 X113.328 Y124.842 E0.0314
G1 X113.035 Y124.774 E0.0100
G1 X112.359 Y124.484 E0.0245
G1 X111.972 Y124.247 E0.0151
G1 X111.310 Y123.641 E0.0299
G1 X110.818 Y122.926 E0.0289
G1 X110.517 Y122.180 E0.0268
G1 X110.360 Y121.332 E0.0287
G1 X110.053 Y114.277 E0.2349
G1 X110.169 Y113.341 E0.0314
G1 X110.237 Y113.048 E0.0100
G1 X110.527 Y112.372 E0.0245
G1 X110.764 Y111.985 E0.0151
G1 X111.238 Y111.455 E0.0236
G0 F900 X111.304 Y111.381
G1 F2400 E-2.5000
G1 F900 Z0.600
G0 F6000 X111.526 Y111.583
G0 F6000 X111.600 Y111.650
G1 F900 Z0.200
G1 F2400 E2.5000
G1 F900 X112.162 Y111.242 E0.0231
G1 X112.808 Y110.953 E0.0235
G1 X113.460 Y110.803 E0.0223
G1 X121.268 Y110.501 E0.2599
G1 X121.810 Y110.620 E0.0185
G1 X122.279 Y110.808 E0.0168
G1 X122.836 Y111.138 E0.0215
G1 X123.193 Y111.431 E0.0154
G1 X123.572 Y111.867 E0.0192
G1 X123.851 Y112.316 E0.0176
G1 X124.069 Y112.845 E0.0190
G1 X124.183 Y113.308 E0.0159
G1 X124.545 Y120.766 E0.2483
G1 X124.432 Y121.634 E0.0291
G1 X124.372 Y121.882 E0.0085
G1 X124.105 Y122.491 E0.0221
G1 X123.895 Y122.827 E0.0132
G1 X123.398 Y123.374 E0.0246
G1 X122.759 Y123.824 E0.0260
G1 X122.093 Y124.101 E0.0240
G1 X121.301 Y124.251 E0.0268
G1 X114.313 Y124.561 E0.2327
G1 X113.377 Y124.445 E0.0314
G1 X113.129 Y124.385 E0.0085
G1 X112.520 Y124.118 E0.0221
G1 X112.184 Y123.908 E0.0132
G1 X111.637 Y123.411 E0.0246
G1 X111.187 Y122.772 E0.0260
G1 X110.910 Y122.106 E0.0240
G1 X110.760 Y121.314 E0.0268
G1 X110.450 Y114.326 E0.2327
G1 X110.566 Y113.390 E0.0314
G1 X110.626 Y113.142 E0.0085
G1 X110.893 Y112.533 E0.0221
G1 X111.103 Y112.197 E0.0132
G1 X111.533 Y111.724 E0.0213
