;FLAVOR:RepRap
;TIME:12844
;Filament used: 10.2288m
;Layer height: 0.2
;MINX:36.863
;MINY:74.751
;MINZ:0.2
;MAXX:198.132
;MAXY:160.243
;MAXZ:8.2
;Generated with Cura_SteamEngine 4.7.1
T0
M190 S60
M104 S200
M109 S200
M82 ;absolute extrusion mode
; Ender 3 Custom Start G-code
;G92 E0 ; Reset Extruder
;G28 ; Home all axes
;G1 Z2.0 F3000 ; Move Z Axis up little to prevent scratching of Heat Bed
;G1 X-115 Y-115 Z0.2 F5000.0 ; Move to start position
;G1 X-115 Y100 Z0.2 F1500.0 E15 ; Draw the first line;G1 X-112 Y100 Z0.2 F5000.0 ; Move to side a little
;G1 X-112 Y-115 Z0.3 F1500.0 E30 ; Draw the second line
;G92 E0 ; Reset Extruder
;G1 Z5.0 F3000 ; Move Z Axis up little to prevent scratching of Heat Bed
;G1 X0 Y0  F5000.0 ; Move over to prevent blob squish
M83 ;relative extrusion mode
G10
;LAYER_COUNT:40
;LAYER:0
M107
M204 T500
M566 X480 Y480
G1 F300 Z0.4
G0 F6000 X75.024 Y82.944 Z0.4
M204 P500
;TYPE:SKIRT
G1 F300 Z0.2
G11
G1 F1200 X75.751 Y82.379 E0.03001
G1 X76.525 Y81.88 E0.03002
G1 X76.999 Y81.619 E0.01764
G1 X77.938 Y81.133 E0.03446
G1 X78.153 Y81.026 E0.00783
G1 X80.47 Y79.833 E0.08495
G1 X82.569 Y78.68 E0.07806
G1 X83.52 Y78.14 E0.03565
G1 X84.625 Y77.595 E0.04016
G1 X84.961 Y77.453 E0.01189
G1 X85.191 Y77.359 E0.0081
G1 X85.482 Y77.244 E0.0102
G1 X86.414 Y76.925 E0.03211
G1 X87.087 Y76.729 E0.02285
G1 X87.663 Y76.579 E0.0194
G1 X87.97 Y76.508 E0.01027
G1 X88.552 Y76.39 E0.01936
G1 X88.818 Y76.344 E0.0088
G1 X89.153 Y76.292 E0.01105
G1 X90.619 Y76.087 E0.04825
G1 X91.358 Y75.994 E0.02428
G1 X93.698 Y75.627 E0.0772
G1 X93.786 Y75.617 E0.00289
G1 X95.013 Y75.42 E0.04051
G1 X95.623 Y75.34 E0.02005
G1 X96.135 Y75.288 E0.01677
G1 X96.437 Y75.262 E0.00988
G1 X96.808 Y75.235 E0.01212
G1 X97.439 Y75.208 E0.02059
G1 X97.746 Y75.204 E0.01001
G1 X98.175 Y75.207 E0.01398
G1 X98.685 Y75.221 E0.01663
G1 X99.615 Y75.288 E0.03039
G1 X100.279 Y75.365 E0.02179
G1 X100.637 Y75.412 E0.01177
G1 X101.699 Y75.572 E0.03501
G1 X102.809 Y75.754 E0.03666
G1 X105.297 Y76.092 E0.08184
G1 X107.847 Y76.365 E0.08359
G1 X110.329 Y76.56 E0.08115
G1 X112.906 Y76.69 E0.0841
G1 X115.383 Y76.744 E0.08076
G1 X117.929 Y76.728 E0.08299
G1 X120.473 Y76.64 E0.08297
G1 X122.976 Y76.482 E0.08175
G1 X125.526 Y76.248 E0.08347
G1 X127.999 Y75.952 E0.08118
G1 X130.467 Y75.584 E0.08133
G1 X133.136 Y75.091 E0.08847
G1 X134.113 Y74.918 E0.03234
G1 X135.48 Y74.767 E0.04483
G1 X135.612 Y74.761 E0.00431
G1 X136.248 Y74.751 E0.02073
G1 X136.589 Y74.756 E0.01112
G1 X137.509 Y74.81 E0.03004
G1 X138.371 Y74.933 E0.02838
G1 X139.025 Y75.055 E0.02168
G1 X141.602 Y75.496 E0.08522
G1 X144.125 Y75.856 E0.08307
G1 X145.386 Y76.003 E0.04138
G1 X145.733 Y76.048 E0.01141
G1 X146.343 Y76.149 E0.02015
G1 X146.746 Y76.228 E0.01339
G1 X147.091 Y76.301 E0.01149
G1 X147.182 Y76.322 E0.00304
G1 X148.069 Y76.568 E0.03
G1 X148.628 Y76.767 E0.01934
G1 X149.028 Y76.922 E0.01398
G1 X149.282 Y77.024 E0.00892
G1 X149.658 Y77.181 E0.01328
G1 X150.471 Y77.562 E0.02927
G1 X151.569 Y78.134 E0.04035
G1 X152.016 Y78.374 E0.01654
G1 X154.253 Y79.497 E0.08159
G1 X155.076 Y79.881 E0.0296
G1 X156.365 Y80.497 E0.04657
G1 X157.28 Y80.991 E0.03389
G1 X157.566 Y81.164 E0.01089
G1 X157.884 Y81.364 E0.01224
G1 X158.289 Y81.629 E0.01578
G1 X159.037 Y82.166 E0.03001
G1 X159.528 Y82.577 E0.02087
G1 X160.069 Y83.058 E0.0236
G1 X160.357 Y83.324 E0.01278
G1 X160.522 Y83.482 E0.00745
G1 X161.168 Y84.158 E0.03048
G1 X161.562 Y84.632 E0.02009
G1 X161.727 Y84.843 E0.00873
G1 X162.006 Y85.217 E0.01521
G1 X162.332 Y85.674 E0.0183
G1 X162.662 Y86.164 E0.01926
G1 X163.242 Y87.081 E0.03537
G1 X164.634 Y89.217 E0.0831
G1 X166.058 Y91.267 E0.08136
G1 X166.336 Y91.688 E0.01644
G1 X166.694 Y92.259 E0.02197
G1 X168.095 Y94.429 E0.08419
G1 X170.191 Y97.444 E0.11969
G1 X170.445 Y97.794 E0.0141
G1 X170.953 Y98.561 E0.02999
G1 X171.252 Y99.091 E0.01983
G1 X171.384 Y99.342 E0.00924
G1 X171.516 Y99.602 E0.0095
G1 X171.667 Y99.91 E0.01118
G1 X172.826 Y102.188 E0.08331
G1 X174.052 Y104.44 E0.08358
G1 X175.31 Y106.6 E0.08148
G1 X176.647 Y108.755 E0.08266
G1 X178.043 Y110.87 E0.0826
G1 X179.473 Y112.908 E0.08115
G1 X181.017 Y114.979 E0.0842
G1 X182.568 Y116.944 E0.0816
G1 X184.189 Y118.881 E0.08233
G1 X185.875 Y120.784 E0.08287
G1 X187.612 Y122.636 E0.08276
G1 X189.362 Y124.399 E0.08097
G1 X189.612 Y124.639 E0.0113
G1 X190.534 Y125.545 E0.04213
G1 X190.714 Y125.726 E0.00832
G1 X190.984 Y126.005 E0.01266
G1 X191.441 Y126.486 E0.02163
G1 X191.958 Y127.044 E0.02479
G1 X192.382 Y127.531 E0.02105
G1 X193.105 Y128.416 E0.03725
G1 X193.246 Y128.594 E0.0074
G1 X193.786 Y129.297 E0.02889
G1 X194.13 Y129.772 E0.01912
G1 X194.377 Y130.134 E0.01428
G1 X194.548 Y130.392 E0.01009
G1 X194.726 Y130.67 E0.01076
G1 X194.908 Y130.965 E0.0113
G1 X195.271 Y131.575 E0.02314
G1 X195.602 Y132.174 E0.02231
G1 X196.073 Y133.096 E0.03375
G1 X196.223 Y133.402 E0.01111
G1 X196.296 Y133.557 E0.00558
G1 X196.429 Y133.85 E0.01049
G1 X196.558 Y134.147 E0.01055
G1 X196.731 Y134.572 E0.01496
G1 X196.949 Y135.14 E0.01983
G1 X197.094 Y135.541 E0.0139
G1 X197.208 Y135.878 E0.0116
G1 X197.32 Y136.229 E0.01201
G1 X197.476 Y136.749 E0.0177
G1 X197.639 Y137.358 E0.02055
G1 X197.755 Y137.849 E0.01644
G1 X197.819 Y138.137 E0.00962
G1 X197.907 Y138.562 E0.01415
G1 X198.054 Y139.471 E0.03001
G1 X198.121 Y140.352 E0.0288
G1 X198.127 Y140.529 E0.00577
G1 X198.132 Y141.038 E0.01659
G1 X198.126 Y141.462 E0.01382
G1 X198.108 Y141.952 E0.01598
G1 X198.039 Y142.696 E0.02435
G1 X197.944 Y143.431 E0.02416
G1 X197.903 Y143.711 E0.00922
G1 X197.746 Y144.721 E0.03332
G1 X197.694 Y145.026 E0.01008
G1 X197.577 Y145.65 E0.02069
G1 X197.434 Y146.356 E0.02348
G1 X197.223 Y147.214 E0.0288
G1 X197.099 Y147.64 E0.01446
G1 X197.011 Y147.928 E0.00982
G1 X196.925 Y148.195 E0.00914
G1 X196.776 Y148.624 E0.0148
G1 X196.588 Y149.101 E0.01671
G1 X196.498 Y149.314 E0.00754
G1 X196.325 Y149.701 E0.01382
G1 X196.117 Y150.143 E0.01592
G1 X195.562 Y151.171 E0.03808
G1 X195.432 Y151.383 E0.00811
G1 X195.155 Y151.811 E0.01662
G1 X194.879 Y152.216 E0.01597
G1 X194.328 Y152.954 E0.03002
G1 X194.012 Y153.324 E0.01586
G1 X193.873 Y153.479 E0.00679
G1 X193.456 Y153.918 E0.01974
G1 X193.086 Y154.286 E0.01701
G1 X192.406 Y154.906 E0.02999
G1 X191.674 Y155.465 E0.03002
G1 X191.17 Y155.795 E0.01964
G1 X190.16 Y156.416 E0.03865
G1 X189.916 Y156.558 E0.0092
G1 X189.418 Y156.842 E0.01869
G1 X189.144 Y156.993 E0.0102
G1 X188.343 Y157.419 E0.02957
G1 X187.971 Y157.61 E0.01363
G1 X187.173 Y158.004 E0.02901
G1 X186.762 Y158.196 E0.01479
G1 X186.46 Y158.329 E0.01076
G1 X186.101 Y158.479 E0.01268
G1 X185.595 Y158.68 E0.01775
G1 X185.272 Y158.802 E0.01125
G1 X184.997 Y158.901 E0.00953
G1 X184.556 Y159.05 E0.01517
G1 X184.032 Y159.213 E0.01789
G1 X183.478 Y159.368 E0.01875
G1 X182.987 Y159.492 E0.01651
G1 X182.65 Y159.572 E0.01129
G1 X182.251 Y159.659 E0.01331
G1 X181.699 Y159.764 E0.01832
G1 X181.423 Y159.809 E0.00911
G1 X180.934 Y159.877 E0.01609
G1 X180.337 Y159.946 E0.01959
G1 X179.453 Y160.011 E0.02889
G1 X179.135 Y160.021 E0.01037
G1 X178.805 Y160.026 E0.01076
G1 X175.172 Y160.027 E0.11842
G1 X175.089 Y160.031 E0.00271
G1 X174.037 Y160.034 E0.03429
G1 X173.863 Y160.027 E0.00568
G1 X171.493 Y160.026 E0.07725
G1 X170.785 Y160.015 E0.02308
G1 X169.866 Y159.96 E0.03001
G1 X169.312 Y159.889 E0.01821
G1 X168.468 Y159.756 E0.02785
G1 X168.175 Y159.706 E0.00969
G1 X165.605 Y159.304 E0.08479
G1 X163.076 Y158.981 E0.0831
G1 X160.597 Y158.736 E0.0812
G1 X158.063 Y158.557 E0.0828
G1 X155.518 Y158.45 E0.08303
G1 X153.008 Y158.415 E0.08182
G1 X150.462 Y158.452 E0.083
G1 X147.94 Y158.56 E0.08228
G1 X145.462 Y158.736 E0.08097
G1 X142.901 Y158.991 E0.08389
G1 X140.411 Y159.311 E0.08183
G1 X137.88 Y159.709 E0.08351
G1 X136.373 Y159.983 E0.04993
G1 X136.129 Y160.024 E0.00806
G1 X135.553 Y160.115 E0.01901
G1 X134.638 Y160.219 E0.03002
G1 X133.718 Y160.243 E0.03
G1 X133.096 Y160.215 E0.02029
G1 X133.017 Y160.209 E0.00258
G1 X132.259 Y160.123 E0.02487
G1 X131.125 Y159.954 E0.03737
G1 X130.056 Y159.781 E0.0353
G1 X127.543 Y159.447 E0.08263
G1 X125.044 Y159.187 E0.08189
G1 X122.501 Y158.995 E0.08312
G1 X119.996 Y158.877 E0.08174
G1 X117.485 Y158.83 E0.08186
G1 X114.904 Y158.855 E0.08413
G1 X112.419 Y158.949 E0.08106
G1 X109.897 Y159.115 E0.08238
G1 X107.346 Y159.357 E0.08352
G1 X104.861 Y159.663 E0.08161
G1 X102.832 Y159.971 E0.06689
G1 X102.495 Y160.017 E0.01109
G1 X102.268 Y160.044 E0.00745
G1 X101.35 Y160.113 E0.03001
G1 X100.848 Y160.117 E0.01636
G1 X100.659 Y160.114 E0.00616
G1 X99.74 Y160.059 E0.03001
G1 X99.039 Y159.963 E0.02306
G1 X98.203 Y159.819 E0.02765
G1 X96.752 Y159.547 E0.04812
G1 X94.279 Y159.157 E0.0816
G1 X91.775 Y158.835 E0.08229
G1 X89.262 Y158.583 E0.08232
G1 X86.73 Y158.401 E0.08274
G1 X84.21 Y158.292 E0.08222
G1 X81.672 Y158.254 E0.08274
G1 X79.154 Y158.288 E0.08208
G1 X76.622 Y158.393 E0.0826
G1 X74.1 Y158.57 E0.08241
G1 X71.598 Y158.816 E0.08195
G1 X69.083 Y159.135 E0.08263
G1 X67.32 Y159.413 E0.05817
G1 X65.864 Y159.627 E0.04797
G1 X64.126 Y159.859 E0.05715
G1 X63.445 Y159.941 E0.02236
G1 X62.558 Y160.01 E0.029
G1 X62.363 Y160.017 E0.00636
G1 X62.08 Y160.024 E0.00923
G1 X61.667 Y160.027 E0.01346
G1 X60.821 Y160.028 E0.02758
G1 X59.296 Y160.024 E0.04971
G1 X58.715 Y160.015 E0.01894
G1 X57.549 Y159.932 E0.0381
G1 X57.172 Y159.881 E0.0124
G1 X56.538 Y159.782 E0.02092
G1 X54.378 Y159.421 E0.07138
G1 X53.697 Y159.297 E0.02256
G1 X53.412 Y159.241 E0.00947
G1 X53.127 Y159.181 E0.00949
G1 X52.788 Y159.105 E0.01132
G1 X52.054 Y158.928 E0.02461
G1 X51.274 Y158.728 E0.02625
G1 X50.701 Y158.563 E0.01944
G1 X49.917 Y158.313 E0.02682
G1 X49.74 Y158.255 E0.00607
G1 X49.352 Y158.123 E0.01336
G1 X48.715 Y157.899 E0.02201
G1 X48.122 Y157.67 E0.02072
G1 X47.675 Y157.482 E0.01581
G1 X47.403 Y157.363 E0.00968
G1 X47.024 Y157.191 E0.01357
G1 X46.736 Y157.055 E0.01038
G1 X46.522 Y156.95 E0.00777
G1 X46.131 Y156.749 E0.01433
G1 X45.61 Y156.466 E0.01933
G1 X45.059 Y156.144 E0.0208
G1 X44.708 Y155.925 E0.01349
G1 X44.479 Y155.778 E0.00887
G1 X44.123 Y155.543 E0.0139
G1 X43.641 Y155.206 E0.01917
G1 X43.427 Y155.047 E0.00869
G1 X43.059 Y154.76 E0.01521
G1 X42.635 Y154.415 E0.01782
G1 X42.186 Y154.028 E0.01932
G1 X41.924 Y153.784 E0.01167
G1 X41.703 Y153.571 E0.01
G1 X41.487 Y153.357 E0.00991
G1 X41.245 Y153.11 E0.01127
G1 X40.614 Y152.405 E0.03084
G1 X40.159 Y151.849 E0.02342
G1 X39.919 Y151.545 E0.01262
G1 X39.793 Y151.379 E0.00679
G1 X39.32 Y150.702 E0.02692
G1 X39.176 Y150.478 E0.00868
G1 X38.915 Y150.052 E0.01628
G1 X38.634 Y149.566 E0.0183
G1 X38.091 Y148.489 E0.03931
G1 X37.92 Y148.096 E0.01397
G1 X37.81 Y147.833 E0.00929
G1 X37.645 Y147.424 E0.01438
G1 X37.338 Y146.556 E0.03001
G1 X37.107 Y145.664 E0.03003
G1 X36.955 Y144.757 E0.02998
G1 X36.876 Y143.623 E0.03705
G1 X36.864 Y142.85 E0.0252
G1 X36.863 Y141.048 E0.05874
G1 X36.874 Y140.2 E0.02764
G1 X36.927 Y139.281 E0.03
G1 X37.06 Y138.37 E0.03001
G1 X37.26 Y137.515 E0.02862
G1 X37.4 Y137.011 E0.01705
G1 X37.488 Y136.71 E0.01022
G1 X37.607 Y136.326 E0.0131
G1 X37.747 Y135.905 E0.01446
G1 X37.85 Y135.616 E0.01
G1 X37.985 Y135.258 E0.01247
G1 X38.193 Y134.735 E0.01835
G1 X38.317 Y134.436 E0.01055
G1 X38.431 Y134.173 E0.00934
G1 X38.614 Y133.775 E0.01428
G1 X38.731 Y133.533 E0.00876
G1 X38.897 Y133.204 E0.01201
G1 X39.363 Y132.32 E0.03257
G1 X39.591 Y131.91 E0.01529
G1 X39.646 Y131.816 E0.00355
G1 X39.928 Y131.36 E0.01748
G1 X40.528 Y130.446 E0.03564
G1 X40.637 Y130.285 E0.00634
G1 X41.137 Y129.571 E0.02841
G1 X41.482 Y129.107 E0.01885
G1 X41.6 Y128.957 E0.00622
G1 X41.779 Y128.736 E0.00927
G1 X42.014 Y128.453 E0.01199
G1 X42.394 Y128.003 E0.0192
G1 X42.991 Y127.318 E0.02962
G1 X43.395 Y126.88 E0.01942
G1 X43.86 Y126.405 E0.02167
G1 X44.163 Y126.101 E0.01399
G1 X45.012 Y125.273 E0.03865
G1 X45.149 Y125.141 E0.0062
G1 X46.324 Y124.037 E0.05255
G1 X48.112 Y122.258 E0.08221
G1 X49.857 Y120.419 E0.08263
G1 X51.543 Y118.541 E0.08226
G1 X53.181 Y116.608 E0.08259
G1 X54.756 Y114.638 E0.08221
G1 X56.271 Y112.631 E0.08196
G1 X57.757 Y110.541 E0.08359
G1 X59.156 Y108.452 E0.08195
G1 X60.496 Y106.321 E0.08205
G1 X61.764 Y104.174 E0.08127
G1 X63.469 Y101.053 E0.11592
G1 X64.047 Y99.947 E0.04068
G1 X64.189 Y99.683 E0.00977
G1 X64.365 Y99.368 E0.01176
G1 X64.503 Y99.129 E0.009
G1 X64.957 Y98.366 E0.02894
G1 X66.026 Y96.625 E0.06659
G1 X67.289 Y94.431 E0.08252
G1 X68.503 Y92.181 E0.08333
G1 X68.682 Y91.861 E0.01195
G1 X68.89 Y91.518 E0.01308
G1 X69.038 Y91.284 E0.00902
G1 X69.206 Y91.028 E0.00998
G1 X69.567 Y90.492 E0.02106
G1 X71.012 Y88.277 E0.0862
G1 X71.67 Y87.21 E0.04086
G1 X71.73 Y87.121 E0.0035
G1 X72.391 Y86.046 E0.04113
G1 X73.072 Y85.066 E0.0389
G1 X73.298 Y84.777 E0.01196
G1 X73.498 Y84.53 E0.01036
G1 X73.73 Y84.251 E0.01183
G1 X74.127 Y83.813 E0.01927
G0 F1080 X74.348 Y83.569
G0 X75.024 Y82.944
G0 F6000 X75.309 Y83.226
G1 F1200 X76.025 Y82.676 E0.02943
G1 X77.183 Y81.974 E0.04414
G1 X77.954 Y81.574 E0.02831
G1 X78.336 Y81.383 E0.01392
G1 X80.633 Y80.2 E0.08422
G1 X82.777 Y79.021 E0.07975
G1 X83.717 Y78.488 E0.03522
G1 X84.78 Y77.964 E0.03863
G1 X85.116 Y77.822 E0.01189
G1 X85.338 Y77.731 E0.00782
G1 X85.629 Y77.616 E0.0102
G1 X86.526 Y77.309 E0.0309
G1 X87.199 Y77.113 E0.02285
G1 X87.753 Y76.968 E0.01867
G1 X88.06 Y76.897 E0.01027
G1 X88.62 Y76.784 E0.01862
G1 X88.886 Y76.738 E0.0088
G1 X89.208 Y76.688 E0.01062
G1 X90.669 Y76.484 E0.04808
G1 X91.404 Y76.392 E0.02414
G1 X93.76 Y76.022 E0.07773
G1 X93.849 Y76.012 E0.00292
G1 X95.076 Y75.815 E0.04051
G1 X95.663 Y75.738 E0.0193
G1 X96.175 Y75.686 E0.01677
G1 X96.466 Y75.661 E0.00952
G1 X96.837 Y75.634 E0.01212
G1 X97.444 Y75.608 E0.0198
G1 X97.751 Y75.604 E0.01001
G1 X98.164 Y75.607 E0.01346
G1 X98.674 Y75.621 E0.01663
G1 X99.569 Y75.685 E0.02925
G1 X100.233 Y75.762 E0.02179
G1 X100.578 Y75.808 E0.01134
G1 X101.771 Y75.988 E0.03933
G1 X102.768 Y76.151 E0.03293
G1 X105.268 Y76.491 E0.08224
G1 X107.775 Y76.76 E0.08218
G1 X110.349 Y76.962 E0.08416
G1 X112.842 Y77.088 E0.08136
G1 X115.411 Y77.144 E0.08376
G1 X117.945 Y77.128 E0.0826
G1 X120.476 Y77.04 E0.08255
G1 X123.04 Y76.878 E0.08374
G1 X125.539 Y76.65 E0.08179
G1 X128.069 Y76.346 E0.08306
G1 X130.542 Y75.977 E0.0815
G1 X133.206 Y75.485 E0.0883
G1 X134.183 Y75.312 E0.03234
G1 X135.498 Y75.167 E0.04312
G1 X135.63 Y75.161 E0.00431
G1 X136.243 Y75.151 E0.01998
G1 X136.584 Y75.156 E0.01112
G1 X137.485 Y75.209 E0.02942
G1 X138.298 Y75.327 E0.02678
G1 X138.95 Y75.448 E0.02161
G1 X141.52 Y75.889 E0.08499
G1 X144.056 Y76.25 E0.08349
G1 X145.34 Y76.4 E0.04214
G1 X145.679 Y76.444 E0.01114
G1 X146.266 Y76.542 E0.0194
G1 X146.669 Y76.621 E0.01339
G1 X147.001 Y76.691 E0.01106
G1 X147.092 Y76.712 E0.00304
G1 X147.962 Y76.954 E0.02943
G1 X148.483 Y77.14 E0.01803
G1 X148.883 Y77.295 E0.01398
G1 X149.128 Y77.394 E0.00861
G1 X149.504 Y77.551 E0.01328
G1 X150.287 Y77.917 E0.02817
G1 X151.385 Y78.489 E0.04035
G1 X151.826 Y78.726 E0.01632
G1 X154.084 Y79.859 E0.08234
G1 X154.903 Y80.242 E0.02947
G1 X156.192 Y80.858 E0.04657
G1 X157.073 Y81.333 E0.03262
G1 X157.359 Y81.506 E0.01089
G1 X157.665 Y81.699 E0.01179
G1 X158.07 Y81.964 E0.01578
G1 X158.803 Y82.491 E0.02943
G1 X159.262 Y82.876 E0.01953
G1 X159.803 Y83.357 E0.0236
G1 X160.081 Y83.613 E0.01232
G1 X160.246 Y83.771 E0.00745
G1 X160.867 Y84.421 E0.0293
G1 X161.247 Y84.879 E0.0194
G1 X161.412 Y85.09 E0.00873
G1 X161.681 Y85.45 E0.01465
G1 X162.007 Y85.907 E0.0183
G1 X162.324 Y86.378 E0.01851
G1 X162.896 Y87.283 E0.0349
G1 X164.303 Y89.442 E0.084
G1 X165.729 Y91.495 E0.08148
G1 X165.997 Y91.901 E0.01586
G1 X166.342 Y92.452 E0.02119
G1 X167.768 Y94.659 E0.08565
G1 X169.864 Y97.675 E0.11971
G1 X170.121 Y98.029 E0.01426
G1 X170.619 Y98.782 E0.02943
G1 X170.898 Y99.277 E0.01852
G1 X171.03 Y99.528 E0.00924
G1 X171.157 Y99.778 E0.00914
G1 X171.295 Y100.06 E0.01023
G1 X172.49 Y102.409 E0.0859
G1 X173.683 Y104.6 E0.08132
G1 X174.974 Y106.816 E0.08359
G1 X176.326 Y108.997 E0.08364
G1 X177.698 Y111.075 E0.08116
G1 X179.157 Y113.154 E0.08279
G1 X180.697 Y115.221 E0.08402
G1 X182.246 Y117.182 E0.08145
G1 X183.891 Y119.148 E0.08355
G1 X185.583 Y121.057 E0.08315
G1 X187.319 Y122.909 E0.08274
G1 X189.085 Y124.688 E0.08171
G1 X189.332 Y124.925 E0.01116
