;FLAVOR:RepRap
;TIME:14335
;Filament used: 8.73213m
;Layer height: 0.2
;MINX:74.97
;MINY:79.564
;MINZ:0.2
;MAXX:160.03
;MAXY:155.579
;MAXZ:25.8
;Generated with Cura_SteamEngine 4.7.1
T0
M190 S60
M104 S200
M109 S200
M82 ;absolute extrusion mode
; Ender 3 Custom Start G-code
;G92 E0 ; Reset Extruder
;G28 ; Home all axes
;G1 Z2.0 F3000 ; Move Z Axis up little to prevent scratching of Heat Bed
;G1 X-115 Y-115 Z0.2 F5000.0 ; Move to start position
;G1 X-115 Y100 Z0.2 F1500.0 E15 ; Draw the first line;G1 X-112 Y100 Z0.2 F5000.0 ; Move to side a little
;G1 X-112 Y-115 Z0.3 F1500.0 E30 ; Draw the second line
;G92 E0 ; Reset Extruder
;G1 Z5.0 F3000 ; Move Z Axis up little to prevent scratching of Heat Bed
;G1 X0 Y0  F5000.0 ; Move over to prevent blob squish
M83 ;relative extrusion mode
G10
;LAYER_COUNT:127
;LAYER:0
M107
M204 T500
M566 X480 Y480
G1 F600 Z0.6
G0 F6000 X99.153 Y134.663 Z0.6
M204 P500
;TYPE:SKIRT
G1 F600 Z0.2
G11
G1 F900 X99.416 Y135.43 E0.03236
G1 X99.371 Y136.008 E0.02314
G1 X99.195 Y135.963 E0.00725
G1 X99.222 Y135.631 E0.01329
G1 X99.207 Y135.269 E0.01446
G1 X99.153 Y134.663 E0.02428
G0 F6000 X98.809 Y135.305
G1 F900 X98.673 Y133.767 E0.06162
G1 X98.587 Y133.252 E0.02084
G1 X98.424 Y132.757 E0.0208
G1 X98.272 Y132.46 E0.01332
G1 X98.443 Y132.399 E0.00725
G1 X98.631 Y132.297 E0.00854
G1 X99.304 Y133.866 E0.06814
G1 X99.821 Y135.375 E0.06366
G1 X99.73 Y136.535 E0.04644
G1 X99.369 Y136.41 E0.01525
G1 X98.857 Y136.316 E0.02078
G1 X98.737 Y136.313 E0.00479
G1 X98.794 Y136.036 E0.01129
G1 X98.809 Y135.305 E0.02918
G0 F6000 X98.41 Y135.34
G1 F900 X98.274 Y133.802 E0.06162
G1 X98.192 Y133.319 E0.01955
G1 X98.031 Y132.857 E0.01953
G1 X97.798 Y132.426 E0.01955
G1 X97.645 Y132.229 E0.00996
G1 X98.017 Y132.136 E0.0153
G1 X98.467 Y131.942 E0.01956
G1 X98.838 Y131.703 E0.01761
G1 X98.958 Y132.047 E0.01454
G1 X99.678 Y133.724 E0.07284
G1 X100.226 Y135.325 E0.06754
G1 X100.1 Y136.928 E0.06418
G1 X100.092 Y137.076 E0.00592
G1 X100.089 Y137.162 E0.00343
G1 X99.954 Y137.072 E0.00648
G1 X99.508 Y136.871 E0.01953
G1 X99.035 Y136.746 E0.01953
G1 X98.548 Y136.698 E0.01953
G1 X98.198 Y136.722 E0.014
G1 X98.32 Y136.378 E0.01457
G1 X98.408 Y135.896 E0.01956
G1 X98.41 Y135.34 E0.02219
G0 F6000 X98.012 Y135.375
G1 F900 X97.876 Y133.837 E0.06162
G1 X97.796 Y133.388 E0.0182
G1 X97.639 Y132.961 E0.01816
G1 X97.41 Y132.567 E0.01819
G1 X97.116 Y132.219 E0.01818
G1 X96.867 Y132.002 E0.01318
G1 X96.69 Y131.866 E0.00891
G1 X96.725 Y131.874 E0.00143
G1 X97.181 Y131.892 E0.01821
G1 X97.632 Y131.83 E0.01817
G1 X98.066 Y131.69 E0.0182
G1 X98.468 Y131.477 E0.01816
G1 X98.828 Y131.197 E0.0182
G1 X99.123 Y130.868 E0.01764
G1 X99.135 Y131.19 E0.01286
G1 X99.232 Y131.635 E0.01818
G1 X99.326 Y131.889 E0.01081
G1 X100.046 Y133.567 E0.07288
G1 X100.632 Y135.276 E0.07211
G1 X100.499 Y136.96 E0.06742
G1 X100.492 Y137.088 E0.00512
G1 X100.465 Y138.007 E0.0367
G1 X100.337 Y137.855 E0.00793
G1 X99.988 Y137.564 E0.01814
G1 X99.592 Y137.337 E0.01822
G1 X99.163 Y137.183 E0.01819
G1 X98.714 Y137.107 E0.01818
G1 X98.259 Y137.11 E0.01816
G1 X97.81 Y137.192 E0.01822
G1 X97.381 Y137.353 E0.01829
G1 X97.586 Y137.045 E0.01477
G1 X97.804 Y136.645 E0.01818
G1 X97.95 Y136.214 E0.01816
G1 X98.017 Y135.763 E0.0182
G1 X98.012 Y135.375 E0.01549
G0 F6000 X97.613 Y135.41
G1 F900 X97.477 Y133.872 E0.06162
G1 X97.401 Y133.46 E0.01672
G1 X97.248 Y133.07 E0.01672
G1 X97.023 Y132.716 E0.01674
G1 X96.624 Y132.319 E0.02246
G1 X94.652 Y130.809 E0.09913
G1 X92.755 Y129.332 E0.09596
G1 X92.223 Y129.027 E0.02448
G1 X90.899 Y128.495 E0.05695
G1 X89.609 Y127.298 E0.07024
G1 X89.483 Y127.189 E0.00665
G1 X88.91 Y126.732 E0.02925
G1 X88.638 Y125.987 E0.03165
G1 X88.458 Y125.608 E0.01675
G1 X88.209 Y125.271 E0.01672
G1 X87.992 Y125.076 E0.01164
G1 X87.594 Y123.933 E0.04831
G1 X87.419 Y123.552 E0.01673
G1 X87.175 Y123.211 E0.01674
G1 X87.007 Y123.057 E0.0091
G1 X86.524 Y121.395 E0.06908
G1 X86.456 Y121.197 E0.00836
G1 X86.002 Y120.052 E0.04916
G1 X86.005 Y119.361 E0.02758
G1 X85.967 Y118.944 E0.01671
G1 X85.875 Y118.605 E0.01402
G1 X85.562 Y117.735 E0.0369
G1 X85.606 Y117.535 E0.00817
G1 X85.618 Y117.116 E0.01673
G1 X85.559 Y116.734 E0.01543
G1 X85.257 Y115.511 E0.05028
G1 X85.821 Y112.913 E0.10611
G1 X85.862 Y112.817 E0.00417
G1 X86.176 Y112.589 E0.01549
G1 X87.045 Y112.532 E0.03476
G1 X87.458 Y112.465 E0.0167
G1 X87.852 Y112.321 E0.01674
G1 X88.211 Y112.105 E0.01672
G1 X88.428 Y111.922 E0.01133
G1 X88.635 Y111.723 E0.01146
G1 X88.638 Y111.766 E0.00172
G1 X88.549 Y112.405 E0.02575
G1 X88.509 Y112.398 E0.00162
G1 X88.09 Y112.408 E0.01673
G1 X87.681 Y112.497 E0.01671
G1 X87.296 Y112.663 E0.01673
G1 X86.949 Y112.898 E0.01673
G1 X86.653 Y113.195 E0.01674
G1 X86.419 Y113.543 E0.01674
G1 X86.255 Y113.928 E0.0167
G1 X86.193 Y114.176 E0.0102
G1 X85.96 Y115.386 E0.04918
G1 X85.92 Y115.803 E0.01672
G1 X85.96 Y116.22 E0.01672
G1 X86.028 Y116.482 E0.0108
G1 X86.043 Y116.527 E0.00189
G1 X85.96 Y116.898 E0.01517
G1 X85.948 Y117.317 E0.01673
G1 X86.004 Y117.684 E0.01482
G1 X86.384 Y119.265 E0.0649
G1 X86.393 Y120.185 E0.03672
G1 X86.437 Y120.601 E0.0167
G1 X86.499 Y120.836 E0.0097
G1 X87.145 Y122.843 E0.08415
G1 X87.311 Y123.228 E0.01673
G1 X87.546 Y123.574 E0.01669
G1 X87.834 Y123.844 E0.01576
G1 X88.123 Y124.72 E0.03682
G1 X88.291 Y125.104 E0.01673
G1 X88.53 Y125.448 E0.01672
G1 X88.863 Y125.759 E0.01819
G1 X89.02 Y126.175 E0.01775
G1 X89.205 Y126.552 E0.01676
G1 X89.457 Y126.886 E0.0167
G1 X89.687 Y127.104 E0.01265
G1 X90.845 Y128.05 E0.05968
G1 X91.193 Y128.283 E0.01672
G1 X91.58 Y128.445 E0.01674
G1 X91.99 Y128.532 E0.01673
G1 X92.23 Y128.546 E0.0096
G1 X93.679 Y129.481 E0.06883
G1 X95.717 Y131.042 E0.10246
G1 X96.073 Y131.264 E0.01675
G1 X96.464 Y131.414 E0.01671
G1 X96.876 Y131.488 E0.01671
G1 X97.295 Y131.482 E0.01672
G1 X97.706 Y131.397 E0.01675
G1 X98.092 Y131.235 E0.01671
G1 X98.441 Y131.003 E0.01673
G1 X98.74 Y130.709 E0.01674
G1 X98.978 Y130.364 E0.01673
G1 X99.109 Y130.082 E0.01241
G1 X99.828 Y128.204 E0.08026
G1 X100.002 Y128.05 E0.00927
G1 X100.258 Y127.718 E0.01673
G1 X100.487 Y127.228 E0.02159
G1 X100.762 Y126.381 E0.03554
G1 X100.951 Y126.185 E0.01087
G1 X101.179 Y125.834 E0.01671
G1 X101.275 Y125.624 E0.00922
G1 X102.381 Y122.822 E0.12023
G1 X102.502 Y122.577 E0.01091
G1 X102.708 Y122.427 E0.01017
G1 X102.757 Y122.427 E0.00196
G1 X102.82 Y122.721 E0.012
G1 X102.141 Y124.554 E0.07802
G1 X101.054 Y126.338 E0.08338
G1 X100.841 Y126.802 E0.02038
G1 X100.591 Y127.572 E0.03231
G1 X100.497 Y127.655 E0.005
G1 X100.242 Y127.988 E0.01674
G1 X100.054 Y128.362 E0.01671
G1 X99.963 Y128.662 E0.01251
G1 X99.571 Y130.372 E0.07002
G1 X99.516 Y130.788 E0.01675
G1 X99.542 Y131.206 E0.01672
G1 X99.693 Y131.732 E0.02184
G1 X100.427 Y133.442 E0.07427
G1 X101.037 Y135.224 E0.07518
G1 X100.898 Y136.991 E0.07074
G1 X100.892 Y137.1 E0.00436
G1 X100.833 Y139.116 E0.0805
G1 X100.836 Y139.319 E0.0081
G1 X100.94 Y140.957 E0.06551
G1 X100.725 Y141.889 E0.03818
G1 X100.775 Y140.647 E0.04961
G1 X100.769 Y140.371 E0.01102
G1 X100.695 Y139.51 E0.03449
G1 X100.619 Y139.097 E0.01676
G1 X100.467 Y138.707 E0.01671
G1 X100.244 Y138.353 E0.0167
G1 X99.957 Y138.047 E0.01674
G1 X99.618 Y137.801 E0.01672
G1 X99.238 Y137.624 E0.01673
G1 X98.831 Y137.523 E0.01674
G1 X98.413 Y137.5 E0.01671
G1 X97.998 Y137.557 E0.01672
G1 X97.601 Y137.692 E0.01674
G1 X97.237 Y137.899 E0.01671
G1 X96.919 Y138.172 E0.01673
G1 X96.658 Y138.5 E0.01673
G1 X96.406 Y139.034 E0.02357
G1 X95.774 Y141.028 E0.08349
G1 X95.048 Y141.906 E0.04547
G1 X95.209 Y141.605 E0.01362
G1 X95.575 Y141.116 E0.02438
G1 X95.793 Y140.758 E0.01673
G1 X95.932 Y140.39 E0.0157
G1 X96.691 Y137.668 E0.11279
G1 X97.253 Y136.824 E0.04047
G1 X97.451 Y136.454 E0.01675
G1 X97.575 Y136.054 E0.01671
G1 X97.622 Y135.638 E0.01671
G1 X97.613 Y135.41 E0.00911
G0 F6000 X97.215 Y135.445
G1 F900 X97.079 Y133.907 E0.06162
G1 X97.006 Y133.536 E0.01509
G1 X96.857 Y133.187 E0.01515
G1 X96.638 Y132.878 E0.01512
G1 X96.38 Y132.637 E0.01409
G1 X94.408 Y131.127 E0.09913
G1 X92.509 Y129.648 E0.09607
G1 X92.074 Y129.398 E0.02002
G1 X90.681 Y128.839 E0.05991
G1 X89.337 Y127.591 E0.0732
G1 X89.234 Y127.502 E0.00543
G1 X88.572 Y126.975 E0.03377
G1 X88.262 Y126.124 E0.03615
G1 X88.096 Y125.783 E0.01514
G1 X87.862 Y125.485 E0.01512
G1 X87.648 Y125.3 E0.01129
G1 X87.217 Y124.064 E0.05224
G1 X87.055 Y123.722 E0.0151
G1 X86.825 Y123.42 E0.01515
G1 X86.651 Y123.268 E0.00922
G1 X86.14 Y121.506 E0.07322
G1 X86.084 Y121.345 E0.0068
G1 X85.602 Y120.128 E0.05224
G1 X85.605 Y119.359 E0.03069
G1 X85.567 Y118.982 E0.01512
G1 X85.498 Y118.741 E0.01001
G1 X85.146 Y117.764 E0.04145
G1 X85.213 Y117.449 E0.01285
G1 X85.213 Y117.07 E0.01513
G1 X85.17 Y116.83 E0.00973
G1 X84.846 Y115.518 E0.05394
G1 X85.438 Y112.792 E0.11134
G1 X85.537 Y112.559 E0.0101
G1 X86.034 Y112.197 E0.02454
G1 X87.019 Y112.133 E0.0394
G1 X87.392 Y112.069 E0.0151
G1 X87.744 Y111.928 E0.01513
G1 X88.151 Y111.634 E0.02004
G1 X88.678 Y111.127 E0.02919
G1 X88.976 Y110.981 E0.01324
G1 X89.041 Y111.775 E0.0318
G1 X88.886 Y112.883 E0.04465
G1 X88.713 Y112.828 E0.00725
G1 X88.336 Y112.792 E0.01512
G1 X87.959 Y112.836 E0.01515
G1 X87.6 Y112.957 E0.01512
G1 X87.275 Y113.151 E0.01511
G1 X86.997 Y113.408 E0.01511
G1 X86.779 Y113.719 E0.01516
G1 X86.631 Y114.067 E0.01509
G1 X86.585 Y114.252 E0.00761
G1 X86.352 Y115.462 E0.04918
G1 X86.32 Y115.839 E0.0151
G1 X86.408 Y116.358 E0.02101
G1 X86.461 Y116.521 E0.00684
G1 X86.431 Y116.613 E0.00386
G1 X86.353 Y116.983 E0.01509
G1 X86.353 Y117.362 E0.01513
G1 X86.393 Y117.59 E0.00924
G1 X86.783 Y119.214 E0.06666
G1 X86.793 Y120.18 E0.03856
G1 X86.88 Y120.714 E0.02159
G1 X87.526 Y122.721 E0.08415
G1 X87.679 Y123.067 E0.0151
G1 X87.902 Y123.374 E0.01514
G1 X88.184 Y123.627 E0.01512
G1 X88.503 Y124.595 E0.04068
G1 X88.658 Y124.94 E0.0151
G1 X88.883 Y125.245 E0.01513
G1 X89.153 Y125.487 E0.01447
G1 X89.201 Y125.522 E0.00237
G1 X89.394 Y126.034 E0.02184
G1 X89.565 Y126.373 E0.01515
G1 X89.94 Y126.794 E0.0225
G1 X91.098 Y127.74 E0.05968
G1 X91.415 Y127.947 E0.01511
G1 X91.769 Y128.084 E0.01515
G1 X92.237 Y128.146 E0.01884
G1 X92.349 Y128.146 E0.00447
G1 X93.913 Y129.156 E0.07431
G1 X95.961 Y130.724 E0.10295
G1 X96.284 Y130.922 E0.01512
G1 X96.642 Y131.047 E0.01513
G1 X97.018 Y131.095 E0.01513
G1 X97.395 Y131.063 E0.0151
G1 X97.758 Y130.952 E0.01515
G1 X98.089 Y130.768 E0.01511
G1 X98.375 Y130.519 E0.01513
G1 X98.602 Y130.216 E0.01511
G1 X98.736 Y129.939 E0.01228
G1 X99.49 Y127.971 E0.08411
G1 X99.735 Y127.75 E0.01317
G1 X99.957 Y127.443 E0.01512
G1 X100.107 Y127.104 E0.0148
G1 X100.409 Y126.173 E0.03906
G1 X100.66 Y125.908 E0.01457
G1 X100.903 Y125.477 E0.01975
G1 X102.016 Y122.657 E0.121
G1 X102.187 Y122.311 E0.0154
G1 X102.578 Y122.027 E0.01929
G1 X102.92 Y122.027 E0.01365
G1 X103.11 Y122.166 E0.0094
G1 X103.235 Y122.751 E0.02388
G1 X102.502 Y124.73 E0.08423
G1 X101.396 Y126.546 E0.08486
G1 X101.221 Y126.925 E0.01666
G1 X100.937 Y127.799 E0.03668
G1 X100.765 Y127.954 E0.00924
G1 X100.544 Y128.262 E0.01513
G1 X100.353 Y128.752 E0.02099
G1 X99.961 Y130.462 E0.07002
G1 X99.915 Y130.838 E0.01512
G1 X99.95 Y131.215 E0.01511
G1 X100.061 Y131.574 E0.015
G1 X100.797 Y133.289 E0.07449
G1 X101.443 Y135.174 E0.07953
G1 X101.297 Y137.023 E0.07403
G1 X101.292 Y137.111 E0.00352
G1 X101.233 Y139.127 E0.0805
G1 X101.236 Y139.294 E0.00667
G1 X101.343 Y140.988 E0.06775
G1 X100.803 Y143.339 E0.09628
G1 X100.241 Y144.774 E0.06151
G1 X98.637 Y146.032 E0.08136
G1 X98.437 Y146.215 E0.01082
G1 X97.752 Y146.943 E0.0399
G1 X97.523 Y147.244 E0.0151
G1 X97.42 Y147.441 E0.00887
G1 X96.654 Y149.152 E0.07482
G1 X95.899 Y150.099 E0.04834
G1 X95.521 Y150.375 E0.01868
G1 X95.397 Y150.375 E0.00495
G1 X95.306 Y150.308 E0.00451
G1 X95.221 Y150.032 E0.01153
G1 X95.321 Y149.723 E0.01296
G1 X95.999 Y148.998 E0.03962
G1 X96.227 Y148.696 E0.0151
G1 X96.387 Y148.352 E0.01514
G1 X96.471 Y147.983 E0.0151
G1 X96.476 Y147.604 E0.01513
G1 X96.402 Y147.232 E0.01514
G1 X96.278 Y146.946 E0.01244
G1 X96.512 Y146.881 E0.00969
G1 X96.991 Y146.597 E0.02223
G1 X98.959 Y144.976 E0.10176
G1 X99.225 Y144.706 E0.01513
G1 X99.342 Y144.54 E0.00811
G1 X100.027 Y143.443 E0.05162
G1 X100.193 Y143.103 E0.0151
G1 X100.299 Y142.562 E0.022
G1 X100.376 Y140.631 E0.07713
G1 X100.37 Y140.405 E0.00902
G1 X100.296 Y139.544 E0.03449
G1 X100.224 Y139.172 E0.01512
G1 X100.076 Y138.823 E0.01513
G1 X99.858 Y138.513 E0.01513
G1 X99.58 Y138.256 E0.01511
G1 X99.254 Y138.062 E0.01514
G1 X98.895 Y137.941 E0.01512
G1 X98.519 Y137.898 E0.0151
G1 X98.141 Y137.935 E0.01516
G1 X97.78 Y138.049 E0.01511
G1 X97.451 Y138.237 E0.01512
G1 X97.169 Y138.49 E0.01512
G1 X96.945 Y138.796 E0.01514
G1 X96.787 Y139.154 E0.01562
G1 X96.13 Y141.226 E0.08676
G1 X95.06 Y142.519 E0.06699
G1 X94.85 Y142.835 E0.01514
G1 X94.768 Y143.015 E0.00789
G1 X94.169 Y144.556 E0.06599
G1 X94.07 Y144.922 E0.01513
G1 X94.049 Y145.3 E0.01511
G1 X94.108 Y145.674 E0.01511
G1 X94.247 Y146.031 E0.01529
G1 X93.848 Y146.175 E0.01693
G1 X93.231 Y146.499 E0.02781
G1 X92.846 Y146.499 E0.01537
G1 X92.646 Y146.354 E0.00986
G1 X92.605 Y146.226 E0.00536
G1 X93.277 Y144.732 E0.06538
G1 X94.103 Y142.818 E0.0832
G1 X94.871 Y141.39 E0.06471
G1 X95.255 Y140.877 E0.02558
G1 X95.448 Y140.551 E0.01512
G1 X95.547 Y140.282 E0.01144
G1 X96.323 Y137.498 E0.11535
G1 X96.92 Y136.602 E0.04297
G1 X97.096 Y136.266 E0.01514
G1 X97.197 Y135.901 E0.01512
G1 X97.215 Y135.445 E0.01821
G0 F6000 X96.817 Y135.481
G1 F900 X96.681 Y133.943 E0.06162
G1 X96.612 Y133.616 E0.01334
G1 X96.467 Y133.315 E0.01333
G1 X96.137 Y132.954 E0.01952
G1 X94.165 Y131.444 E0.09913
G1 X92.263 Y129.963 E0.09621
G1 X91.925 Y129.769 E0.01555
G1 X90.462 Y129.181 E0.06293
G1 X89.064 Y127.884 E0.07611
G1 X88.984 Y127.815 E0.00422
G1 X88.235 Y127.218 E0.03823
G1 X87.886 Y126.261 E0.04066
G1 X87.735 Y125.963 E0.01333
G1 X87.394 Y125.607 E0.01968
G1 X87.31 Y125.546 E0.00414
G1 X86.839 Y124.196 E0.05707
G1 X86.692 Y123.896 E0.01333
G1 X86.478 Y123.639 E0.01335
G1 X86.339 Y123.524 E0.0072
G1 X86.3 Y123.496 E0.00192
G1 X85.755 Y121.618 E0.07805
G1 X85.712 Y121.492 E0.00531
G1 X85.201 Y120.204 E0.0553
G1 X85.205 Y119.357 E0.03381
G1 X85.122 Y118.877 E0.01944
G1 X84.727 Y117.78 E0.04654
G1 X84.754 Y117.696 E0.00352
G1 X84.819 Y117.368 E0.01335
G1 X84.782 Y116.926 E0.0177
G1 X84.435 Y115.522 E0.05772
G1 X85.055 Y112.67 E0.11649
G1 X85.212 Y112.301 E0.01601
G1 X85.891 Y111.806 E0.03354
G1 X86.993 Y111.734 E0.04408
G1 X87.321 Y111.673 E0.01332
G1 X87.626 Y111.535 E0.01336
G1 X87.873 Y111.345 E0.01244
G1 X88.444 Y110.795 E0.03164
G1 X88.885 Y110.579 E0.0196
G1 X89.165 Y110.398 E0.01331
G1 X89.317 Y110.236 E0.00887
G1 X89.443 Y111.785 E0.06203
G1 X89.248 Y113.185 E0.05642
G1 X89.242 Y113.519 E0.01333
G1 X89.243 Y113.523 E0.00016
G1 X89.138 Y113.432 E0.00555
G1 X88.841 Y113.28 E0.01332
G1 X88.516 Y113.201 E0.01335
G1 X88.182 Y113.203 E0.01333
G1 X87.857 Y113.283 E0.01336
G1 X87.561 Y113.437 E0.01332
G1 X87.31 Y113.658 E0.01335
G1 X87.119 Y113.931 E0.0133
G1 X86.978 Y114.327 E0.01678
G1 X86.745 Y115.537 E0.04918
G1 X86.722 Y115.871 E0.01336
G1 X86.789 Y116.235 E0.01477
G1 X86.882 Y116.522 E0.01204
G1 X86.812 Y116.737 E0.00902
G1 X86.747 Y117.064 E0.01331
G1 X86.782 Y117.497 E0.01734
G1 X87.183 Y119.165 E0.06847
G1 X87.193 Y120.176 E0.04035
G1 X87.26 Y120.591 E0.01678
G1 X87.906 Y122.598 E0.08415
G1 X88.046 Y122.901 E0.01332
G1 X88.253 Y123.163 E0.01333
G1 X88.416 Y123.302 E0.00855
G1 X88.522 Y123.379 E0.00523
G1 X88.882 Y124.47 E0.04585
G1 X89.024 Y124.772 E0.01332
G1 X89.234 Y125.032 E0.01334
G1 X89.389 Y125.163 E0.0081
G1 X89.534 Y125.268 E0.00715
G1 X89.769 Y125.893 E0.02665
G1 X89.923 Y126.19 E0.01335
G1 X90.193 Y126.484 E0.01593
G1 X91.351 Y127.43 E0.05968
G1 X91.633 Y127.609 E0.01333
G1 X91.95 Y127.716 E0.01335
G1 X92.237 Y127.746 E0.01152
G1 X92.467 Y127.746 E0.00918
G1 X94.143 Y128.828 E0.07962
G1 X96.204 Y130.407 E0.10363
G1 X96.491 Y130.577 E0.01331
G1 X96.811 Y130.674 E0.01335
G1 X97.145 Y130.692 E0.01335
G1 X97.473 Y130.631 E0.01332
G1 X97.778 Y130.494 E0.01334
G1 X98.041 Y130.289 E0.01331
G1 X98.249 Y130.027 E0.01335
G1 X98.362 Y129.796 E0.01026
G1 X99.155 Y127.726 E0.08847
