;FLAVOR:RepRap
;TIME:1775
;Filament used: 0.64342m
;Layer height: 0.1
;MINX:92.435
;MINY:100.375
;MINZ:0.25
;MAXX:142.647
;MAXY:134.625
;MAXZ:9.75
;Generated with Cura_SteamEngine 4.8.0-beta
T0
M190 S60
M104 S210
M109 S210
M82 ;absolute extrusion mode
; Ender 3 Custom Start G-code
;G92 E0 ; Reset Extruder
;G28 ; Home all axes
;G1 Z2.0 F3000 ; Move Z Axis up little to prevent scratching of Heat Bed
;G1 X-115 Y-115 Z0.2 F5000.0 ; Move to start position
;G1 X-115 Y100 Z0.2 F1500.0 E15 ; Draw the first line;G1 X-112 Y100 Z0.2 F5000.0 ; Move to side a little
;G1 X-112 Y-115 Z0.3 F1500.0 E30 ; Draw the second line
;G92 E0 ; Reset Extruder
;G1 Z5.0 F3000 ; Move Z Axis up little to prevent scratching of Heat Bed
;G1 X0 Y0  F5000.0 ; Move over to prevent blob squish
M83 ;relative extrusion mode
G10
;LAYER_COUNT:92
;LAYER:0
M107
M566 X600 Y600
G1 F300 Z0.65
G0 F6000 X96.438 Y104.078 Z0.65
;TYPE:SKIRT
G1 F300 Z0.25
G11
G1 F1200 X96.798 Y103.747 E0.0215
G1 X96.99 Y103.578 E0.01125
G1 X97.488 Y103.164 E0.02847
G1 X98.253 Y102.613 E0.04145
G1 X98.723 Y102.319 E0.02437
G1 X99.086 Y102.105 E0.01853
G1 X99.918 Y101.661 E0.04146
G1 X100.674 Y101.332 E0.03625
G1 X100.878 Y101.252 E0.00963
G1 X102.031 Y100.871 E0.05339
G1 X102.234 Y100.816 E0.00925
G1 X103.399 Y100.567 E0.05238
G1 X103.588 Y100.537 E0.00841
G1 X104.525 Y100.428 E0.04147
G1 X105.114 Y100.401 E0.02592
G1 X106.339 Y100.377 E0.05387
G1 X106.557 Y100.375 E0.00958
G1 X128.933 Y100.375 E0.98378
G1 X129.793 Y100.386 E0.03781
G1 X130.734 Y100.44 E0.04144
G1 X131.668 Y100.573 E0.04148
G1 X132.587 Y100.784 E0.04146
G1 X133.485 Y101.073 E0.04148
G1 X134.355 Y101.437 E0.04146
G1 X135.192 Y101.873 E0.04149
G1 X135.988 Y102.378 E0.04145
G1 X136.739 Y102.949 E0.04148
G1 X137.438 Y103.582 E0.04146
G1 X138.082 Y104.271 E0.04146
G1 X138.665 Y105.013 E0.04149
G1 X139.183 Y105.801 E0.04146
G1 X139.632 Y106.63 E0.04145
G1 X140.023 Y107.532 E0.04322
G1 X140.139 Y107.836 E0.01431
G1 X141.116 Y110.26 E0.1149
G1 X141.417 Y110.962 E0.03358
G1 X141.572 Y111.34 E0.01796
G1 X141.798 Y111.941 E0.02823
G1 X141.957 Y112.403 E0.02148
G1 X142.07 Y112.749 E0.016
G1 X142.163 Y113.051 E0.01389
G1 X142.402 Y113.963 E0.04145
G1 X142.563 Y114.893 E0.0415
G1 X142.645 Y115.832 E0.04144
G1 X142.647 Y116.775 E0.04146
G1 X142.569 Y117.715 E0.04147
G1 X142.411 Y118.645 E0.04147
G1 X142.213 Y119.432 E0.03568
G1 X141.527 Y121.792 E0.10805
G1 X140.89 Y124.237 E0.11108
G1 X140.648 Y125.281 E0.04712
G1 X140.436 Y126.144 E0.03907
G1 X140.172 Y127.05 E0.04149
G1 X139.833 Y127.93 E0.04146
G1 X139.42 Y128.778 E0.04147
G1 X138.937 Y129.588 E0.04146
G1 X138.387 Y130.354 E0.04146
G1 X137.774 Y131.071 E0.04147
G1 X137.103 Y131.733 E0.04144
G1 X136.378 Y132.337 E0.04149
G1 X135.604 Y132.876 E0.04147
G1 X134.788 Y133.348 E0.04145
G1 X133.934 Y133.75 E0.0415
G1 X133.049 Y134.077 E0.04148
G1 X132.14 Y134.329 E0.04147
G1 X131.213 Y134.502 E0.04146
G1 X129.977 Y134.61 E0.05455
G1 X129.655 Y134.62 E0.01416
G1 X129.31 Y134.625 E0.01517
G1 X106.527 Y134.625 E1.00167
G1 X106.311 Y134.623 E0.0095
G1 X105.125 Y134.6 E0.05215
G1 X104.184 Y134.542 E0.04145
G1 X103.159 Y134.386 E0.04558
G1 X102.879 Y134.33 E0.01255
G1 X101.963 Y134.106 E0.04146
G1 X101.469 Y133.95 E0.02278
G1 X101.129 Y133.834 E0.01579
G1 X100.25 Y133.492 E0.04147
G1 X99.469 Y133.112 E0.03819
G1 X99.286 Y133.014 E0.00913
G1 X98.474 Y132.534 E0.04147
G1 X97.859 Y132.104 E0.03299
G1 X97.538 Y131.863 E0.01765
G1 X96.808 Y131.265 E0.04149
G1 X96.213 Y130.693 E0.03629
G1 X96.018 Y130.491 E0.01234
G1 X95.392 Y129.785 E0.04148
G1 X94.913 Y129.151 E0.03494
G1 X94.798 Y128.987 E0.00881
G1 X94.307 Y128.222 E0.03997
G1 X94.16 Y127.971 E0.01279
G1 X93.718 Y127.138 E0.04146
G1 X93.422 Y126.458 E0.03261
G1 X93.329 Y126.224 E0.01107
G1 X92.921 Y124.994 E0.05698
G1 X92.865 Y124.785 E0.00951
G1 X92.613 Y123.584 E0.05395
G1 X92.586 Y123.407 E0.00787
G1 X92.484 Y122.469 E0.04148
G1 X92.461 Y121.947 E0.02297
G1 X92.437 Y120.721 E0.05391
G1 X92.435 Y120.503 E0.00958
G1 X92.435 Y114.467 E0.26538
G1 X92.437 Y114.251 E0.0095
G1 X92.46 Y113.065 E0.05215
G1 X92.518 Y112.124 E0.04145
G1 X92.674 Y111.099 E0.04558
G1 X92.73 Y110.819 E0.01255
G1 X92.954 Y109.903 E0.04146
G1 X93.11 Y109.409 E0.02278
G1 X93.226 Y109.069 E0.01579
G1 X93.568 Y108.19 E0.04147
G1 X93.979 Y107.35 E0.04111
G1 X94.092 Y107.142 E0.01041
G1 X94.705 Y106.143 E0.05153
G1 X94.82 Y105.976 E0.00891
G1 X95.622 Y104.948 E0.05732
G1 X95.787 Y104.76 E0.011
G1 X96.438 Y104.078 E0.04145
G0 F6000 X97.095 Y104.085
G1 F1200 X97.287 Y103.916 E0.01125
G1 X97.767 Y103.518 E0.02741
G1 X98.516 Y102.978 E0.0406
G1 X98.952 Y102.707 E0.02257
G1 X99.315 Y102.493 E0.01853
G1 X100.13 Y102.059 E0.0406
G1 X100.839 Y101.751 E0.03399
G1 X101.043 Y101.671 E0.00963
G1 X102.148 Y101.305 E0.05118
G1 X102.351 Y101.25 E0.00925
G1 X103.47 Y101.011 E0.05031
G1 X103.659 Y100.981 E0.00841
G1 X104.576 Y100.876 E0.04058
G1 X105.123 Y100.851 E0.02407
G1 X106.348 Y100.827 E0.05387
G1 X106.557 Y100.825 E0.00919
G1 X128.933 Y100.825 E0.98378
G1 X129.786 Y100.836 E0.03751
G1 X130.709 Y100.889 E0.04065
G1 X131.623 Y101.022 E0.04061
G1 X132.522 Y101.233 E0.0406
G1 X133.4 Y101.521 E0.04063
G1 X134.25 Y101.884 E0.04064
G1 X135.065 Y102.32 E0.04064
G1 X135.839 Y102.824 E0.04061
G1 X136.567 Y103.393 E0.04062
G1 X137.243 Y104.023 E0.04063
G1 X137.862 Y104.709 E0.04062
G1 X138.419 Y105.445 E0.04058
G1 X138.911 Y106.228 E0.04066
G1 X139.333 Y107.05 E0.04062
G1 X139.603 Y107.693 E0.03066
G1 X139.716 Y107.988 E0.01389
G1 X140.703 Y110.439 E0.11617
G1 X140.924 Y110.95 E0.02448
G1 X141.156 Y111.511 E0.02669
G1 X141.373 Y112.087 E0.02706
G1 X141.532 Y112.549 E0.02148
G1 X141.64 Y112.881 E0.01535
G1 X141.733 Y113.183 E0.01389
G1 X141.967 Y114.077 E0.04063
G1 X142.122 Y114.988 E0.04063
G1 X142.198 Y115.909 E0.04063
G1 X142.194 Y116.833 E0.04062
G1 X142.11 Y117.753 E0.04062
G1 X141.947 Y118.662 E0.0406
G1 X141.781 Y119.306 E0.02924
G1 X141.086 Y121.694 E0.10935
G1 X140.452 Y124.131 E0.11071
G1 X140.211 Y125.174 E0.04706
G1 X139.999 Y126.037 E0.03907
G1 X139.74 Y126.923 E0.04058
G1 X139.405 Y127.785 E0.04066
G1 X138.997 Y128.614 E0.04062
G1 X138.519 Y129.404 E0.0406
G1 X137.974 Y130.15 E0.04062
G1 X137.367 Y130.847 E0.04064
G1 X136.702 Y131.488 E0.04061
G1 X135.984 Y132.07 E0.04064
G1 X135.218 Y132.587 E0.04063
G1 X134.411 Y133.036 E0.0406
G1 X133.568 Y133.413 E0.0406
G1 X132.695 Y133.716 E0.04063
G1 X131.799 Y133.943 E0.04064
G1 X130.887 Y134.091 E0.04062
G1 X129.963 Y134.16 E0.04074
G1 X129.641 Y134.17 E0.01416
G1 X129.31 Y134.175 E0.01455
G1 X106.527 Y134.175 E1.00167
G1 X106.32 Y134.173 E0.0091
G1 X105.134 Y134.15 E0.05215
G1 X104.212 Y134.092 E0.04062
G1 X103.247 Y133.945 E0.04292
G1 X102.967 Y133.889 E0.01255
G1 X102.07 Y133.668 E0.04062
G1 X101.614 Y133.524 E0.02102
G1 X101.274 Y133.408 E0.01579
G1 X100.413 Y133.072 E0.04063
G1 X99.681 Y132.716 E0.03579
G1 X99.498 Y132.618 E0.00913
G1 X98.704 Y132.147 E0.04059
G1 X98.129 Y131.744 E0.03087
G1 X97.808 Y131.503 E0.01765
G1 X97.094 Y130.917 E0.04061
G1 X96.537 Y130.38 E0.03402
G1 X96.342 Y130.178 E0.01234
G1 X95.729 Y129.486 E0.04064
G1 X95.282 Y128.893 E0.03265
G1 X95.167 Y128.729 E0.00881
G1 X94.695 Y127.995 E0.03837
G1 X94.548 Y127.744 E0.01279
G1 X94.117 Y126.927 E0.04061
G1 X93.84 Y126.292 E0.03046
G1 X93.747 Y126.058 E0.01107
G1 X93.356 Y124.878 E0.05465
G1 X93.3 Y124.669 E0.00951
G1 X93.058 Y123.516 E0.0518
G1 X93.031 Y123.339 E0.00787
G1 X92.931 Y122.42 E0.04064
G1 X92.911 Y121.938 E0.02121
G1 X92.887 Y120.712 E0.05391
G1 X92.885 Y120.503 E0.00919
G1 X92.885 Y114.467 E0.26538
G1 X92.887 Y114.26 E0.0091
G1 X92.91 Y113.074 E0.05215
G1 X92.968 Y112.152 E0.04062
G1 X93.115 Y111.187 E0.04292
G1 X93.171 Y110.907 E0.01255
G1 X93.392 Y110.01 E0.04062
G1 X93.536 Y109.554 E0.02102
G1 X93.652 Y109.214 E0.01579
G1 X93.988 Y108.353 E0.04063
G1 X94.375 Y107.565 E0.0386
G1 X94.488 Y107.357 E0.01041
G1 X95.076 Y106.399 E0.04942
G1 X95.191 Y106.232 E0.00891
G1 X95.96 Y105.244 E0.05505
G1 X96.125 Y105.056 E0.011
G1 X97.095 Y104.085 E0.06034
G0 F6000 X97.392 Y104.423
G1 F1200 X97.584 Y104.254 E0.01125
G1 X98.045 Y103.871 E0.02635
G1 X98.779 Y103.344 E0.03973
G1 X99.18 Y103.095 E0.02075
G1 X99.543 Y102.881 E0.01853
G1 X100.342 Y102.456 E0.03979
G1 X101.003 Y102.17 E0.03167
G1 X101.207 Y102.09 E0.00963
G1 X102.266 Y101.74 E0.04904
G1 X102.469 Y101.685 E0.00925
G1 X103.54 Y101.455 E0.04816
G1 X103.729 Y101.425 E0.00841
G1 X104.627 Y101.323 E0.03974
G1 X105.132 Y101.301 E0.02222
G1 X106.357 Y101.277 E0.05387
G1 X106.557 Y101.275 E0.00879
G1 X128.933 Y101.275 E0.98378
G1 X129.78 Y101.286 E0.03724
G1 X130.683 Y101.339 E0.03977
G1 X131.577 Y101.471 E0.03973
G1 X132.456 Y101.682 E0.03974
G1 X133.313 Y101.97 E0.03975
G1 X134.142 Y102.332 E0.03977
G1 X134.935 Y102.766 E0.03974
G1 X135.687 Y103.269 E0.03978
G1 X136.391 Y103.836 E0.03974
G1 X137.043 Y104.463 E0.03977
G1 X137.636 Y105.145 E0.03973
G1 X138.167 Y105.877 E0.03976
G1 X138.632 Y106.653 E0.03977
G1 X139.183 Y107.853 E0.05805
G1 X139.32 Y108.21 E0.01681
G1 X140.282 Y110.598 E0.11319
G1 X140.585 Y111.304 E0.03378
G1 X140.74 Y111.682 E0.01796
G1 X140.947 Y112.234 E0.02592
G1 X141.106 Y112.696 E0.02148
G1 X141.21 Y113.014 E0.01471
G1 X141.303 Y113.316 E0.01389
G1 X141.531 Y114.191 E0.03975
G1 X141.68 Y115.083 E0.03976
G1 X141.75 Y115.984 E0.03973
G1 X141.74 Y116.888 E0.03975
G1 X141.651 Y117.788 E0.03976
G1 X141.482 Y118.676 E0.03974
G1 X141.349 Y119.181 E0.02296
G1 X140.656 Y121.565 E0.10915
G1 X140.015 Y124.025 E0.11177
G1 X139.774 Y125.066 E0.04698
G1 X139.562 Y125.929 E0.03907
G1 X139.307 Y126.797 E0.03978
G1 X138.977 Y127.639 E0.03976
G1 X138.574 Y128.448 E0.03974
G1 X138.101 Y129.219 E0.03977
G1 X137.562 Y129.945 E0.03975
G1 X136.961 Y130.62 E0.03974
G1 X136.302 Y131.24 E0.03978
G1 X135.592 Y131.799 E0.03973
G1 X134.834 Y132.293 E0.03978
G1 X134.036 Y132.718 E0.03975
G1 X133.204 Y133.071 E0.03974
G1 X132.343 Y133.349 E0.03978
G1 X131.462 Y133.55 E0.03973
G1 X130.566 Y133.672 E0.03976
G1 X129.949 Y133.71 E0.02718
G1 X129.627 Y133.72 E0.01416
G1 X129.31 Y133.725 E0.01394
G1 X106.527 Y133.725 E1.00167
G1 X106.329 Y133.723 E0.00871
G1 X105.143 Y133.7 E0.05215
G1 X104.24 Y133.643 E0.03978
G1 X103.336 Y133.503 E0.04022
G1 X103.056 Y133.447 E0.01255
G1 X101.759 Y133.098 E0.05905
G1 X101.419 Y132.982 E0.01579
G1 X100.577 Y132.653 E0.03974
G1 X99.894 Y132.319 E0.03343
G1 X99.711 Y132.221 E0.00913
G1 X98.933 Y131.759 E0.03978
G1 X98.399 Y131.384 E0.02869
G1 X98.078 Y131.143 E0.01765
G1 X97.38 Y130.569 E0.03973
G1 X96.86 Y130.068 E0.03175
G1 X96.665 Y129.866 E0.01234
G1 X96.067 Y129.188 E0.03975
G1 X95.65 Y128.635 E0.03045
G1 X95.535 Y128.471 E0.00881
G1 X95.084 Y127.767 E0.03676
G1 X94.937 Y127.516 E0.01279
G1 X94.515 Y126.717 E0.03973
G1 X94.258 Y126.125 E0.02837
G1 X94.165 Y125.891 E0.01107
G1 X93.79 Y124.761 E0.05235
G1 X93.734 Y124.552 E0.00951
G1 X93.503 Y123.448 E0.04959
G1 X93.476 Y123.271 E0.00787
G1 X93.361 Y121.929 E0.05922
G1 X93.337 Y120.703 E0.05391
G1 X93.335 Y120.503 E0.00879
G1 X93.335 Y114.467 E0.26538
G1 X93.337 Y114.269 E0.00871
G1 X93.36 Y113.083 E0.05215
G1 X93.417 Y112.18 E0.03978
G1 X93.557 Y111.276 E0.04022
G1 X93.613 Y110.996 E0.01255
G1 X93.962 Y109.699 E0.05905
G1 X94.078 Y109.359 E0.01579
G1 X94.407 Y108.517 E0.03974
G1 X94.77 Y107.78 E0.03612
G1 X94.883 Y107.572 E0.01041
G1 X95.447 Y106.654 E0.04737
G1 X95.562 Y106.487 E0.00891
G1 X96.298 Y105.541 E0.0527
G1 X96.463 Y105.353 E0.011
G1 X97.392 Y104.423 E0.05779
G10
G1 F300 Z0.65
G0 F6000 X130.317 Y116.295 Z0.65
G1 F300 Z0.25
G11
G1 F1200 X130.335 Y116.295 E0.00079
G1 X130.354 Y116.348 E0.00248
G1 X130.298 Y116.348 E0.00246
G1 X130.317 Y116.295 E0.00248
G0 F6000 X130.17 Y115.845
G1 F1200 X130.482 Y115.845 E0.01372
G1 X130.736 Y116.03 E0.01382
G1 X130.833 Y116.328 E0.01378
G1 X130.736 Y116.626 E0.01378
G1 X130.482 Y116.811 E0.01382
G1 X130.17 Y116.811 E0.01372
G1 X129.916 Y116.626 E0.01382
G1 X129.819 Y116.328 E0.01378
G1 X129.916 Y116.03 E0.01378
G1 X130.17 Y115.845 E0.01382
G0 F6000 X130.024 Y115.395
G1 F1200 X130.628 Y115.395 E0.02656
G1 X131.12 Y115.753 E0.02675
G1 X131.306 Y116.328 E0.02657
G1 X131.12 Y116.903 E0.02657
G1 X130.628 Y117.261 E0.02675
G1 X130.024 Y117.261 E0.02656
G1 X129.532 Y116.903 E0.02675
G1 X129.346 Y116.328 E0.02657
G1 X129.532 Y115.753 E0.02657
G1 X130.024 Y115.395 E0.02675
G10
G1 F300 Z0.65
;MESH:v4_crimp_suport.stl
G0 F6000 X104.896 Y112.931 Z0.65
;TYPE:WALL-INNER
G1 F300 Z0.25
G11
G1 F1200 X104.941 Y112.883 E0.00289
G1 X104.997 Y112.831 E0.00336
G1 X105.043 Y112.795 E0.00257
G1 X105.119 Y112.746 E0.00398
G1 X105.162 Y112.721 E0.00219
G1 X105.221 Y112.695 E0.00283
G1 X105.293 Y112.668 E0.00338
G1 X105.352 Y112.651 E0.0027
G1 X105.441 Y112.634 E0.00398
G1 X105.478 Y112.63 E0.00164
G1 X105.604 Y112.625 E0.00554
G1 X128.515 Y112.625 E1.0073
G1 X128.515 Y113.204 E0.02546
G1 X106.265 Y113.205 E0.97824
G1 X106.265 Y119.795 E0.28973
G1 X128.515 Y119.796 E0.97824
G1 X128.515 Y122.375 E0.11339
G1 X105.6 Y122.375 E1.00747
G1 X105.484 Y122.371 E0.0051
G1 X105.426 Y122.364 E0.00257
G1 X105.356 Y122.35 E0.00314
G1 X105.289 Y122.33 E0.00307
G1 X105.215 Y122.303 E0.00346
G1 X105.163 Y122.279 E0.00252
G1 X105.103 Y122.245 E0.00303
G1 X105.049 Y122.209 E0.00285
G1 X104.993 Y122.165 E0.00313
G1 X104.937 Y122.113 E0.00336
G1 X104.898 Y122.071 E0.00252
G1 X104.847 Y122.006 E0.00363
G1 X104.812 Y121.952 E0.00283
G1 X104.776 Y121.888 E0.00323
G1 X104.756 Y121.845 E0.00209
G1 X104.726 Y121.764 E0.0038
G1 X104.712 Y121.711 E0.00241
G1 X104.697 Y121.635 E0.00341
G1 X104.689 Y121.575 E0.00266
G1 X104.685 Y121.463 E0.00493
G1 X104.685 Y113.54 E0.34834
G1 X104.689 Y113.418 E0.00537
G1 X104.694 Y113.38 E0.00169
G1 X104.711 Y113.291 E0.00398
G1 X104.73 Y113.225 E0.00302
G1 X104.753 Y113.165 E0.00283
G1 X104.788 Y113.089 E0.00368
G1 X104.81 Y113.049 E0.00201
G1 X104.856 Y112.982 E0.00357
G1 X104.896 Y112.931 E0.00285
G0 F6000 X104.555 Y112.637
G1 F1200 X104.624 Y112.563 E0.00445
G1 X104.701 Y112.492 E0.0046
G1 X104.717 Y112.48 E0.00088
G1 X104.784 Y112.426 E0.00378
G1 X104.876 Y112.367 E0.00481
G1 X104.938 Y112.332 E0.00313
G1 X104.958 Y112.32 E0.00103
G1 X104.977 Y112.312 E0.00091
G1 X105.051 Y112.278 E0.00358
G1 X105.159 Y112.238 E0.00506
G1 X105.243 Y112.214 E0.00384
G1 X105.268 Y112.21 E0.00111
G1 X105.353 Y112.194 E0.0038
G1 X105.364 Y112.191 E0.0005
G1 X105.384 Y112.189 E0.00088
G1 X105.451 Y112.18 E0.00297
G1 X105.587 Y112.175 E0.00598
G1 X128.965 Y112.175 E1.02783
G1 X128.965 Y113.654 E0.06503
G1 X106.715 Y113.655 E0.97824
G1 X106.715 Y119.345 E0.25017
G1 X128.965 Y119.346 E0.97824
G1 X128.965 Y122.825 E0.15296
G1 X105.584 Y122.825 E1.02796
G1 X105.447 Y122.82 E0.00603
G1 X105.357 Y122.809 E0.00399
G1 X105.249 Y122.788 E0.00484
G1 X105.147 Y122.758 E0.00467
G1 X105.05 Y122.722 E0.00455
G1 X104.956 Y122.679 E0.00454
G1 X104.862 Y122.626 E0.00474
G1 X104.789 Y122.577 E0.00387
G1 X104.699 Y122.506 E0.00504
G1 X104.62 Y122.433 E0.00473
G1 X104.553 Y122.361 E0.00432
G1 X104.485 Y122.274 E0.00485
G1 X104.424 Y122.18 E0.00493
G1 X104.376 Y122.095 E0.00429
G1 X104.348 Y122.032 E0.00303
G1 X104.339 Y122.014 E0.00088
G1 X104.335 Y122.001 E0.0006
G1 X104.298 Y121.903 E0.00461
G1 X104.274 Y121.815 E0.00401
G1 X104.251 Y121.7 E0.00516
G1 X104.24 Y121.608 E0.00407
G1 X104.235 Y121.481 E0.00559
G1 X104.235 Y113.524 E0.34984
G1 X104.24 Y113.387 E0.00603
G1 X104.252 Y113.294 E0.00412
G1 X104.272 Y113.191 E0.00461
G1 X104.305 Y113.077 E0.00522
G1 X104.336 Y112.994 E0.0039
G1 X104.387 Y112.883 E0.00537
G1 X104.428 Y112.811 E0.00364
G1 X104.491 Y112.718 E0.00494
G1 X104.555 Y112.637 E0.00454
G0 F6000 X104.212 Y112.345
;TYPE:WALL-OUTER
G1 F1200 X104.307 Y112.243 E0.00613
G1 X104.409 Y112.149 E0.0061
G1 X104.522 Y112.06 E0.00632
G1 X104.634 Y111.987 E0.00588
G1 X104.759 Y111.916 E0.00632
G1 X104.88 Y111.861 E0.00584
G1 X105.012 Y111.812 E0.00619
G1 X105.148 Y111.774 E0.00621
G1 X105.292 Y111.746 E0.00645
G1 X105.418 Y111.731 E0.00558
G1 X105.569 Y111.725 E0.00664
G1 X129.415 Y111.725 E1.04841
G1 X129.415 Y114.104 E0.10459
G1 X107.165 Y114.105 E0.97824
G1 X107.165 Y118.895 E0.2106
G1 X129.415 Y118.896 E0.97824
