;FLAVOR:RepRap
;TIME:3920
;Filament used: 4.24315m
;Layer height: 0.2
;MINX:58.2
;MINY:58.2
;MINZ:0.3
;MAXX:176.8
;MAXY:176.8
;MAXZ:49.9
;Generated with Cura_SteamEngine 4.7.0
T0
M190 S80
M104 S245
M109 S245
M82 ;absolute extrusion mode
M104 S200 ; heat up extruder before calibrating bed
M140 S60 ; same for bed
G28 XY ;Home XY
M561 ; Clear any bed transform that might be in place
G1 X117 Y157 ; Move Probe to middle of bed
G30 ; Do a single probe
G29 ; Probe the bed with the ABL ; **** uncomment this line if you have an always on ABL *****
G92 E0 ; Reset Extruder
G1 Z5.0  ; Move Z Axis up little to prevent scratching of Heat Bed
G1 X10 Y20 Z0.2 F9000.0 ; Move to start position
G1 X10 Y200.0 Z0.2 F1500.0 E15 ; Draw the first line
G1 X13 Y200.0 Z0.2 F6000.0 ; Move to side a little
G1 X13 Y20 Z0.2 F1500.0 E30 ; Draw the second line
G92 E0 ; Reset Extruder
G1 Z5.0 F9000 ; Move Z Axis up little to prevent scratching of Heat Bed
; End of custom start GCode
M83 ;relative extrusion mode
G1 F2400 E-2
;LAYER_COUNT:249
;LAYER:0
M107
G1 F600 Z0.7
G0 F2400 X65.147 Y65.256 Z0.7
;TYPE:SKIRT
G1 F600 Z0.3
G1 F2400 E2
G1 F1200 X65.69 Y64.758 E0.03676
G1 X66.284 Y64.321 E0.03679
G1 X66.921 Y63.951 E0.03675
G1 X67.595 Y63.652 E0.03679
G1 X68.298 Y63.428 E0.03681
G1 X69.02 Y63.281 E0.03676
G1 X69.819 Y63.212 E0.04001
G1 X70.33 Y63.2 E0.0255
G1 X128.778 Y63.2 E2.91598
G1 X131.424 Y63.163 E0.13202
G1 X134.075 Y63.05 E0.13238
G1 X136.699 Y62.864 E0.13124
G1 X139.33 Y62.603 E0.13191
G1 X141.926 Y62.271 E0.13057
G1 X144.569 Y61.856 E0.13348
G1 X147.112 Y61.383 E0.12905
G1 X149.713 Y60.823 E0.13274
G1 X152.271 Y60.197 E0.13139
G1 X154.804 Y59.5 E0.13107
G1 X157.454 Y58.687 E0.13829
G1 X157.933 Y58.534 E0.02509
G1 X157.934 Y58.538 E0.00021
G1 X158.572 Y58.363 E0.03301
G1 X159.3 Y58.246 E0.03679
G1 X159.819 Y58.212 E0.02595
G1 X160.33 Y58.2 E0.0255
G1 X169.293 Y58.2 E0.44717
G1 X170.088 Y58.211 E0.03967
G1 X170.824 Y58.261 E0.0368
G1 X171.55 Y58.391 E0.0368
G1 X172.257 Y58.599 E0.03677
G1 X172.938 Y58.882 E0.03679
G1 X173.584 Y59.237 E0.03677
G1 X174.188 Y59.66 E0.03679
G1 X174.743 Y60.146 E0.0368
G1 X175.241 Y60.689 E0.03676
G1 X175.678 Y61.283 E0.03679
G1 X176.048 Y61.92 E0.03675
G1 X176.347 Y62.594 E0.03679
G1 X176.572 Y63.297 E0.03683
G1 X176.718 Y64.019 E0.03675
G1 X176.788 Y64.819 E0.04006
G1 X176.8 Y65.33 E0.0255
G1 X176.799 Y84.358 E0.94931
G1 X176.789 Y85.084 E0.03622
G1 X176.739 Y85.819 E0.03675
G1 X176.61 Y86.545 E0.03679
G1 X176.403 Y87.253 E0.0368
G1 X176.12 Y87.934 E0.03679
G1 X175.765 Y88.58 E0.03677
G1 X175.343 Y89.184 E0.03676
G1 X174.857 Y89.739 E0.0368
G1 X174.314 Y90.238 E0.03679
G1 X173.721 Y90.675 E0.03675
G1 X173.083 Y91.046 E0.03682
G1 X172.409 Y91.345 E0.03679
G1 X171.707 Y91.57 E0.03678
G1 X171.046 Y91.707 E0.03368
G1 X168.238 Y92.148 E0.14181
G1 X165.59 Y92.643 E0.1344
G1 X163.036 Y93.195 E0.13036
G1 X160.494 Y93.819 E0.13059
G1 X157.959 Y94.52 E0.13122
G1 X155.417 Y95.3 E0.13266
G1 X152.91 Y96.148 E0.13204
G1 X150.443 Y97.06 E0.13122
G1 X148.007 Y98.04 E0.131
G1 X145.59 Y99.093 E0.13153
G1 X143.207 Y100.212 E0.13134
G1 X140.83 Y101.412 E0.13284
G1 X138.532 Y102.655 E0.13034
G1 X136.25 Y103.973 E0.13147
G1 X134.004 Y105.358 E0.13165
G1 X131.802 Y106.801 E0.13135
G1 X129.634 Y108.314 E0.1319
G1 X127.496 Y109.895 E0.13266
G1 X125.451 Y111.501 E0.12973
G1 X123.416 Y113.194 E0.13207
G1 X121.447 Y114.927 E0.13086
G1 X119.512 Y116.73 E0.13195
G1 X117.633 Y118.584 E0.13169
G1 X115.804 Y120.493 E0.1319
G1 X114.025 Y122.459 E0.13228
G1 X112.366 Y124.398 E0.12731
G1 X110.659 Y126.513 E0.1356
G1 X109.086 Y128.58 E0.12959
G1 X107.53 Y130.747 E0.1331
G1 X106.062 Y132.917 E0.13071
G1 X104.656 Y135.132 E0.13089
G1 X103.288 Y137.427 E0.1333
G1 X102.007 Y139.72 E0.13104
G1 X100.796 Y142.04 E0.13056
G1 X99.646 Y144.402 E0.13107
G1 X98.543 Y146.845 E0.13373
G1 X97.542 Y149.236 E0.12932
G1 X96.597 Y151.682 E0.13082
G1 X95.713 Y154.184 E0.13239
G1 X94.897 Y156.725 E0.13315
G1 X94.173 Y159.21 E0.12913
G1 X93.494 Y161.818 E0.13445
G1 X92.909 Y164.355 E0.12989
G1 X92.397 Y166.896 E0.12932
G1 X91.943 Y169.547 E0.13418
G1 X91.707 Y171.05 E0.0759
G1 X91.553 Y171.771 E0.03678
G1 X91.322 Y172.471 E0.03678
G1 X91.016 Y173.142 E0.03679
G1 X90.639 Y173.776 E0.0368
G1 X90.196 Y174.365 E0.03677
G1 X89.692 Y174.903 E0.03678
G1 X89.133 Y175.383 E0.03676
G1 X88.525 Y175.8 E0.03678
G1 X87.875 Y176.149 E0.03681
G1 X87.191 Y176.425 E0.0368
G1 X86.482 Y176.625 E0.03675
G1 X85.755 Y176.748 E0.03679
G1 X85.181 Y176.788 E0.02871
G1 X84.67 Y176.8 E0.0255
G1 X65.61 Y176.799 E0.95091
G1 X64.912 Y176.789 E0.03483
G1 X64.176 Y176.739 E0.0368
G1 X63.45 Y176.609 E0.0368
G1 X62.743 Y176.401 E0.03677
G1 X62.062 Y176.118 E0.03679
G1 X61.416 Y175.763 E0.03677
G1 X60.812 Y175.34 E0.03679
G1 X60.257 Y174.854 E0.0368
G1 X59.759 Y174.311 E0.03676
G1 X59.322 Y173.717 E0.03679
G1 X58.952 Y173.08 E0.03675
G1 X58.653 Y172.406 E0.03679
G1 X58.428 Y171.703 E0.03683
G1 X58.282 Y170.981 E0.03675
G1 X58.211 Y170.174 E0.04042
G1 X58.2 Y169.658 E0.02575
G1 X58.201 Y160.601 E0.45186
G1 X58.212 Y159.895 E0.03523
G1 X58.263 Y159.16 E0.03676
G1 X58.394 Y158.434 E0.03681
G1 X58.507 Y158.017 E0.02155
G1 X58.778 Y157.131 E0.04622
G1 X59.122 Y156.061 E0.05607
G1 X59.853 Y153.55 E0.13047
G1 X60.519 Y150.987 E0.13212
G1 X61.105 Y148.444 E0.1302
G1 X61.624 Y145.863 E0.13134
G1 X62.073 Y143.246 E0.13247
G1 X62.443 Y140.646 E0.13102
G1 X62.746 Y137.981 E0.13381
G1 X62.966 Y135.399 E0.12928
G1 X63.116 Y132.747 E0.13252
G1 X63.19 Y130.116 E0.13131
G1 X63.2 Y128.749 E0.0682
G1 X63.2 Y70.698 E2.89618
G1 X63.211 Y69.91 E0.03932
G1 X63.261 Y69.175 E0.03675
G1 X63.391 Y68.449 E0.0368
G1 X63.599 Y67.742 E0.03677
G1 X63.882 Y67.061 E0.03679
G1 X64.238 Y66.415 E0.0368
G1 X64.661 Y65.811 E0.03679
G1 X65.147 Y65.256 E0.0368
G0 F2400 X65.538 Y65.43
G1 F1200 X66.077 Y64.96 E0.03568
G1 X66.665 Y64.553 E0.03568
G1 X67.295 Y64.213 E0.03572
G1 X67.959 Y63.947 E0.03569
G1 X68.648 Y63.756 E0.03567
G1 X69.354 Y63.643 E0.03567
G1 X70.15 Y63.603 E0.03976
G1 X70.33 Y63.6 E0.00898
G1 X128.783 Y63.6 E2.91623
G1 X131.445 Y63.562 E0.13282
G1 X134.085 Y63.45 E0.13183
G1 X136.73 Y63.263 E0.13229
G1 X139.387 Y62.999 E0.13321
G1 X142.002 Y62.665 E0.13152
G1 X144.598 Y62.257 E0.1311
G1 X147.205 Y61.772 E0.1323
G1 X149.813 Y61.211 E0.13309
G1 X152.334 Y60.594 E0.12949
G1 X154.932 Y59.879 E0.13443
G1 X157.594 Y59.062 E0.13892
G1 X158.056 Y58.918 E0.02414
G1 X158.677 Y58.75 E0.0321
G1 X159.384 Y58.64 E0.0357
G1 X160.15 Y58.603 E0.03826
G1 X160.33 Y58.6 E0.00898
G1 X169.293 Y58.6 E0.44717
G1 X170.083 Y58.611 E0.03942
G1 X170.796 Y58.661 E0.03566
G1 X171.5 Y58.79 E0.03571
G1 X172.184 Y58.998 E0.03567
G1 X172.841 Y59.28 E0.03567
G1 X173.463 Y59.634 E0.03571
G1 X174.041 Y60.055 E0.03567
G1 X174.569 Y60.538 E0.0357
G1 X175.039 Y61.076 E0.03564
G1 X175.447 Y61.664 E0.03571
G1 X175.786 Y62.294 E0.03569
G1 X176.053 Y62.957 E0.03566
G1 X176.244 Y63.647 E0.03572
G1 X176.357 Y64.353 E0.03567
G1 X176.397 Y65.15 E0.03981
G1 X176.4 Y65.33 E0.00898
G1 X176.399 Y84.352 E0.94901
G1 X176.389 Y85.078 E0.03622
G1 X176.34 Y85.792 E0.03571
G1 X176.21 Y86.495 E0.03567
G1 X176.004 Y87.18 E0.03569
G1 X175.722 Y87.837 E0.03567
G1 X175.368 Y88.459 E0.03571
G1 X174.948 Y89.038 E0.03569
G1 X174.465 Y89.565 E0.03566
G1 X173.926 Y90.036 E0.03571
G1 X173.339 Y90.444 E0.03566
G1 X172.709 Y90.784 E0.03572
G1 X172.046 Y91.051 E0.03566
G1 X171.357 Y91.242 E0.03567
G1 X170.984 Y91.312 E0.01893
G1 X168.134 Y91.76 E0.14393
G1 X165.537 Y92.245 E0.1318
G1 X162.97 Y92.8 E0.13103
G1 X160.397 Y93.431 E0.13217
G1 X157.808 Y94.147 E0.13401
G1 X155.309 Y94.914 E0.13042
G1 X152.792 Y95.765 E0.13256
G1 X150.28 Y96.694 E0.13362
G1 X147.846 Y97.674 E0.13091
G1 X145.439 Y98.722 E0.13097
G1 X143.007 Y99.865 E0.13407
G1 X140.679 Y101.04 E0.1301
G1 X138.309 Y102.321 E0.13441
G1 X136.062 Y103.619 E0.12946
G1 X133.781 Y105.025 E0.13368
G1 X131.584 Y106.466 E0.13108
G1 X129.389 Y107.997 E0.13352
G1 X127.279 Y109.558 E0.13094
G1 X125.212 Y111.181 E0.13111
G1 X123.142 Y112.902 E0.1343
G1 X121.156 Y114.651 E0.13203
G1 X119.241 Y116.435 E0.13057
G1 X117.345 Y118.305 E0.13286
G1 X115.518 Y120.213 E0.13179
G1 X113.725 Y122.194 E0.1333
G1 X112.053 Y124.149 E0.12834
G1 X110.358 Y126.247 E0.13456
G1 X108.745 Y128.367 E0.1329
G1 X107.218 Y130.495 E0.13067
G1 X105.727 Y132.7 E0.1328
G1 X104.302 Y134.944 E0.13262
G1 X102.953 Y137.206 E0.1314
G1 X101.661 Y139.519 E0.13218
G1 X100.425 Y141.887 E0.13326
G1 X99.286 Y144.228 E0.12988
G1 X98.181 Y146.675 E0.13395
G1 X97.166 Y149.098 E0.13106
G1 X96.227 Y151.53 E0.13006
G1 X95.331 Y154.066 E0.13419
G1 X94.515 Y156.606 E0.1331
G1 X93.778 Y159.135 E0.13142
G1 X93.11 Y161.699 E0.13219
G1 X92.52 Y164.257 E0.13097
G1 X92.004 Y166.821 E0.13048
G1 X91.545 Y169.5 E0.1356
G1 X91.525 Y169.637 E0.00691
G1 X91.312 Y170.988 E0.06823
G1 X91.161 Y171.687 E0.03568
G1 X90.933 Y172.365 E0.03569
G1 X90.631 Y173.013 E0.03567
G1 X90.259 Y173.624 E0.03569
G1 X89.821 Y174.189 E0.03567
G1 X89.322 Y174.702 E0.0357
G1 X88.769 Y175.156 E0.0357
G1 X88.169 Y175.545 E0.03567
G1 X87.53 Y175.866 E0.03568
G1 X86.858 Y176.112 E0.0357
G1 X86.164 Y176.282 E0.03565
G1 X85.17 Y176.388 E0.04987
G1 X84.67 Y176.4 E0.02495
G1 X65.615 Y176.399 E0.95066
G1 X64.917 Y176.389 E0.03483
G1 X64.204 Y176.339 E0.03566
G1 X63.5 Y176.21 E0.03571
G1 X62.816 Y176.002 E0.03567
G1 X62.159 Y175.72 E0.03567
G1 X61.537 Y175.366 E0.03571
G1 X60.959 Y174.945 E0.03567
G1 X60.431 Y174.462 E0.0357
G1 X59.961 Y173.924 E0.03564
G1 X59.553 Y173.336 E0.03571
G1 X59.214 Y172.706 E0.03569
G1 X58.947 Y172.043 E0.03566
G1 X58.756 Y171.353 E0.03572
G1 X58.643 Y170.647 E0.03567
G1 X58.602 Y169.831 E0.04076
G1 X58.6 Y169.658 E0.00863
G1 X58.601 Y160.607 E0.45156
G1 X58.612 Y159.901 E0.03523
G1 X58.663 Y159.188 E0.03566
G1 X58.793 Y158.485 E0.03567
G1 X58.889 Y158.134 E0.01815
G1 X59.129 Y157.347 E0.04105
G1 X59.501 Y156.191 E0.06059
G1 X60.235 Y153.666 E0.13119
G1 X60.912 Y151.063 E0.13418
G1 X61.494 Y148.541 E0.12913
G1 X62.017 Y145.938 E0.13246
G1 X62.468 Y143.304 E0.13332
G1 X62.843 Y140.676 E0.13244
G1 X63.14 Y138.059 E0.1314
G1 X63.365 Y135.419 E0.13219
G1 X63.516 Y132.746 E0.13357
G1 X63.59 Y130.13 E0.13056
G1 X63.6 Y128.752 E0.06875
G1 X63.6 Y70.698 E2.89633
G1 X63.611 Y69.916 E0.03902
G1 X63.661 Y69.203 E0.03566
G1 X63.791 Y68.499 E0.03572
G1 X63.998 Y67.815 E0.03565
G1 X64.28 Y67.158 E0.03567
G1 X64.634 Y66.536 E0.03571
G1 X65.055 Y65.958 E0.03567
G1 X65.538 Y65.43 E0.0357
G0 F2400 X65.929 Y65.61
G1 F1200 X66.464 Y65.169 E0.03459
G1 X67.045 Y64.793 E0.03453
G1 X67.666 Y64.486 E0.03456
G1 X68.318 Y64.253 E0.03454
G1 X68.992 Y64.096 E0.03453
G1 X69.841 Y64.011 E0.04257
G1 X70.33 Y64 E0.0244
G1 X128.789 Y64 E2.91653
G1 X131.432 Y63.963 E0.13187
G1 X134.132 Y63.848 E0.13483
G1 X136.759 Y63.662 E0.13139
G1 X139.44 Y63.396 E0.13441
G1 X142.048 Y63.062 E0.13118
G1 X144.662 Y62.652 E0.13201
G1 X147.29 Y62.163 E0.13336
G1 X149.887 Y61.604 E0.13253
G1 X152.463 Y60.973 E0.13232
G1 X155.05 Y60.261 E0.13386
G1 X157.697 Y59.449 E0.13813
G1 X158.176 Y59.296 E0.02509
G1 X158.177 Y59.3 E0.00021
G1 X158.782 Y59.136 E0.03127
G1 X159.467 Y59.034 E0.03455
G1 X160.161 Y59.002 E0.03466
G1 X160.33 Y59 E0.00843
G1 X169.293 Y59 E0.44717
G1 X170.077 Y59.011 E0.03912
G1 X170.768 Y59.06 E0.03456
G1 X171.448 Y59.19 E0.03454
G1 X172.109 Y59.396 E0.03454
G1 X172.742 Y59.678 E0.03457
G1 X173.338 Y60.03 E0.03453
G1 X173.889 Y60.449 E0.03453
G1 X174.389 Y60.929 E0.03458
G1 X174.83 Y61.463 E0.03455
G1 X175.207 Y62.044 E0.03455
G1 X175.514 Y62.665 E0.03456
G1 X175.747 Y63.317 E0.03454
G1 X175.904 Y63.991 E0.03453
G1 X175.989 Y64.841 E0.04262
G1 X176 Y65.33 E0.0244
G1 X175.999 Y84.347 E0.94876
G1 X175.989 Y85.073 E0.03622
G1 X175.94 Y85.763 E0.03451
G1 X175.811 Y86.444 E0.03458
G1 X175.605 Y87.105 E0.03454
G1 X175.324 Y87.738 E0.03455
G1 X174.972 Y88.334 E0.03453
G1 X174.553 Y88.886 E0.03457
G1 X174.074 Y89.386 E0.03454
G1 X173.54 Y89.827 E0.03455
G1 X172.959 Y90.204 E0.03455
G1 X172.338 Y90.511 E0.03456
G1 X171.687 Y90.745 E0.03451
G1 X170.922 Y90.917 E0.03912
G1 X168.07 Y91.365 E0.14403
G1 X165.451 Y91.854 E0.13292
G1 X162.862 Y92.414 E0.13215
G1 X160.292 Y93.045 E0.13203
G1 X157.731 Y93.753 E0.13256
G1 X155.169 Y94.539 E0.1337
G1 X152.661 Y95.387 E0.13208
G1 X150.14 Y96.32 E0.13411
G1 X147.703 Y97.3 E0.13104
G1 X145.258 Y98.365 E0.13305
G1 X142.836 Y99.503 E0.13351
G1 X140.488 Y100.688 E0.13122
G1 X138.125 Y101.966 E0.13403
G1 X135.857 Y103.275 E0.13064
G1 X133.557 Y104.694 E0.13483
G1 X131.357 Y106.136 E0.13123
G1 X129.168 Y107.664 E0.13318
G1 X127.017 Y109.254 E0.13345
G1 X124.954 Y110.874 E0.13086
G1 X122.906 Y112.578 E0.13292
G1 X120.902 Y114.342 E0.1332
G1 X118.935 Y116.175 E0.13414
G1 X117.058 Y118.026 E0.13152
G1 X115.215 Y119.951 E0.13296
G1 X113.441 Y121.911 E0.13189
G1 X111.736 Y123.904 E0.13085
G1 X110.061 Y125.978 E0.133
G1 X108.418 Y128.138 E0.1354
G1 X106.877 Y130.284 E0.13181
G1 X105.4 Y132.468 E0.13154
G1 X103.953 Y134.746 E0.13464
G1 X102.619 Y136.986 E0.13007
G1 X101.3 Y139.346 E0.13488
G1 X100.083 Y141.677 E0.13119
G1 X98.906 Y144.095 E0.13417
G1 X97.818 Y146.504 E0.13187
G1 X96.8 Y148.936 E0.13153
G1 X95.848 Y151.4 E0.13179
G1 X94.949 Y153.947 E0.13475
G1 X94.136 Y156.476 E0.13253
G1 X93.393 Y159.027 E0.13256
G1 X92.73 Y161.572 E0.13121
G1 X92.124 Y164.202 E0.13465
G1 X91.614 Y166.732 E0.12876
G1 X91.153 Y169.421 E0.13611
G1 X90.917 Y170.925 E0.07595
G1 X90.77 Y171.602 E0.03456
G1 X90.545 Y172.257 E0.03455
G1 X90.247 Y172.882 E0.03454
G1 X89.879 Y173.469 E0.03456
G1 X89.446 Y174.009 E0.03453
G1 X88.953 Y174.496 E0.03457
G1 X88.408 Y174.923 E0.03454
G1 X87.817 Y175.283 E0.03452
G1 X87.188 Y175.574 E0.03458
G1 X86.53 Y175.79 E0.03455
G1 X85.851 Y175.929 E0.03458
G1 X85.159 Y175.989 E0.03465
G1 X84.67 Y176 E0.0244
G1 X65.621 Y175.999 E0.95036
G1 X64.923 Y175.989 E0.03483
G1 X64.232 Y175.94 E0.03456
G1 X63.552 Y175.81 E0.03454
G1 X62.891 Y175.604 E0.03454
G1 X62.258 Y175.322 E0.03457
G1 X61.662 Y174.97 E0.03453
G1 X61.111 Y174.551 E0.03453
G1 X60.611 Y174.071 E0.03458
G1 X60.17 Y173.537 E0.03455
G1 X59.793 Y172.956 E0.03455
G1 X59.486 Y172.335 E0.03456
G1 X59.253 Y171.683 E0.03454
G1 X59.096 Y171.009 E0.03453
G1 X59.011 Y170.153 E0.04292
G1 X59 Y169.658 E0.0247
G1 X59.001 Y160.614 E0.45121
G1 X59.012 Y159.908 E0.03523
G1 X59.062 Y159.217 E0.03456
G1 X59.272 Y158.251 E0.04932
G1 X59.539 Y157.376 E0.04564
G1 X59.889 Y156.287 E0.05707
G1 X60.623 Y153.764 E0.13109
G1 X61.293 Y151.19 E0.1327
G1 X61.898 Y148.562 E0.13454
G1 X62.404 Y146.045 E0.12809
G1 X62.866 Y143.351 E0.13637
G1 X63.237 Y140.745 E0.13132
G1 X63.541 Y138.067 E0.13446
G1 X63.765 Y135.44 E0.13154
G1 X63.914 Y132.816 E0.13112
G1 X63.991 Y130.097 E0.13571
G1 X64 Y128.755 E0.06695
G1 X64 Y70.698 E2.89648
G1 X64.011 Y69.922 E0.03872
G1 X64.061 Y69.231 E0.03456
G1 X64.19 Y68.551 E0.03453
G1 X64.397 Y67.89 E0.03456
G1 X64.678 Y67.257 E0.03455
G1 X65.031 Y66.661 E0.03456
G1 X65.45 Y66.11 E0.03453
G1 X65.929 Y65.61 E0.03454
G0 F2400 X65.844 Y66.267
G1 F1200 X66.32 Y65.797 E0.03337
G1 X66.848 Y65.387 E0.03335
G1 X67.422 Y65.043 E0.03339
G1 X68.033 Y64.77 E0.03339
G1 X68.672 Y64.571 E0.03339
G1 X69.33 Y64.45 E0.03338
G1 X69.853 Y64.411 E0.02617
G1 X70.33 Y64.4 E0.0238
G1 X128.795 Y64.4 E2.91683
G1 X131.455 Y64.362 E0.13272
G1 X134.141 Y64.248 E0.13413
G1 X136.794 Y64.06 E0.13269
G1 X139.46 Y63.796 E0.13366
G1 X142.124 Y63.455 E0.13399
G1 X144.725 Y63.046 E0.13136
G1 X147.376 Y62.554 E0.13452
G1 X150.002 Y61.988 E0.13402
G1 X152.55 Y61.364 E0.13088
G1 X155.136 Y60.653 E0.1338
G1 X157.881 Y59.811 E0.14325
G1 X158.231 Y59.699 E0.01833
G1 X158.886 Y59.523 E0.03384
G1 X159.853 Y59.411 E0.04857
G1 X160.33 Y59.4 E0.0238
G1 X169.373 Y59.401 E0.45116
G1 X170.071 Y59.411 E0.03483
G1 X170.738 Y59.46 E0.03337
G1 X171.395 Y59.589 E0.0334
G1 X172.031 Y59.795 E0.03335
G1 X172.639 Y60.076 E0.03342
G1 X173.208 Y60.426 E0.03333
G1 X173.732 Y60.843 E0.03341
G1 X174.202 Y61.319 E0.03337
G1 X174.612 Y61.847 E0.03335
G1 X174.957 Y62.421 E0.03341
G1 X175.23 Y63.032 E0.03339
G1 X175.428 Y63.671 E0.03338
G1 X175.549 Y64.329 E0.03338
G1 X175.589 Y64.853 E0.02622
G1 X175.6 Y65.33 E0.0238
