;FLAVOR:RepRap
;TIME:24924
;Filament used: 28.2674m
;Layer height: 0.2
;MINX:51.336
;MINY:58.305
;MINZ:0.2
;MAXX:183.67
;MAXY:176.695
;MAXZ:60
;Generated with Cura_SteamEngine 4.7.1
T0
M190 S60
M104 S200
M109 S200
M82 ;absolute extrusion mode
; Ender 3 Custom Start G-code
;G92 E0 ; Reset Extruder
;G28 ; Home all axes
;G1 Z2.0 F3000 ; Move Z Axis up little to prevent scratching of Heat Bed
;G1 X-115 Y-115 Z0.2 F5000.0 ; Move to start position
;G1 X-115 Y100 Z0.2 F1500.0 E15 ; Draw the first line;G1 X-112 Y100 Z0.2 F5000.0 ; Move to side a little
;G1 X-112 Y-115 Z0.3 F1500.0 E30 ; Draw the second line
;G92 E0 ; Reset Extruder
;G1 Z5.0 F3000 ; Move Z Axis up little to prevent scratching of Heat Bed
;G1 X0 Y0  F5000.0 ; Move over to prevent blob squish
M83 ;relative extrusion mode
G10
;LAYER_COUNT:300
;LAYER:0
M107
M204 T500
M566 X480 Y480
G1 F300 Z0.6
G0 F9000 X54.864 Y61.599 Z0.6
M204 P500
;TYPE:SKIRT
G1 F300 Z0.2
G11
G1 F1800 X55.713 Y60.883 E0.0362
G1 X56.001 Y60.67 E0.01168
G1 X56.405 Y60.38 E0.01621
G1 X57.175 Y59.876 E0.03
G1 X57.987 Y59.441 E0.03003
G1 X58.833 Y59.078 E0.03001
G1 X59.707 Y58.789 E0.03
G1 X60.173 Y58.669 E0.01568
G1 X60.481 Y58.597 E0.01031
G1 X61.306 Y58.439 E0.02738
G1 X61.339 Y58.434 E0.00109
G1 X62.254 Y58.335 E0.03
G1 X62.784 Y58.315 E0.01729
G1 X63.596 Y58.305 E0.02647
G1 X171.373 Y58.305 E3.51298
G1 X171.531 Y58.306 E0.00515
G1 X172.203 Y58.316 E0.02191
G1 X173.122 Y58.37 E0.03001
G1 X174.283 Y58.554 E0.03832
G1 X174.621 Y58.627 E0.01127
G1 X175.511 Y58.86 E0.02999
G1 X176.378 Y59.17 E0.03001
G1 X177.215 Y59.554 E0.03002
G1 X178.016 Y60.008 E0.03001
G1 X178.556 Y60.371 E0.02121
G1 X179.018 Y60.702 E0.01852
G1 X179.316 Y60.924 E0.01211
G1 X179.508 Y61.072 E0.0079
G1 X180.212 Y61.665 E0.03
G1 X180.862 Y62.317 E0.03001
G1 X181.453 Y63.023 E0.03001
G1 X181.981 Y63.778 E0.03003
G1 X182.518 Y64.727 E0.03554
G1 X182.904 Y65.587 E0.03073
G1 X183.205 Y66.457 E0.03001
G1 X183.429 Y67.35 E0.03001
G1 X183.576 Y68.259 E0.03001
G1 X183.645 Y69.261 E0.03274
G1 X183.667 Y70.293 E0.03365
G1 X183.669 Y70.519 E0.00737
G1 X183.67 Y126.828 E1.83539
G1 X183.668 Y164.96 E1.24291
G1 X183.657 Y165.666 E0.02301
G1 X183.602 Y166.585 E0.03001
G1 X183.469 Y167.496 E0.03001
G1 X183.256 Y168.392 E0.03002
G1 X182.967 Y169.266 E0.03
G1 X182.603 Y170.111 E0.02999
G1 X182.167 Y170.922 E0.03001
G1 X181.662 Y171.692 E0.03001
G1 X181.092 Y172.415 E0.03001
G1 X180.462 Y173.087 E0.03002
G1 X179.856 Y173.634 E0.02661
G1 X179.582 Y173.863 E0.01164
G1 X179.005 Y174.312 E0.02383
G1 X178.627 Y174.586 E0.01522
G1 X177.859 Y175.094 E0.03001
G1 X177.05 Y175.533 E0.03
G1 X176.205 Y175.9 E0.03003
G1 X174.985 Y176.286 E0.04171
G1 X174.682 Y176.362 E0.01018
G1 X173.78 Y176.547 E0.03001
G1 X172.865 Y176.653 E0.03002
G1 X172.282 Y176.678 E0.01902
G1 X171.214 Y176.695 E0.03482
G1 X63.623 Y176.695 E3.50692
G1 X62.772 Y176.684 E0.02774
G1 X61.852 Y176.631 E0.03004
G1 X60.734 Y176.457 E0.03688
G1 X60.535 Y176.415 E0.00663
G1 X60.229 Y176.345 E0.01023
G1 X60.101 Y176.314 E0.00429
G1 X59.216 Y176.059 E0.03002
G1 X58.357 Y175.728 E0.03001
G1 X57.53 Y175.323 E0.03001
G1 X56.487 Y174.675 E0.04002
G1 X56.124 Y174.419 E0.01448
G1 X55.785 Y174.169 E0.01373
G1 X55.541 Y173.982 E0.01002
G1 X54.835 Y173.391 E0.03001
G1 X54.184 Y172.741 E0.02999
G1 X53.591 Y172.037 E0.03
G1 X53.061 Y171.283 E0.03004
G1 X52.508 Y170.309 E0.03651
G1 X52.478 Y170.249 E0.00219
G1 X52.102 Y169.409 E0.03
G1 X51.801 Y168.539 E0.03001
G1 X51.577 Y167.646 E0.03001
G1 X51.43 Y166.737 E0.03001
G1 X51.361 Y165.726 E0.03303
G1 X51.339 Y164.653 E0.03498
G1 X51.337 Y164.436 E0.00707
G1 X51.336 Y108.47 E1.82421
G1 X51.338 Y70.051 E1.25226
G1 X51.348 Y69.364 E0.0224
G1 X51.401 Y68.445 E0.03
G1 X51.534 Y67.534 E0.03001
G1 X51.746 Y66.638 E0.03001
G1 X52.034 Y65.763 E0.03003
G1 X52.397 Y64.917 E0.03001
G1 X52.833 Y64.106 E0.03001
G1 X53.337 Y63.336 E0.03
G1 X54.004 Y62.505 E0.03473
G0 F1620 X54.055 Y62.441
G0 X54.22 Y62.257
G0 X54.864 Y61.599
G0 F9000 X55.15 Y61.879
G1 F1800 X55.955 Y61.202 E0.03428
G1 X56.234 Y60.995 E0.01132
G1 X56.638 Y60.705 E0.01621
G1 X57.394 Y60.211 E0.02944
G1 X58.191 Y59.786 E0.02944
G1 X59.023 Y59.434 E0.02945
G1 X60.264 Y59.059 E0.04226
G1 X60.572 Y58.987 E0.01031
G1 X61.366 Y58.834 E0.02636
G1 X61.399 Y58.829 E0.00109
G1 X62.297 Y58.733 E0.02944
G1 X62.79 Y58.715 E0.01608
G1 X63.596 Y58.705 E0.02627
G1 X171.373 Y58.705 E3.51298
G1 X171.525 Y58.706 E0.00495
G1 X172.197 Y58.716 E0.02191
G1 X173.098 Y58.77 E0.02942
G1 X174.198 Y58.945 E0.03631
G1 X174.536 Y59.018 E0.01127
G1 X175.41 Y59.247 E0.02945
G1 X176.259 Y59.553 E0.02942
G1 X177.079 Y59.933 E0.02946
G1 X177.861 Y60.384 E0.02942
G1 X178.324 Y60.696 E0.0182
G1 X178.786 Y61.027 E0.01852
G1 X179.072 Y61.24 E0.01162
G1 X179.264 Y61.388 E0.0079
G1 X179.954 Y61.971 E0.02944
G1 X180.59 Y62.612 E0.02943
G1 X181.167 Y63.307 E0.02944
G1 X181.68 Y64.05 E0.02943
G1 X182.16 Y64.905 E0.03196
G1 X182.538 Y65.75 E0.03017
G1 X182.831 Y66.604 E0.02943
G1 X183.048 Y67.481 E0.02945
G1 X183.186 Y68.374 E0.02945
G1 X183.245 Y69.27 E0.02927
G1 X183.267 Y70.302 E0.03365
G1 X183.269 Y70.519 E0.00707
G1 X183.27 Y126.828 E1.83539
G1 X183.268 Y164.954 E1.24271
G1 X183.257 Y165.66 E0.02301
G1 X183.203 Y166.561 E0.02942
G1 X183.069 Y167.455 E0.02947
G1 X182.857 Y168.332 E0.02941
G1 X182.568 Y169.188 E0.02945
G1 X182.205 Y170.015 E0.02944
G1 X181.77 Y170.806 E0.02942
G1 X181.266 Y171.556 E0.02945
G1 X180.699 Y172.258 E0.02941
G1 X180.071 Y172.908 E0.02946
G1 X179.599 Y173.327 E0.02057
G1 X179.325 Y173.556 E0.01164
G1 X178.77 Y173.989 E0.02294
G1 X178.392 Y174.263 E0.01522
G1 X177.638 Y174.76 E0.02944
G1 X176.843 Y175.188 E0.02943
G1 X176.014 Y175.545 E0.02942
G1 X174.888 Y175.898 E0.03846
G1 X174.585 Y175.974 E0.01018
G1 X173.7 Y176.154 E0.02944
G1 X172.802 Y176.256 E0.02946
G1 X172.275 Y176.279 E0.01719
G1 X171.386 Y176.294 E0.02898
G1 X63.623 Y176.295 E3.51253
G1 X62.777 Y176.284 E0.02758
G1 X61.876 Y176.231 E0.02942
G1 X60.817 Y176.065 E0.03494
G1 X60.618 Y176.023 E0.00663
G1 X60.323 Y175.956 E0.00986
G1 X60.195 Y175.925 E0.00429
G1 X59.328 Y175.674 E0.02942
G1 X58.486 Y175.347 E0.02944
G1 X57.676 Y174.947 E0.02945
G1 X56.717 Y174.348 E0.03686
G1 X56.354 Y174.092 E0.01448
G1 X56.028 Y173.852 E0.01319
G1 X55.784 Y173.665 E0.01002
G1 X55.093 Y173.084 E0.02943
G1 X54.455 Y172.445 E0.02943
G1 X53.876 Y171.751 E0.02946
G1 X53.361 Y171.01 E0.02941
G1 X52.866 Y170.131 E0.03288
G1 X52.836 Y170.071 E0.00219
G1 X52.468 Y169.246 E0.02944
G1 X52.175 Y168.392 E0.02943
G1 X51.958 Y167.515 E0.02945
G1 X51.82 Y166.622 E0.02945
G1 X51.761 Y165.718 E0.02953
G1 X51.739 Y164.645 E0.03498
G1 X51.737 Y164.436 E0.00681
G1 X51.736 Y108.47 E1.82421
G1 X51.738 Y70.057 E1.25207
G1 X51.748 Y69.37 E0.0224
G1 X51.801 Y68.468 E0.02945
G1 X51.934 Y67.575 E0.02943
G1 X52.145 Y66.697 E0.02943
G1 X52.433 Y65.841 E0.02944
G1 X52.796 Y65.014 E0.02944
G1 X53.23 Y64.222 E0.02944
G1 X53.732 Y63.471 E0.02944
G1 X54.29 Y62.785 E0.02882
G0 F1620 X54.353 Y62.708
G0 X54.518 Y62.524
G0 X55.15 Y61.879
G10
G1 F300 Z0.6
;MESH:liaison support 2 v1.stl
G0 F9000 X172.07 Y126.83 Z0.6
;TYPE:WALL-INNER
G1 F300 Z0.2
G11
G1 F1800 X172.069 Y165.02 E1.2448
G1 X171.973 Y165.092 E0.00391
G1 X171.96 Y165.095 E0.00043
G1 X63.033 Y165.095 E3.55047
G1 X63.002 Y165.088 E0.00104
G1 X62.937 Y165.041 E0.00261
G1 X62.936 Y108.468 E1.84399
G1 X62.937 Y69.964 E1.25504
G1 X63.01 Y69.91 E0.00296
G1 X63.033 Y69.905 E0.00077
G1 X171.964 Y69.905 E3.5506
G1 X171.973 Y69.907 E0.0003
G1 X172.069 Y69.979 E0.00391
G1 X172.07 Y125.58 E1.81231
G0 F1620 X172.07 Y126.83
G0 F9000 X172.47 Y126.83
G1 F1800 X172.469 Y165.22 E1.25132
G1 X172.212 Y165.411 E0.01044
G1 X172.145 Y165.462 E0.00274
G1 X172.008 Y165.495 E0.00459
G1 X62.986 Y165.495 E3.55356
G1 X62.835 Y165.46 E0.00505
G1 X62.673 Y165.343 E0.00651
G1 X62.537 Y165.241 E0.00554
G1 X62.536 Y108.468 E1.85051
G1 X62.537 Y69.762 E1.26162
G1 X62.839 Y69.539 E0.01224
G1 X62.986 Y69.505 E0.00492
G1 X172.01 Y69.505 E3.55363
G1 X172.145 Y69.537 E0.00452
G1 X172.211 Y69.587 E0.0027
G1 X172.469 Y69.779 E0.01048
G1 X172.47 Y125.58 E1.81883
G0 F1620 X172.47 Y126.83
G0 F9000 X172.87 Y126.83
;TYPE:WALL-OUTER
G1 F1800 X172.869 Y165.42 E1.21933
G1 X172.319 Y165.832 E0.02171
G1 X172.055 Y165.895 E0.00858
G1 X62.939 Y165.895 E3.44775
G1 X62.666 Y165.832 E0.00885
G1 X62.438 Y165.667 E0.00889
G1 X62.137 Y165.441 E0.01189
G1 X62.136 Y108.468 E1.80018
G1 X62.137 Y69.56 E1.22938
G1 X62.667 Y69.168 E0.02083
G1 X62.939 Y69.105 E0.00882
G1 X172.055 Y69.105 E3.44775
G1 X172.318 Y69.167 E0.00854
G1 X172.869 Y69.579 E0.02174
G1 X172.87 Y125.58 E1.76947
G0 F1620 X172.87 Y126.83
G0 F9000 X172.87 Y127.23
G0 X172.43 Y127.229
G10
G0 X172.37 Y127.229
G0 X125.269 Y117.895
;TYPE:SKIN
G11
G1 F1800 X125.269 Y117.9 E0.00016
G1 X125.669 Y117.9 E0.01304
G1 X125.669 Y116.305 E0.05199
G1 X109.337 Y116.305 E0.53234
G1 X109.337 Y118.695 E0.0779
G1 X125.669 Y118.695 E0.53234
G1 X126.069 Y118.7 E0.01304
G1 X126.469 Y118.7 E0.01304
G1 X126.469 Y115.505 E0.10414
G1 X108.537 Y115.505 E0.58449
G1 X108.537 Y119.495 E0.13005
G1 X126.469 Y119.495 E0.58449
G1 X126.869 Y119.495 E0.01304
G1 X126.869 Y119.5 E0.00016
G1 X127.269 Y119.505 E0.01304
G1 X127.269 Y114.705 E0.15646
G1 X107.737 Y114.705 E0.63664
G1 X107.737 Y120.295 E0.18221
G1 X127.269 Y120.295 E0.63664
G1 X127.669 Y120.295 E0.01304
G1 X127.669 Y120.3 E0.00016
G1 X128.069 Y120.3 E0.01304
G1 X128.069 Y113.905 E0.20844
G1 X106.937 Y113.905 E0.6888
G1 X106.937 Y121.095 E0.23436
G1 X128.069 Y121.095 E0.6888
G1 X128.469 Y121.095 E0.01304
G1 X128.469 Y121.1 E0.00016
G1 X128.869 Y121.105 E0.01304
G1 X128.869 Y113.105 E0.26076
G1 X106.137 Y113.105 E0.74095
G1 X106.137 Y121.895 E0.28651
G1 X128.869 Y121.895 E0.74095
G1 X129.269 Y121.895 E0.01304
G1 X129.269 Y121.9 E0.00016
G1 X129.669 Y121.9 E0.01304
G1 X129.669 Y112.305 E0.31275
G1 X105.337 Y112.305 E0.7931
G1 X105.337 Y122.695 E0.33866
G1 X129.669 Y122.695 E0.7931
G1 X130.069 Y122.7 E0.01304
G1 X130.469 Y122.7 E0.01304
G1 X130.469 Y111.505 E0.3649
G1 X104.537 Y111.505 E0.84525
G1 X104.537 Y123.495 E0.39081
G1 X130.469 Y123.495 E0.84525
G1 X130.869 Y123.495 E0.01304
G1 X130.869 Y123.5 E0.00016
G1 X131.269 Y123.505 E0.01304
G1 X131.269 Y110.705 E0.41722
G1 X103.737 Y110.705 E0.8974
G1 X103.737 Y124.295 E0.44297
G1 X131.269 Y124.295 E0.8974
G1 X131.669 Y124.295 E0.01304
G1 X131.669 Y124.3 E0.00016
G1 X132.069 Y124.3 E0.01304
G1 X132.069 Y109.905 E0.4692
G1 X102.937 Y109.905 E0.94956
G1 X102.937 Y125.095 E0.49512
G1 X132.069 Y125.095 E0.94956
G1 X132.469 Y125.1 E0.01304
G1 X132.869 Y125.1 E0.01304
G1 X132.869 Y109.105 E0.52136
G1 X102.137 Y109.105 E1.00171
G1 X102.137 Y125.895 E0.54727
G1 X132.869 Y125.895 E1.00171
G1 X133.269 Y125.895 E0.01304
G1 X133.269 Y125.9 E0.00016
G1 X133.669 Y125.905 E0.01304
G1 X133.669 Y108.305 E0.57367
G1 X101.337 Y108.305 E1.05386
G1 X101.337 Y126.695 E0.59942
G1 X133.669 Y126.695 E1.05386
G1 X134.069 Y126.695 E0.01304
G1 X134.069 Y126.7 E0.00016
G1 X134.469 Y126.7 E0.01304
G1 X134.469 Y107.505 E0.62566
G1 X100.537 Y107.505 E1.10601
G1 X100.537 Y127.495 E0.65157
G1 X134.469 Y127.495 E1.10601
G1 X134.869 Y127.5 E0.01304
G1 X135.269 Y127.5 E0.01304
G1 X135.269 Y106.705 E0.67781
G1 X99.737 Y106.705 E1.15816
G1 X99.737 Y128.295 E0.70372
G1 X135.269 Y128.295 E1.15816
G1 X135.669 Y128.295 E0.01304
G1 X135.669 Y128.3 E0.00016
G1 X136.069 Y128.305 E0.01304
G1 X136.069 Y105.905 E0.73013
G1 X98.937 Y105.905 E1.21032
G1 X98.937 Y129.095 E0.75588
G1 X136.069 Y129.095 E1.21032
G1 X136.469 Y129.095 E0.01304
G1 X136.469 Y129.1 E0.00016
G1 X136.869 Y129.1 E0.01304
G1 X136.869 Y105.105 E0.78212
G1 X98.137 Y105.105 E1.26247
G1 X98.137 Y129.895 E0.80803
G1 X136.869 Y129.895 E1.26247
G1 X137.269 Y129.9 E0.01304
G1 X137.669 Y129.9 E0.01304
G1 X137.669 Y104.305 E0.83427
G1 X97.337 Y104.305 E1.31462
G1 X97.337 Y130.695 E0.86018
G1 X137.669 Y130.695 E1.31462
G1 X138.069 Y130.695 E0.01304
G1 X138.069 Y130.7 E0.00016
G1 X138.469 Y130.705 E0.01304
G1 X138.469 Y103.505 E0.88658
G1 X96.537 Y103.505 E1.36677
G1 X96.537 Y131.495 E0.91233
G1 X138.469 Y131.495 E1.36677
G1 X138.869 Y131.495 E0.01304
G1 X138.869 Y131.5 E0.00016
G1 X139.269 Y131.5 E0.01304
G1 X139.269 Y102.705 E0.93857
G1 X95.737 Y102.705 E1.41892
G1 X95.737 Y132.295 E0.96448
G1 X139.269 Y132.295 E1.41892
G1 X139.669 Y132.3 E0.01304
G1 X140.069 Y132.3 E0.01304
G1 X140.069 Y101.905 E0.99072
G1 X94.937 Y101.905 E1.47107
G1 X94.937 Y133.095 E1.01664
G1 X140.069 Y133.095 E1.47107
G1 X140.469 Y133.095 E0.01304
G1 X140.469 Y133.1 E0.00016
G1 X140.869 Y133.105 E0.01304
G1 X140.869 Y101.105 E1.04304
G1 X94.137 Y101.105 E1.52323
G1 X94.137 Y133.895 E1.06879
G1 X140.869 Y133.895 E1.52323
G1 X141.269 Y133.895 E0.01304
G1 X141.269 Y133.9 E0.00016
G1 X141.669 Y133.9 E0.01304
G1 X141.669 Y100.305 E1.09503
G1 X93.337 Y100.305 E1.57538
G1 X93.337 Y134.695 E1.12094
G1 X141.669 Y134.695 E1.57538
G1 X142.069 Y134.7 E0.01304
G1 X142.469 Y134.7 E0.01304
G1 X142.469 Y99.505 E1.14718
G1 X92.537 Y99.505 E1.62753
G1 X92.537 Y135.495 E1.17309
G1 X142.469 Y135.495 E1.62753
G1 X142.869 Y135.495 E0.01304
G1 X142.869 Y135.5 E0.00016
G1 X143.269 Y135.5 E0.01304
G1 X143.269 Y98.705 E1.19933
G1 X91.737 Y98.705 E1.67968
G1 X91.737 Y136.295 E1.22524
G1 X143.269 Y136.295 E1.67968
G1 X143.669 Y136.3 E0.01304
G1 X144.069 Y136.3 E0.01304
G1 X144.069 Y97.905 E1.25148
G1 X90.937 Y97.905 E1.73183
G1 X90.937 Y137.095 E1.2774
G1 X144.069 Y137.095 E1.73183
G1 X144.469 Y137.095 E0.01304
G1 X144.469 Y137.1 E0.00016
G1 X144.869 Y137.105 E0.01304
G1 X144.869 Y97.105 E1.3038
G1 X90.137 Y97.105 E1.78399
G1 X90.137 Y137.895 E1.32955
G1 X144.869 Y137.895 E1.78399
G1 X145.269 Y137.895 E0.01304
G1 X145.269 Y137.9 E0.00016
G1 X145.669 Y137.9 E0.01304
G1 X145.669 Y96.305 E1.35579
G1 X89.337 Y96.305 E1.83614
G1 X89.337 Y138.695 E1.3817
G1 X145.669 Y138.695 E1.83614
G1 X146.069 Y138.7 E0.01304
G1 X146.469 Y138.7 E0.01304
G1 X146.469 Y95.505 E1.40794
G1 X88.537 Y95.505 E1.88829
G1 X88.537 Y139.495 E1.43385
G1 X146.469 Y139.495 E1.88829
G1 X146.869 Y139.495 E0.01304
G1 X146.869 Y139.5 E0.00016
G1 X147.269 Y139.505 E0.01304
G1 X147.269 Y94.705 E1.46025
G1 X87.737 Y94.705 E1.94044
G1 X87.737 Y140.295 E1.486
G1 X147.269 Y140.295 E1.94044
G1 X147.669 Y140.295 E0.01304
G1 X147.669 Y140.3 E0.00016
G1 X148.069 Y140.3 E0.01304
G1 X148.069 Y93.905 E1.51224
G1 X86.937 Y93.905 E1.99259
G1 X86.937 Y141.095 E1.53815
G1 X148.069 Y141.095 E1.99259
G1 X148.469 Y141.1 E0.01304
G1 X148.869 Y141.1 E0.01304
G1 X148.869 Y93.105 E1.56439
G1 X86.137 Y93.105 E2.04475
G1 X86.137 Y141.895 E1.59031
G1 X148.869 Y141.895 E2.04475
G1 X149.269 Y141.895 E0.01304
G1 X149.269 Y141.9 E0.00016
G1 X149.669 Y141.905 E0.01304
G1 X149.669 Y92.305 E1.61671
G1 X85.337 Y92.305 E2.0969
G1 X85.337 Y142.695 E1.64246
G1 X149.669 Y142.695 E2.0969
G1 X150.069 Y142.695 E0.01304
G1 X150.069 Y142.7 E0.00016
G1 X150.469 Y142.7 E0.01304
G1 X150.469 Y91.505 E1.6687
G1 X84.537 Y91.505 E2.14905
G1 X84.537 Y143.495 E1.69461
G1 X150.469 Y143.495 E2.14905
G1 X150.869 Y143.5 E0.01304
G1 X151.269 Y143.5 E0.01304
G1 X151.269 Y90.705 E1.72085
G1 X83.737 Y90.705 E2.2012
G1 X83.737 Y144.295 E1.74676
G1 X151.269 Y144.295 E2.2012
G1 X151.669 Y144.295 E0.01304
G1 X151.669 Y144.3 E0.00016
G1 X152.069 Y144.305 E0.01304
G1 X152.069 Y89.905 E1.77316
G1 X82.937 Y89.905 E2.25335
G1 X82.937 Y145.095 E1.79891
G1 X152.069 Y145.095 E2.25335
G1 X152.469 Y145.095 E0.01304
G1 X152.469 Y145.1 E0.00016
G1 X152.869 Y145.1 E0.01304
G1 X152.869 Y89.105 E1.82515
G1 X82.137 Y89.105 E2.3055
G1 X82.137 Y145.895 E1.85107
G1 X152.869 Y145.895 E2.3055
G1 X153.269 Y145.9 E0.01304
G1 X153.669 Y145.9 E0.01304
G1 X153.669 Y88.305 E1.87731
G1 X81.337 Y88.305 E2.35766
G1 X81.337 Y146.695 E1.90322
G1 X153.669 Y146.695 E2.35766
G1 X154.069 Y146.695 E0.01304
G1 X154.069 Y146.7 E0.00016
G1 X154.469 Y146.705 E0.01304
G1 X154.469 Y87.505 E1.92962
G1 X80.537 Y87.505 E2.40981
G1 X80.537 Y147.495 E1.95537
G1 X154.469 Y147.495 E2.40981
G1 X154.869 Y147.495 E0.01304
G1 X154.869 Y147.5 E0.00016
G1 X155.269 Y147.5 E0.01304
G1 X155.269 Y86.705 E1.98161
G1 X79.737 Y86.705 E2.46196
G1 X79.737 Y148.295 E2.00752
