;FLAVOR:RepRap
;TIME:11607
;Filament used: 12.2001m
;Layer height: 0.2
;MINX:78.838
;MINY:78.639
;MINZ:0.2
;MAXX:156.157
;MAXY:156.348
;MAXZ:60
;Generated with Cura_SteamEngine 4.7.1
T0
M190 S60
M104 S200
M109 S200
M82 ;absolute extrusion mode
; Ender 3 Custom Start G-code
;G92 E0 ; Reset Extruder
;G28 ; Home all axes
;G1 Z2.0 F3000 ; Move Z Axis up little to prevent scratching of Heat Bed
;G1 X-115 Y-115 Z0.2 F5000.0 ; Move to start position
;G1 X-115 Y100 Z0.2 F1500.0 E15 ; Draw the first line;G1 X-112 Y100 Z0.2 F5000.0 ; Move to side a little
;G1 X-112 Y-115 Z0.3 F1500.0 E30 ; Draw the second line
;G92 E0 ; Reset Extruder
;G1 Z5.0 F3000 ; Move Z Axis up little to prevent scratching of Heat Bed
;G1 X0 Y0  F5000.0 ; Move over to prevent blob squish
M83 ;relative extrusion mode
G10
;LAYER_COUNT:300
;LAYER:0
M107
M204 T500
M566 X480 Y480
G1 F300 Z0.6
G0 F9000 X81.919 Y82.201 Z0.6
M204 P500
;TYPE:SKIRT
G1 F300 Z0.2
G11
G1 F1800 X82.58 Y81.561 E0.02999
G1 X83.44 Y80.875 E0.03586
G1 X83.648 Y80.726 E0.00834
G1 X84.419 Y80.223 E0.03001
G1 X85.231 Y79.788 E0.03003
G1 X85.884 Y79.501 E0.02325
G1 X86.084 Y79.421 E0.00702
G1 X86.953 Y79.117 E0.03001
G1 X87.845 Y78.889 E0.03001
G1 X88.753 Y78.739 E0.03
G1 X89.865 Y78.664 E0.03633
G1 X90.681 Y78.652 E0.0266
G1 X142.957 Y78.652 E1.70393
G1 X143.956 Y78.639 E0.03257
G1 X144.969 Y78.639 E0.03302
G1 X145.889 Y78.679 E0.03002
G1 X146.802 Y78.799 E0.03002
G1 X147.701 Y78.997 E0.03001
G1 X148.579 Y79.273 E0.03
G1 X149.821 Y79.815 E0.04417
G1 X150.023 Y79.919 E0.00741
G1 X150.534 Y80.2 E0.01901
G1 X150.713 Y80.305 E0.00676
G1 X151.486 Y80.805 E0.03001
G1 X152.213 Y81.37 E0.03001
G1 X152.888 Y81.996 E0.03001
G1 X153.506 Y82.678 E0.03
G1 X154.063 Y83.411 E0.03001
G1 X154.531 Y84.149 E0.02848
G1 X154.718 Y84.473 E0.01219
G1 X155.143 Y85.29 E0.03002
G1 X155.495 Y86.14 E0.02999
G1 X155.773 Y87.018 E0.03002
G1 X155.983 Y87.971 E0.03181
G1 X156.003 Y88.087 E0.00384
G1 X156.12 Y89 E0.03
G1 X156.157 Y89.967 E0.03154
G1 X156.146 Y91.448 E0.04827
G1 X156.144 Y144.505 E1.72939
G1 X156.135 Y145.203 E0.02275
G1 X156.083 Y146.122 E0.03
G1 X156.01 Y146.693 E0.01876
G1 X155.978 Y146.899 E0.0068
G1 X155.798 Y147.802 E0.03001
G1 X155.539 Y148.685 E0.02999
G1 X155.205 Y149.543 E0.03001
G1 X154.798 Y150.369 E0.03001
G1 X154.377 Y151.072 E0.02671
G1 X154.243 Y151.277 E0.00798
G1 X153.706 Y152.025 E0.03001
G1 X153.106 Y152.723 E0.03
G1 X152.701 Y153.133 E0.01878
G1 X152.513 Y153.313 E0.00848
G1 X151.821 Y153.921 E0.03003
G1 X151.079 Y154.466 E0.03001
G1 X150.292 Y154.944 E0.03001
G1 X149.467 Y155.352 E0.03
G1 X148.47 Y155.734 E0.0348
G1 X148.185 Y155.827 E0.00977
G1 X147.298 Y156.074 E0.03001
G1 X146.394 Y156.244 E0.02998
G1 X145.477 Y156.334 E0.03003
G1 X144.897 Y156.341 E0.01891
G1 X144.897 Y156.348 E0.00023
G1 X90.55 Y156.347 E1.77144
G1 X89.917 Y156.338 E0.02063
G1 X88.998 Y156.285 E0.03
G1 X88.073 Y156.15 E0.03047
G1 X87.906 Y156.118 E0.00554
G1 X87.01 Y155.905 E0.03002
G1 X86.136 Y155.616 E0.03
G1 X85.291 Y155.252 E0.02999
G1 X84.48 Y154.816 E0.03001
G1 X83.959 Y154.485 E0.02012
G1 X83.764 Y154.353 E0.00768
G1 X83.025 Y153.804 E0.03001
G1 X82.336 Y153.193 E0.03002
G1 X81.479 Y152.259 E0.04132
G1 X81.31 Y152.051 E0.00874
G1 X80.761 Y151.312 E0.03001
G1 X80.278 Y150.528 E0.03001
G1 X79.867 Y149.709 E0.02987
G1 X79.77 Y149.493 E0.00772
G1 X79.43 Y148.638 E0.02999
G1 X79.165 Y147.756 E0.03002
G1 X78.978 Y146.855 E0.02999
G1 X78.869 Y145.941 E0.03
G1 X78.84 Y145.18 E0.02482
G1 X78.838 Y144.459 E0.0235
G1 X78.839 Y144.285 E0.00567
G1 X78.853 Y143.262 E0.03335
G1 X78.854 Y91.42 E1.68979
G1 X78.842 Y89.947 E0.04801
G1 X78.875 Y89.027 E0.03001
G1 X78.987 Y88.113 E0.03001
G1 X79.178 Y87.213 E0.02999
G1 X79.447 Y86.332 E0.03002
G1 X79.728 Y85.618 E0.02501
G1 X79.849 Y85.341 E0.00985
G1 X80.25 Y84.522 E0.02972
G1 X80.3 Y84.43 E0.00341
G1 X80.774 Y83.641 E0.03
G1 X81.121 Y83.163 E0.01925
G0 F1620 X81.315 Y82.896
G0 X81.919 Y82.201
G0 F9000 X82.245 Y82.439
G1 F1800 X82.897 Y81.815 E0.02942
G1 X83.673 Y81.2 E0.03227
G1 X83.881 Y81.051 E0.00834
G1 X84.638 Y80.558 E0.02945
G1 X85.435 Y80.134 E0.02943
G1 X86.033 Y79.873 E0.02127
G1 X86.233 Y79.793 E0.00702
G1 X87.085 Y79.495 E0.02942
G1 X87.961 Y79.273 E0.02946
G1 X88.853 Y79.13 E0.02945
G1 X89.871 Y79.064 E0.03325
G1 X90.687 Y79.052 E0.0266
G1 X142.963 Y79.052 E1.70393
G1 X143.956 Y79.039 E0.03237
G1 X144.969 Y79.039 E0.03302
G1 X145.871 Y79.079 E0.02943
G1 X146.766 Y79.199 E0.02943
G1 X147.647 Y79.397 E0.02943
G1 X148.507 Y79.672 E0.02943
G1 X149.638 Y80.17 E0.04028
G1 X149.84 Y80.274 E0.00741
G1 X150.332 Y80.545 E0.01831
G1 X150.511 Y80.65 E0.00676
G1 X151.269 Y81.141 E0.02944
G1 X151.98 Y81.697 E0.02942
G1 X152.64 Y82.314 E0.02945
G1 X153.242 Y82.987 E0.02943
G1 X153.783 Y83.71 E0.02943
G1 X154.184 Y84.349 E0.02459
G1 X154.371 Y84.673 E0.01219
G1 X154.788 Y85.475 E0.02946
G1 X155.131 Y86.31 E0.02942
G1 X155.4 Y87.172 E0.02943
G1 X155.589 Y88.039 E0.02892
G1 X155.609 Y88.155 E0.00384
G1 X155.723 Y89.051 E0.02944
G1 X155.757 Y89.964 E0.02978
G1 X155.746 Y91.445 E0.04827
G1 X155.744 Y144.5 E1.72932
G1 X155.735 Y145.198 E0.02275
G1 X155.684 Y146.099 E0.02942
G1 X155.615 Y146.632 E0.01752
G1 X155.583 Y146.838 E0.0068
G1 X155.405 Y147.723 E0.02942
G1 X155.15 Y148.589 E0.02943
G1 X154.818 Y149.429 E0.02944
G1 X154.414 Y150.237 E0.02945
G1 X154.042 Y150.853 E0.02346
G1 X153.908 Y151.058 E0.00798
G1 X153.381 Y151.791 E0.02943
G1 X152.791 Y152.475 E0.02944
G1 X152.424 Y152.845 E0.01699
G1 X152.236 Y153.025 E0.00848
G1 X151.557 Y153.62 E0.02943
G1 X150.827 Y154.152 E0.02944
G1 X150.054 Y154.618 E0.02942
G1 X149.242 Y155.014 E0.02945
G1 X148.346 Y155.354 E0.03124
G1 X148.061 Y155.447 E0.00977
G1 X147.191 Y155.689 E0.02943
G1 X146.303 Y155.853 E0.02943
G1 X145.404 Y155.937 E0.02943
G1 X144.897 Y155.94 E0.01653
G1 X144.897 Y155.948 E0.00026
G1 X90.556 Y155.947 E1.77124
G1 X89.923 Y155.938 E0.02063
G1 X89.021 Y155.885 E0.02945
G1 X88.148 Y155.757 E0.02876
G1 X87.981 Y155.725 E0.00554
G1 X87.103 Y155.516 E0.02942
G1 X86.246 Y155.23 E0.02945
G1 X85.418 Y154.869 E0.02944
G1 X84.625 Y154.437 E0.02943
G1 X84.183 Y154.154 E0.01711
G1 X83.988 Y154.022 E0.00768
G1 X83.263 Y153.483 E0.02945
G1 X82.589 Y152.882 E0.02943
G1 X81.79 Y152.007 E0.03862
G1 X81.621 Y151.799 E0.00874
G1 X81.083 Y151.074 E0.02943
G1 X80.611 Y150.303 E0.02947
G1 X80.232 Y149.546 E0.02759
G1 X80.135 Y149.33 E0.00772
G1 X79.802 Y148.49 E0.02945
G1 X79.544 Y147.625 E0.02942
G1 X79.364 Y146.74 E0.02944
G1 X79.263 Y145.842 E0.02945
G1 X79.24 Y145.179 E0.02162
G1 X79.238 Y144.458 E0.0235
G1 X79.239 Y144.29 E0.00548
G1 X79.253 Y143.267 E0.03335
G1 X79.254 Y91.417 E1.69005
G1 X79.242 Y89.944 E0.04801
G1 X79.275 Y89.042 E0.02942
G1 X79.387 Y88.145 E0.02946
G1 X79.578 Y87.263 E0.02942
G1 X79.847 Y86.401 E0.02943
G1 X80.095 Y85.778 E0.02186
G1 X80.216 Y85.501 E0.00985
G1 X80.601 Y84.713 E0.02859
G1 X80.651 Y84.621 E0.00341
G1 X81.117 Y83.848 E0.02942
G1 X81.445 Y83.399 E0.01812
G0 F1620 X81.65 Y83.118
G0 X82.245 Y82.439
G10
G1 F300 Z0.6
;MESH:liaison support 3.stl
G0 F9000 X90.453 Y144.748 Z0.6
;TYPE:WALL-INNER
G1 F300 Z0.2
G11
G1 F1800 X90.453 Y144.549 E0.00649
G1 X90.454 Y90.45 E1.76335
G1 X90.454 Y90.251 E0.00649
G1 X90.653 Y90.251 E0.0042
G1 X144.546 Y90.252 E1.75664
G1 X144.545 Y144.748 E1.77629
G1 X90.652 Y144.748 E1.75664
G1 X90.453 Y144.748 E0.0042
G0 F9000 X90.073 Y145.109
G1 F1800 X90.053 Y145.066 E0.00155
G1 X90.053 Y144.922 E0.00469
G1 X90.054 Y90.076 E1.7877
G1 X90.054 Y89.934 E0.00463
G1 X90.073 Y89.893 E0.00147
G1 X90.133 Y89.851 E0.00239
G1 X90.275 Y89.851 E0.00463
G1 X144.867 Y89.852 E1.77942
G1 X144.916 Y89.88 E0.00184
G1 X144.946 Y89.932 E0.00196
G1 X144.945 Y145.061 E1.79693
G1 X144.857 Y145.148 E0.00403
G1 X91.311 Y145.148 E1.74533
G0 F1620 X90.273 Y145.148
G0 X90.129 Y145.148
G0 X90.073 Y145.109
G0 F9000 X89.755 Y145.375
;TYPE:WALL-OUTER
G1 F1800 X89.735 Y145.329 E0.00158
G1 X89.65 Y145.149 E0.00629
G1 X89.653 Y145.142 E0.00024
G1 X89.654 Y89.86 E1.74675
G1 X89.651 Y89.853 E0.00024
G1 X89.755 Y89.626 E0.00789
G1 X89.805 Y89.593 E0.00189
G1 X89.995 Y89.458 E0.00736
G1 X90.016 Y89.454 E0.00068
G1 X90.104 Y89.451 E0.00278
G1 X144.93 Y89.452 E1.73234
G1 X144.957 Y89.443 E0.0009
G1 X145.209 Y89.586 E0.00916
G1 X145.355 Y89.841 E0.00928
G1 X145.346 Y89.87 E0.00096
G1 X145.345 Y145.085 E1.74464
G1 X145.335 Y145.172 E0.00277
G1 X145.307 Y145.267 E0.00313
G1 X145.055 Y145.514 E0.01115
G1 X144.992 Y145.553 E0.00234
G1 X144.902 Y145.548 E0.00285
G1 X90.953 Y145.548 E1.70463
G0 F1620 X90.017 Y145.548
G0 X89.996 Y145.543
G0 X89.755 Y145.375
G0 F9000 X89.735 Y145.329
G0 X89.65 Y145.149
G0 X89.653 Y145.142
G0 X89.653 Y144.998
G0 X90.093 Y144.999
G10
G0 X118.145 Y117.949
;TYPE:SKIN
G11
G1 F1800 X118.145 Y117.953 E0.00013
G1 X118.545 Y117.954 E0.01304
G1 X118.546 Y116.252 E0.05548
G1 X116.454 Y116.251 E0.06819
G1 X116.453 Y118.748 E0.08139
G1 X118.545 Y118.748 E0.06819
G1 X118.945 Y118.753 E0.01304
G1 X119.345 Y118.754 E0.01304
G1 X119.346 Y115.452 E0.10763
G1 X115.654 Y115.451 E0.12034
G1 X115.653 Y119.548 E0.13354
G1 X119.345 Y119.548 E0.12034
G1 X119.745 Y119.549 E0.01304
G1 X119.745 Y119.553 E0.00013
G1 X120.145 Y119.558 E0.01304
G1 X120.146 Y114.652 E0.15991
G1 X114.854 Y114.651 E0.17249
G1 X114.853 Y120.348 E0.18569
G1 X120.145 Y120.348 E0.17249
G1 X120.545 Y120.349 E0.01304
G1 X120.545 Y120.353 E0.00013
G1 X120.945 Y120.354 E0.01304
G1 X120.946 Y113.852 E0.21193
G1 X114.054 Y113.851 E0.22464
G1 X114.053 Y121.148 E0.23785
G1 X120.945 Y121.148 E0.22464
G1 X121.345 Y121.153 E0.01304
G1 X121.745 Y121.154 E0.01304
G1 X121.746 Y113.052 E0.26408
G1 X113.254 Y113.051 E0.2768
G1 X113.253 Y121.948 E0.29
G1 X121.745 Y121.948 E0.2768
G1 X122.145 Y121.949 E0.01304
G1 X122.145 Y121.953 E0.00013
G1 X122.545 Y121.954 E0.01304
G1 X122.546 Y112.252 E0.31624
G1 X112.454 Y112.251 E0.32895
G1 X112.453 Y122.748 E0.34215
G1 X122.545 Y122.748 E0.32895
G1 X122.945 Y122.753 E0.01304
G1 X123.345 Y122.754 E0.01304
G1 X123.346 Y111.452 E0.36839
G1 X111.654 Y111.451 E0.3811
G1 X111.653 Y123.548 E0.3943
G1 X123.345 Y123.548 E0.3811
G1 X123.745 Y123.549 E0.01304
G1 X123.745 Y123.553 E0.00013
G1 X124.145 Y123.558 E0.01304
G1 X124.146 Y110.652 E0.42067
G1 X110.854 Y110.651 E0.43325
G1 X110.853 Y124.348 E0.44645
G1 X124.145 Y124.348 E0.43325
G1 X124.545 Y124.349 E0.01304
G1 X124.545 Y124.353 E0.00013
G1 X124.945 Y124.354 E0.01304
G1 X124.946 Y109.852 E0.47269
G1 X110.054 Y109.851 E0.4854
G1 X110.053 Y125.148 E0.4986
G1 X124.945 Y125.148 E0.4854
G1 X125.345 Y125.153 E0.01304
G1 X125.745 Y125.154 E0.01304
G1 X125.746 Y109.052 E0.52484
G1 X109.254 Y109.051 E0.53756
G1 X109.253 Y125.948 E0.55076
G1 X125.745 Y125.948 E0.53756
G1 X126.145 Y125.949 E0.01304
G1 X126.145 Y125.953 E0.00013
G1 X126.545 Y125.958 E0.01304
G1 X126.546 Y108.252 E0.57713
G1 X108.454 Y108.251 E0.58971
G1 X108.453 Y126.748 E0.60291
G1 X126.545 Y126.748 E0.58971
G1 X126.945 Y126.749 E0.01304
G1 X126.945 Y126.753 E0.00013
G1 X127.345 Y126.754 E0.01304
G1 X127.346 Y107.452 E0.62915
G1 X107.654 Y107.451 E0.64186
G1 X107.653 Y127.548 E0.65506
G1 X127.345 Y127.548 E0.64186
G1 X127.745 Y127.553 E0.01304
G1 X128.145 Y127.554 E0.01304
G1 X128.146 Y106.652 E0.6813
G1 X106.854 Y106.651 E0.69401
G1 X106.853 Y128.348 E0.70721
G1 X128.145 Y128.348 E0.69401
G1 X128.545 Y128.349 E0.01304
G1 X128.545 Y128.353 E0.00013
G1 X128.945 Y128.358 E0.01304
G1 X128.946 Y105.852 E0.73358
G1 X106.054 Y105.851 E0.74616
G1 X106.053 Y129.148 E0.75936
G1 X128.945 Y129.148 E0.74616
G1 X129.345 Y129.149 E0.01304
G1 X129.345 Y129.153 E0.00013
G1 X129.745 Y129.154 E0.01304
G1 X129.746 Y105.052 E0.7856
G1 X105.254 Y105.051 E0.79832
G1 X105.253 Y129.948 E0.81152
G1 X129.745 Y129.948 E0.79832
G1 X130.145 Y129.953 E0.01304
G1 X130.545 Y129.954 E0.01304
G1 X130.546 Y104.252 E0.83775
G1 X104.454 Y104.251 E0.85047
G1 X104.453 Y130.748 E0.86367
G1 X130.545 Y130.748 E0.85047
G1 X130.945 Y130.749 E0.01304
G1 X130.945 Y130.753 E0.00013
G1 X131.345 Y130.758 E0.01304
G1 X131.346 Y103.452 E0.89004
G1 X103.654 Y103.451 E0.90262
G1 X103.653 Y131.548 E0.91582
G1 X131.345 Y131.548 E0.90262
G1 X131.745 Y131.549 E0.01304
G1 X131.745 Y131.553 E0.00013
G1 X132.145 Y131.554 E0.01304
G1 X132.146 Y102.652 E0.94206
G1 X102.854 Y102.651 E0.95477
G1 X102.853 Y132.348 E0.96797
G1 X132.145 Y132.348 E0.95477
G1 X132.545 Y132.353 E0.01304
G1 X132.945 Y132.354 E0.01304
G1 X132.946 Y101.852 E0.99421
G1 X102.054 Y101.851 E1.00692
G1 X102.053 Y133.148 E1.02012
G1 X132.945 Y133.148 E1.00692
G1 X133.345 Y133.149 E0.01304
G1 X133.345 Y133.153 E0.00013
G1 X133.745 Y133.158 E0.01304
G1 X133.746 Y101.052 E1.04649
G1 X101.254 Y101.051 E1.05907
G1 X101.253 Y133.948 E1.07228
G1 X133.745 Y133.948 E1.05907
G1 X134.145 Y133.949 E0.01304
G1 X134.145 Y133.953 E0.00013
G1 X134.545 Y133.954 E0.01304
G1 X134.546 Y100.252 E1.09851
G1 X100.454 Y100.251 E1.11123
G1 X100.453 Y134.748 E1.12443
G1 X134.545 Y134.748 E1.11123
G1 X134.945 Y134.753 E0.01304
G1 X135.345 Y134.754 E0.01304
G1 X135.346 Y99.452 E1.15067
G1 X99.654 Y99.451 E1.16338
G1 X99.653 Y135.548 E1.17658
G1 X135.345 Y135.548 E1.16338
G1 X135.745 Y135.549 E0.01304
G1 X135.745 Y135.553 E0.00013
G1 X136.145 Y135.558 E0.01304
G1 X136.146 Y98.652 E1.20295
G1 X98.854 Y98.651 E1.21553
G1 X98.853 Y136.348 E1.22873
G1 X136.145 Y136.348 E1.21553
G1 X136.545 Y136.349 E0.01304
G1 X136.545 Y136.353 E0.00013
G1 X136.945 Y136.354 E0.01304
G1 X136.946 Y97.852 E1.25497
G1 X98.054 Y97.851 E1.26768
G1 X98.053 Y137.148 E1.28088
G1 X136.945 Y137.148 E1.26768
G1 X137.345 Y137.149 E0.01304
G1 X137.345 Y137.153 E0.00013
G1 X137.745 Y137.158 E0.01304
G1 X137.746 Y97.052 E1.30725
G1 X97.254 Y97.051 E1.31983
G1 X97.253 Y137.948 E1.33303
G1 X137.745 Y137.948 E1.31983
G1 X138.145 Y137.949 E0.01304
G1 X138.145 Y137.953 E0.00013
G1 X138.545 Y137.954 E0.01304
G1 X138.546 Y96.252 E1.35927
G1 X96.454 Y96.251 E1.37199
G1 X96.453 Y138.748 E1.38519
G1 X138.545 Y138.748 E1.37199
G1 X138.945 Y138.753 E0.01304
G1 X139.345 Y138.754 E0.01304
G1 X139.346 Y95.452 E1.41143
G1 X95.654 Y95.451 E1.42414
G1 X95.653 Y139.548 E1.43734
G1 X139.345 Y139.548 E1.42414
G1 X139.745 Y139.549 E0.01304
G1 X139.745 Y139.553 E0.00013
G1 X140.145 Y139.558 E0.01304
G1 X140.146 Y94.652 E1.46371
G1 X94.854 Y94.651 E1.47629
G1 X94.853 Y140.348 E1.48949
G1 X140.145 Y140.348 E1.47629
G1 X140.545 Y140.349 E0.01304
G1 X140.545 Y140.353 E0.00013
G1 X140.945 Y140.354 E0.01304
G1 X140.946 Y93.852 E1.51573
G1 X94.054 Y93.851 E1.52844
G1 X94.053 Y141.148 E1.54164
G1 X140.945 Y141.148 E1.52844
G1 X141.345 Y141.153 E0.01304
G1 X141.745 Y141.154 E0.01304
G1 X141.746 Y93.052 E1.56788
G1 X93.254 Y93.051 E1.58059
G1 X93.253 Y141.948 E1.59379
G1 X141.745 Y141.948 E1.58059
G1 X142.145 Y141.949 E0.01304
G1 X142.145 Y141.953 E0.00013
G1 X142.545 Y141.958 E0.01304
G1 X142.546 Y92.252 E1.62016
G1 X92.454 Y92.251 E1.63275
G1 X92.453 Y142.748 E1.64595
G1 X142.545 Y142.748 E1.63275
G1 X142.945 Y142.749 E0.01304
G1 X142.945 Y142.753 E0.00013
G1 X143.345 Y142.754 E0.01304
G1 X143.346 Y91.452 E1.67219
G1 X91.654 Y91.451 E1.6849
G1 X91.653 Y143.548 E1.6981
G1 X143.345 Y143.548 E1.6849
G1 X143.745 Y143.553 E0.01304
G1 X144.146 Y143.553 E0.01307
G1 X144.146 Y90.652 E1.7243
G1 X90.854 Y90.651 E1.73705
G1 X90.853 Y144.348 E1.75025
G1 X144.145 Y144.348 E1.73705
G1 X144.146 Y143.948 E0.01304
G1 X143.745 Y143.948 E0.01307
G1 X91.253 Y143.948 E1.71097
G1 X91.254 Y91.051 E1.72417
G1 X143.746 Y91.052 E1.71097
G1 X143.745 Y143.158 E1.69839
G1 X143.345 Y143.153 E0.01304
G1 X143.345 Y143.149 E0.00013
G1 X142.945 Y143.148 E0.01304
G1 X92.053 Y143.148 E1.65882
G1 X92.054 Y91.851 E1.67202
G1 X142.946 Y91.852 E1.65882
G1 X142.945 Y142.354 E1.64611
G1 X142.545 Y142.353 E0.01304
G1 X142.145 Y142.348 E0.01304
G1 X92.853 Y142.348 E1.60667
G1 X92.854 Y92.651 E1.61987
G1 X142.146 Y92.652 E1.60667
G1 X142.145 Y141.554 E1.59396
G1 X141.745 Y141.553 E0.01304
G1 X141.745 Y141.549 E0.00013
G1 X141.345 Y141.548 E0.01304
G1 X93.653 Y141.548 E1.55452
G1 X93.654 Y93.451 E1.56772
G1 X141.346 Y93.452 E1.55452
G1 X141.345 Y140.758 E1.54194
G1 X140.945 Y140.753 E0.01304
G1 X140.945 Y140.749 E0.00013
