;FLAVOR:RepRap
;TIME:525
;Filament used: 0.156314m
;Layer height: 0.2
;MINX:92.411
;MINY:93.63
;MINZ:0.2
;MAXX:142.589
;MAXY:140.74
;MAXZ:12.8
;Generated with Cura_SteamEngine 4.8.0-beta
T0
M190 S60
M104 S210
M109 S210
M82 ;absolute extrusion mode
; Ender 3 Custom Start G-code
;G92 E0 ; Reset Extruder
;G28 ; Home all axes
;G1 Z2.0 F3000 ; Move Z Axis up little to prevent scratching of Heat Bed
;G1 X-115 Y-115 Z0.2 F5000.0 ; Move to start position
;G1 X-115 Y100 Z0.2 F1500.0 E15 ; Draw the first line;G1 X-112 Y100 Z0.2 F5000.0 ; Move to side a little
;G1 X-112 Y-115 Z0.3 F1500.0 E30 ; Draw the second line
;G92 E0 ; Reset Extruder
;G1 Z5.0 F3000 ; Move Z Axis up little to prevent scratching of Heat Bed
;G1 X0 Y0  F5000.0 ; Move over to prevent blob squish
M83 ;relative extrusion mode
G10
;LAYER_COUNT:64
;LAYER:0
M107
M566 X600 Y600
G1 F300 Z0.6
G0 F6000 X99.055 Y99.322 Z0.6
;TYPE:SKIRT
G1 F300 Z0.2
G11
G1 F1200 X100.027 Y98.465 E0.04138
G1 X101.051 Y97.669 E0.04141
G1 X102.121 Y96.938 E0.04138
G1 X103.234 Y96.275 E0.04137
G1 X104.386 Y95.682 E0.04137
G1 X105.573 Y95.161 E0.04139
G1 X106.79 Y94.714 E0.0414
G1 X108.031 Y94.342 E0.04137
G1 X109.293 Y94.049 E0.04137
G1 X110.571 Y93.833 E0.04138
G1 X111.86 Y93.697 E0.04139
G1 X112.831 Y93.647 E0.03104
G1 X113.151 Y93.638 E0.01022
G1 X113.741 Y93.63 E0.01884
G1 X120.859 Y93.63 E0.22728
G1 X121.158 Y93.632 E0.00955
G1 X121.86 Y93.642 E0.02242
G1 X123.155 Y93.701 E0.04139
G1 X124.443 Y93.839 E0.04136
G1 X125.721 Y94.056 E0.04139
G1 X126.983 Y94.352 E0.04139
G1 X128.224 Y94.725 E0.04138
G1 X129.44 Y95.174 E0.04139
G1 X130.625 Y95.697 E0.04136
G1 X131.777 Y96.292 E0.0414
G1 X132.889 Y96.957 E0.04137
G1 X133.958 Y97.69 E0.04139
G1 X134.98 Y98.487 E0.04138
G1 X135.951 Y99.345 E0.04137
G1 X136.867 Y100.262 E0.04138
G1 X137.725 Y101.234 E0.0414
G1 X138.521 Y102.256 E0.04136
G1 X139.253 Y103.326 E0.04139
G1 X139.917 Y104.439 E0.04138
G1 X140.511 Y105.59 E0.04136
G1 X141.033 Y106.777 E0.0414
G1 X141.481 Y107.993 E0.04138
G1 X141.853 Y109.234 E0.04137
G1 X142.217 Y110.853 E0.05298
G1 X142.239 Y110.973 E0.0039
G1 X142.433 Y112.254 E0.04137
G1 X142.548 Y113.545 E0.04138
G1 X142.581 Y114.486 E0.03006
G1 X142.589 Y115.219 E0.02341
G1 X142.589 Y118.974 E0.1199
G1 X142.578 Y119.961 E0.03152
G1 X142.522 Y121.256 E0.04139
G1 X142.387 Y122.545 E0.04138
G1 X142.172 Y123.823 E0.04138
G1 X141.878 Y125.085 E0.04137
G1 X141.507 Y126.327 E0.04139
G1 X141.061 Y127.543 E0.04136
G1 X140.54 Y128.73 E0.04139
G1 X139.947 Y129.882 E0.04137
G1 X139.284 Y130.996 E0.04139
G1 X138.553 Y132.067 E0.0414
G1 X137.758 Y133.09 E0.04137
G1 X136.902 Y134.062 E0.04136
G1 X135.986 Y134.98 E0.04141
G1 X135.017 Y135.84 E0.04137
G1 X133.995 Y136.638 E0.0414
G1 X132.927 Y137.371 E0.04136
G1 X131.815 Y138.038 E0.0414
G1 X130.665 Y138.634 E0.04136
G1 X129.48 Y139.159 E0.04138
G1 X128.264 Y139.609 E0.0414
G1 X127.024 Y139.983 E0.04135
G1 X125.762 Y140.28 E0.0414
G1 X124.024 Y140.558 E0.0562
G1 X123.768 Y140.588 E0.00823
G1 X121.916 Y140.723 E0.05929
G1 X121.597 Y140.732 E0.01019
G1 X121.005 Y140.74 E0.0189
G1 X114.372 Y140.74 E0.21179
G1 X114.071 Y140.738 E0.00961
G1 X113.374 Y140.728 E0.02226
G1 X112.079 Y140.669 E0.04139
G1 X111.356 Y140.602 E0.02318
G1 X111.113 Y140.575 E0.00781
G1 X109.83 Y140.392 E0.04138
G1 X108.561 Y140.13 E0.04137
G1 X107.31 Y139.791 E0.04138
G1 X106.082 Y139.375 E0.0414
G1 X104.883 Y138.884 E0.04137
G1 X103.716 Y138.32 E0.04139
G1 X102.586 Y137.685 E0.04139
G1 X101.498 Y136.982 E0.04136
G1 X100.454 Y136.213 E0.0414
G1 X99.461 Y135.381 E0.04136
G1 X98.52 Y134.489 E0.0414
G1 X97.476 Y133.356 E0.04919
G1 X96.663 Y132.346 E0.0414
G1 X95.914 Y131.288 E0.04139
G1 X95.232 Y130.186 E0.04138
G1 X94.619 Y129.044 E0.04138
G1 X94.078 Y127.867 E0.04136
G1 X93.61 Y126.658 E0.04139
G1 X93.218 Y125.423 E0.04137
G1 X92.903 Y124.166 E0.04138
G1 X92.666 Y122.892 E0.04138
G1 X92.508 Y121.605 E0.0414
G1 X92.428 Y120.278 E0.04245
G1 X92.419 Y119.957 E0.01025
G1 X92.411 Y119.368 E0.01881
G1 X92.411 Y115.304 E0.12976
G1 X92.413 Y114.988 E0.01009
G1 X92.423 Y114.323 E0.02124
G1 X92.483 Y113.029 E0.04136
G1 X92.622 Y111.74 E0.0414
G1 X92.84 Y110.463 E0.04136
G1 X93.137 Y109.201 E0.0414
G1 X93.511 Y107.96 E0.04139
G1 X93.961 Y106.745 E0.04137
G1 X94.485 Y105.56 E0.04137
G1 X95.081 Y104.409 E0.04139
G1 X95.747 Y103.297 E0.04139
G1 X96.481 Y102.228 E0.0414
G1 X97.278 Y101.207 E0.04136
G1 X98.138 Y100.237 E0.04139
G1 X99.055 Y99.322 E0.04136
G0 F6000 X99.446 Y99.505
G1 F1200 X100.415 Y98.664 E0.04097
G1 X101.436 Y97.885 E0.04101
G1 X102.502 Y97.171 E0.04097
G1 X103.611 Y96.525 E0.04098
G1 X104.759 Y95.949 E0.04101
G1 X105.94 Y95.446 E0.04099
G1 X107.149 Y95.017 E0.04096
G1 X108.384 Y94.664 E0.04101
G1 X109.637 Y94.389 E0.04096
G1 X110.906 Y94.193 E0.041
G1 X112.184 Y94.076 E0.04098
G1 X112.842 Y94.047 E0.02103
G1 X113.162 Y94.038 E0.01022
G1 X113.741 Y94.03 E0.01849
G1 X120.859 Y94.03 E0.22728
G1 X121.152 Y94.032 E0.00936
G1 X121.854 Y94.042 E0.02242
G1 X123.137 Y94.1 E0.04101
G1 X124.413 Y94.238 E0.04098
G1 X125.678 Y94.456 E0.04099
G1 X126.927 Y94.751 E0.04098
G1 X128.155 Y95.124 E0.04098
G1 X129.358 Y95.573 E0.041
G1 X130.53 Y96.095 E0.04097
G1 X131.668 Y96.69 E0.041
G1 X132.766 Y97.354 E0.04097
G1 X133.821 Y98.085 E0.04098
G1 X134.828 Y98.881 E0.04099
G1 X135.784 Y99.738 E0.04099
G1 X136.684 Y100.653 E0.04098
G1 X137.526 Y101.622 E0.04099
G1 X138.306 Y102.641 E0.04097
G1 X139.021 Y103.708 E0.04101
G1 X139.668 Y104.816 E0.04097
G1 X140.244 Y105.963 E0.04098
G1 X140.748 Y107.143 E0.04097
G1 X141.178 Y108.353 E0.041
G1 X141.532 Y109.587 E0.04099
G1 X141.823 Y110.925 E0.04372
G1 X141.845 Y111.045 E0.0039
G1 X142.037 Y112.314 E0.04098
G1 X142.15 Y113.593 E0.041
G1 X142.181 Y114.491 E0.02869
G1 X142.189 Y115.219 E0.02325
G1 X142.189 Y118.974 E0.1199
G1 X142.178 Y119.956 E0.03136
G1 X142.123 Y121.238 E0.04097
G1 X141.987 Y122.515 E0.041
G1 X141.772 Y123.78 E0.04097
G1 X141.479 Y125.03 E0.04099
G1 X141.108 Y126.259 E0.04099
G1 X140.662 Y127.462 E0.04097
G1 X140.142 Y128.636 E0.041
G1 X139.549 Y129.774 E0.04097
G1 X138.887 Y130.874 E0.04099
G1 X138.157 Y131.93 E0.04099
G1 X137.364 Y132.939 E0.04098
G1 X136.508 Y133.896 E0.041
G1 X135.595 Y134.798 E0.04098
G1 X134.628 Y135.642 E0.04098
G1 X133.61 Y136.424 E0.04099
G1 X132.545 Y137.14 E0.04098
G1 X131.438 Y137.789 E0.04097
G1 X130.292 Y138.368 E0.041
G1 X129.112 Y138.874 E0.041
G1 X127.904 Y139.306 E0.04096
G1 X126.67 Y139.662 E0.04101
G1 X125.417 Y139.94 E0.04098
G1 X123.978 Y140.161 E0.04649
G1 X123.722 Y140.191 E0.00823
G1 X121.905 Y140.323 E0.05817
G1 X121.586 Y140.332 E0.01019
G1 X121.005 Y140.34 E0.01855
G1 X114.372 Y140.34 E0.21179
G1 X114.076 Y140.338 E0.00945
G1 X113.379 Y140.328 E0.02226
G1 X112.097 Y140.269 E0.04098
G1 X111.4 Y140.204 E0.02235
G1 X111.157 Y140.177 E0.00781
G1 X109.886 Y139.996 E0.04099
G1 X108.629 Y139.735 E0.04099
G1 X107.391 Y139.397 E0.04098
G1 X106.176 Y138.983 E0.04098
G1 X104.99 Y138.494 E0.04096
G1 X103.836 Y137.931 E0.041
G1 X102.719 Y137.298 E0.04099
G1 X101.644 Y136.597 E0.04098
G1 X100.615 Y135.83 E0.04098
G1 X99.635 Y135 E0.04101
G1 X98.709 Y134.112 E0.04096
G1 X97.779 Y133.095 E0.044
G1 X96.975 Y132.095 E0.04097
G1 X96.234 Y131.047 E0.04098
G1 X95.56 Y129.954 E0.041
G1 X94.955 Y128.822 E0.04098
G1 X94.422 Y127.655 E0.04096
G1 X93.963 Y126.456 E0.04099
G1 X93.579 Y125.231 E0.04099
G1 X93.273 Y123.985 E0.04097
G1 X93.044 Y122.721 E0.04102
G1 X92.895 Y121.447 E0.04096
G1 X92.828 Y120.266 E0.03777
G1 X92.819 Y119.945 E0.01025
G1 X92.811 Y119.368 E0.01843
G1 X92.811 Y115.304 E0.12976
G1 X92.813 Y114.994 E0.0099
G1 X92.823 Y114.329 E0.02124
G1 X92.883 Y113.047 E0.04098
G1 X93.022 Y111.771 E0.04098
G1 X93.24 Y110.506 E0.04099
G1 X93.536 Y109.257 E0.04098
G1 X93.91 Y108.029 E0.04099
G1 X94.36 Y106.827 E0.04098
G1 X94.883 Y105.655 E0.04098
G1 X95.479 Y104.518 E0.04099
G1 X96.144 Y103.42 E0.04099
G1 X96.876 Y102.366 E0.04097
G1 X97.673 Y101.359 E0.04101
G1 X98.53 Y100.404 E0.04097
G1 X99.446 Y99.505 E0.04098
G0 F6000 X99.836 Y99.689
G1 F1200 X100.803 Y98.865 E0.04057
G1 X101.82 Y98.102 E0.0406
G1 X102.883 Y97.405 E0.04059
G1 X103.988 Y96.777 E0.04058
G1 X105.13 Y96.219 E0.04058
G1 X106.305 Y95.734 E0.04059
G1 X107.508 Y95.324 E0.04058
G1 X108.734 Y94.99 E0.04057
G1 X109.98 Y94.734 E0.04062
G1 X111.238 Y94.557 E0.04056
G1 X112.853 Y94.447 E0.05169
G1 X113.173 Y94.438 E0.01022
G1 X113.741 Y94.43 E0.01814
G1 X120.859 Y94.43 E0.22728
G1 X121.147 Y94.432 E0.0092
G1 X121.849 Y94.442 E0.02242
G1 X123.118 Y94.5 E0.04056
G1 X124.382 Y94.638 E0.0406
G1 X125.634 Y94.855 E0.04057
G1 X126.871 Y95.15 E0.0406
G1 X128.086 Y95.523 E0.04058
G1 X129.275 Y95.971 E0.04057
G1 X130.434 Y96.493 E0.04059
G1 X131.558 Y97.087 E0.04059
G1 X132.642 Y97.751 E0.04059
G1 X133.682 Y98.481 E0.04057
G1 X134.675 Y99.275 E0.0406
G1 X135.615 Y100.131 E0.04059
G1 X136.5 Y101.043 E0.04058
G1 X137.325 Y102.01 E0.04059
G1 X138.088 Y103.026 E0.04057
G1 X138.786 Y104.089 E0.0406
G1 X139.416 Y105.193 E0.04059
G1 X139.975 Y106.334 E0.04057
G1 X140.46 Y107.509 E0.04059
G1 X140.871 Y108.712 E0.04059
G1 X141.206 Y109.938 E0.04058
G1 X141.43 Y110.997 E0.03456
G1 X141.452 Y111.117 E0.0039
G1 X141.642 Y112.374 E0.04059
G1 X141.752 Y113.64 E0.04058
G1 X141.781 Y114.496 E0.02735
G1 X141.789 Y115.219 E0.02309
G1 X141.789 Y118.974 E0.1199
G1 X141.778 Y119.951 E0.0312
G1 X141.723 Y121.221 E0.04059
G1 X141.587 Y122.485 E0.04059
G1 X141.373 Y123.738 E0.04059
G1 X141.08 Y124.974 E0.04056
G1 X140.709 Y126.19 E0.04059
G1 X140.263 Y127.381 E0.04061
G1 X139.743 Y128.54 E0.04056
G1 X139.151 Y129.665 E0.04059
G1 X138.49 Y130.751 E0.04059
G1 X137.762 Y131.792 E0.04056
G1 X136.969 Y132.786 E0.0406
G1 X136.116 Y133.728 E0.04058
G1 X135.205 Y134.614 E0.04058
G1 X134.24 Y135.442 E0.0406
G1 X133.225 Y136.207 E0.04058
G1 X132.164 Y136.906 E0.04057
G1 X131.061 Y137.538 E0.04059
G1 X129.92 Y138.099 E0.0406
G1 X128.746 Y138.587 E0.04059
G1 X127.544 Y139 E0.04058
G1 X126.319 Y139.337 E0.04057
G1 X125.074 Y139.596 E0.0406
G1 X123.931 Y139.764 E0.03689
G1 X123.675 Y139.794 E0.00823
G1 X121.894 Y139.923 E0.05702
G1 X121.575 Y139.932 E0.01019
G1 X121.005 Y139.94 E0.0182
G1 X114.372 Y139.94 E0.21179
G1 X114.082 Y139.938 E0.00926
G1 X113.385 Y139.928 E0.02226
G1 X112.115 Y139.87 E0.04059
G1 X111.444 Y139.806 E0.02152
G1 X111.201 Y139.779 E0.00781
G1 X109.943 Y139.599 E0.04058
G1 X108.699 Y139.341 E0.04057
G1 X107.473 Y139.004 E0.0406
G1 X106.271 Y138.591 E0.04058
G1 X105.097 Y138.103 E0.04059
G1 X103.956 Y137.543 E0.04058
G1 X102.853 Y136.911 E0.04059
G1 X101.792 Y136.212 E0.04057
G1 X100.777 Y135.447 E0.04058
G1 X99.811 Y134.62 E0.0406
G1 X98.9 Y133.734 E0.04058
G1 X98.083 Y132.835 E0.03879
G1 X97.287 Y131.844 E0.04059
G1 X96.554 Y130.806 E0.04057
G1 X95.888 Y129.723 E0.0406
G1 X95.292 Y128.6 E0.04059
G1 X94.767 Y127.443 E0.04057
G1 X94.317 Y126.254 E0.04059
G1 X93.942 Y125.04 E0.04057
G1 X93.644 Y123.804 E0.0406
G1 X93.424 Y122.552 E0.04059
G1 X93.283 Y121.289 E0.04058
G1 X93.228 Y120.255 E0.03306
G1 X93.219 Y119.934 E0.01025
G1 X93.211 Y119.368 E0.01807
G1 X93.211 Y115.304 E0.12976
G1 X93.213 Y115 E0.00971
G1 X93.223 Y114.335 E0.02124
G1 X93.282 Y113.066 E0.04056
G1 X93.421 Y111.802 E0.0406
G1 X93.639 Y110.55 E0.04058
G1 X93.936 Y109.314 E0.04059
G1 X94.309 Y108.099 E0.04058
G1 X94.758 Y106.91 E0.04058
G1 X95.281 Y105.751 E0.0406
G1 X95.876 Y104.628 E0.04058
G1 X96.54 Y103.545 E0.04056
G1 X97.272 Y102.505 E0.04061
G1 X98.067 Y101.513 E0.04059
G1 X98.923 Y100.573 E0.04059
G1 X99.836 Y99.689 E0.04058
G10
G1 F300 Z0.6
;MESH:CuraTemp_302654.stl
G0 F6000 X120.589 Y116.474 Z0.6
;TYPE:WALL-INNER
G1 F300 Z0.2
G11
G1 F1200 X114.61 Y116.475 E0.19091
G1 X114.411 Y116.475 E0.00635
G1 X114.411 Y116.276 E0.00411
G1 X114.411 Y115.63 E0.02063
G1 X120.589 Y115.63 E0.19726
G1 X120.589 Y116.474 E0.02695
G0 F6000 X120.989 Y116.874
G1 F1200 X118.818 Y116.875 E0.06932
G1 X118.817 Y119.14 E0.07232
G1 X118.774 Y119.14 E0.00137
G1 X118.774 Y116.874 E0.0079
G1 X116.278 Y116.875 E0.0797
G1 X116.277 Y119.14 E0.07232
G1 X116.234 Y119.14 E0.00137
G1 X116.234 Y117.073 E0.066
G1 X116.234 Y116.874 E0.00635
G1 X116.035 Y116.874 E0.00411
G1 X114.21 Y116.875 E0.05827
G1 X114.011 Y116.875 E0.00635
G1 X114.011 Y116.676 E0.00411
G1 X114.011 Y115.23 E0.04617
G1 X120.989 Y115.23 E0.22281
G1 X120.989 Y116.874 E0.05249
G10
G0 F6000 X119.09 Y117.147
G0 X119.018 Y118.97
G0 X119.217 Y118.971
;TYPE:WALL-OUTER
G11
G1 F1200 X120.914 Y118.971 E0.05418
G1 X120.914 Y117.274 E0.05418
G1 X119.218 Y117.275 E0.05415
G1 X119.217 Y118.971 E0.05415
G10
G0 F6000 X119.018 Y118.97
G0 X118.502 Y119.099
G0 X116.549 Y119.099
G0 X116.034 Y118.971
G0 X115.834 Y118.971
G11
G1 F1200 X115.834 Y117.274 E0.05418
G1 X114.138 Y117.275 E0.05415
G1 X114.137 Y118.971 E0.05415
G1 X115.834 Y118.971 E0.05418
G0 F6000 X116.677 Y118.971
G1 F1200 X118.374 Y118.971 E0.05418
G1 X118.374 Y117.274 E0.05418
G1 X116.678 Y117.275 E0.05415
G1 X116.677 Y118.971 E0.05415
G10
G0 F6000 X116.478 Y118.97
G0 X116.534 Y119.074
G0 X121.135 Y119.31
G0 X121.135 Y119.54
G11
G1 F1200 X113.865 Y119.54 E0.23213
G1 X113.865 Y119.51 E0.00096
G1 X113.611 Y119.51 E0.00811
G1 X113.611 Y114.83 E0.14943
G1 X121.389 Y114.83 E0.24835
G1 X121.389 Y119.51 E0.14943
G1 X121.135 Y119.51 E0.00811
G1 X121.135 Y119.54 E0.00096
G0 F6000 X121.135 Y119.31
G0 X121.042 Y117.146
G0 X120.479 Y116.084
G0 X120.199 Y116.084
;TYPE:SKIN
G1 F1200 X114.801 Y116.085 E0.17236
G1 X114.801 Y116.02 E0.00208
G1 X120.199 Y116.02 E0.17236
G1 X120.199 Y116.084 E0.00204
G0 F6000 X120.479 Y116.084
G0 X121.084 Y117.104
G0 X121.15 Y117.19
;TYPE:SKIN
G1 F1200 X121.15 Y117.473 E0.00492
G1 X121.15 Y119.17 E0.0295
G1 X120.386 Y119.255 E0.01336
G1 X119.029 Y119.312 E0.02361
G1 X118.596 Y119.162 E0.00796
G1 X118.123 Y119.254 E0.00838
G1 X116.708 Y119.254 E0.02459
G1 X116.486 Y119.314 E0.004
G1 X116.054 Y119.165 E0.00794
G1 X115.577 Y119.254 E0.00843
G1 X114.163 Y119.254 E0.02458
G1 X113.873 Y118.964 E0.00713
G1 X113.874 Y117.268 E0.02948
G1 X113.942 Y117.054 E0.0039
G0 F6000 X113.968 Y117.105
G0 X113.811 Y119.139
G0 X113.765 Y119.139
G1 F1200 X113.98 Y119.354 E0.00485
G10
;MESH:NONMESH
G0 F300 X113.98 Y119.354 Z0.4
G0 F6000 X114.035 Y119.34
G0 X115.962 Y119.099
G0 X116.55 Y117.147
G0 X120.589 Y116.574
;TIME_ELAPSED:37.860554
;LAYER:1
M106 S85
;TYPE:WALL-INNER
;MESH:CuraTemp_302654.stl
G11
G1 F1600 X114.61 Y116.575 E0.19091
G1 X114.411 Y116.575 E0.00635
G1 X114.411 Y116.376 E0.00411
G1 X114.411 Y115.63 E0.02382
G1 X120.589 Y115.63 E0.19726
G1 X120.589 Y116.574 E0.03014
G0 F7500 X120.989 Y116.974
G1 F1600 X118.918 Y116.975 E0.06613
G1 X118.917 Y119.201 E0.07108
G1 X118.674 Y119.201 E0.00776
G1 X118.674 Y116.974 E0.0434
G1 X116.378 Y116.975 E0.07331
G1 X116.377 Y119.201 E0.07108
G1 X116.134 Y119.201 E0.00776
G1 X116.134 Y117.173 E0.06475
G1 X116.134 Y116.974 E0.00635
G1 X115.935 Y116.974 E0.00411
G1 X114.21 Y116.975 E0.05508
G1 X114.011 Y116.975 E0.00635
G1 X114.011 Y116.776 E0.00411
G1 X114.011 Y115.23 E0.04936
G1 X120.989 Y115.23 E0.22281
G1 X120.989 Y116.974 E0.05569
G10
G0 F7500 X119.19 Y117.247
G0 X119.118 Y118.87
G0 X119.317 Y118.871
;TYPE:WALL-OUTER
G11
G1 F900 X120.814 Y118.871 E0.0478
G1 X120.814 Y117.374 E0.0478
G1 X119.318 Y117.375 E0.04777
G1 X119.317 Y118.871 E0.04777
G10
G0 F7500 X119.118 Y118.87
G0 X118.402 Y118.999
G0 X116.825 Y118.999
G0 X115.934 Y118.871
G0 X115.734 Y118.871
G11
G1 F900 X115.734 Y117.374 E0.0478
G1 X114.238 Y117.375 E0.04777
G1 X114.237 Y118.871 E0.04777
G1 X115.734 Y118.871 E0.0478
G0 F7500 X115.934 Y118.871
G0 X116.578 Y118.87
G0 X116.777 Y118.871
G1 F900 X118.274 Y118.871 E0.0478
G1 X118.274 Y117.374 E0.0478
G1 X116.778 Y117.375 E0.04777
G1 X116.777 Y118.871 E0.04777
G10
G0 F7500 X116.578 Y118.87
G0 X116.634 Y118.974
G0 X120.965 Y119.431
G0 X121.135 Y119.601
G11
G1 F900 X113.865 Y119.601 E0.23213
G1 X113.865 Y119.51 E0.00291
G1 X113.611 Y119.51 E0.00811
G1 X113.611 Y114.83 E0.14943
G1 X121.389 Y114.83 E0.24835
G1 X121.389 Y119.51 E0.14943
G1 X121.135 Y119.51 E0.00811
G1 X121.135 Y119.601 E0.00291
G0 F7500 X120.965 Y119.431
G0 X120.942 Y117.246
G0 X120.479 Y116.184
G0 X120.199 Y116.184
;TYPE:SKIN
