;FLAVOR:RepRap
;TIME:6023
;Filament used: 5.96029m
;Layer height: 0.2
;MINX:84.4
;MINY:91.9
;MINZ:0.2
;MAXX:150.592
;MAXY:143.1
;MAXZ:30
;Generated with Cura_SteamEngine 4.8.0-beta
T0
M190 S60
M104 S200
M109 S200
M82 ;absolute extrusion mode
; Ender 3 Custom Start G-code
;G92 E0 ; Reset Extruder
;G28 ; Home all axes
;G1 Z2.0 F3000 ; Move Z Axis up little to prevent scratching of Heat Bed
;G1 X-115 Y-115 Z0.2 F5000.0 ; Move to start position
;G1 X-115 Y100 Z0.2 F1500.0 E15 ; Draw the first line;G1 X-112 Y100 Z0.2 F5000.0 ; Move to side a little
;G1 X-112 Y-115 Z0.3 F1500.0 E30 ; Draw the second line
;G92 E0 ; Reset Extruder
;G1 Z5.0 F3000 ; Move Z Axis up little to prevent scratching of Heat Bed
;G1 X0 Y0  F5000.0 ; Move over to prevent blob squish
M83 ;relative extrusion mode
G10
;LAYER_COUNT:150
;LAYER:0
M107
M204 T500
M566 X480 Y480
G1 F300 Z0.6
G0 F9000 X87.599 Y94.931 Z0.6
M204 P500
;TYPE:SKIRT
G1 F300 Z0.2
G11
G1 F1800 X88.284 Y94.316 E0.03001
G1 X89.02 Y93.763 E0.03001
G1 X89.802 Y93.277 E0.03001
G1 X90.623 Y92.86 E0.03001
G1 X91.476 Y92.515 E0.02999
G1 X92.357 Y92.246 E0.03002
G1 X93.257 Y92.055 E0.02999
G1 X94.171 Y91.942 E0.03002
G1 X94.712 Y91.913 E0.01766
G1 X95.032 Y91.904 E0.01043
G1 X95.33 Y91.9 E0.00971
G1 X96.25 Y91.9 E0.02999
G1 X96.817 Y91.907 E0.01848
G1 X99.586 Y91.906 E0.09026
G1 X100.08 Y91.9 E0.0161
G1 X120.151 Y91.901 E0.65421
G1 X120.495 Y91.906 E0.01121
G1 X123.265 Y91.906 E0.09029
G1 X123.758 Y91.9 E0.01607
G1 X124.599 Y91.901 E0.02741
G1 X125.333 Y91.909 E0.02393
G1 X125.585 Y91.914 E0.00822
G1 X126.219 Y91.936 E0.02068
G1 X126.698 Y91.964 E0.01564
G1 X127.359 Y92.017 E0.02161
G1 X127.825 Y92.065 E0.01527
G1 X128.49 Y92.148 E0.02184
G1 X128.938 Y92.213 E0.01476
G1 X129.585 Y92.322 E0.02139
G1 X130.036 Y92.408 E0.01497
G1 X130.664 Y92.542 E0.02093
G1 X131.124 Y92.651 E0.01541
G1 X131.742 Y92.812 E0.02082
G1 X132.166 Y92.932 E0.01436
G1 X132.644 Y93.078 E0.01629
G1 X133.176 Y93.256 E0.01829
G1 X134.307 Y93.668 E0.03923
G1 X134.647 Y93.799 E0.01188
G1 X134.917 Y93.908 E0.00949
G1 X135.359 Y94.098 E0.01568
G1 X135.936 Y94.362 E0.02068
G1 X136.351 Y94.563 E0.01503
G1 X136.928 Y94.858 E0.02112
G1 X137.334 Y95.077 E0.01504
G1 X137.905 Y95.401 E0.0214
G1 X138.293 Y95.632 E0.01472
G1 X138.856 Y95.984 E0.02164
G1 X139.255 Y96.246 E0.01556
G1 X139.645 Y96.515 E0.01544
G1 X140.078 Y96.83 E0.01745
G1 X141.048 Y97.574 E0.03985
G1 X141.443 Y97.892 E0.01653
G1 X141.81 Y98.212 E0.01587
G1 X142.732 Y99.055 E0.04072
G1 X143.109 Y99.418 E0.01706
G1 X143.436 Y99.759 E0.0154
G1 X144.283 Y100.685 E0.0409
G1 X144.5 Y100.93 E0.01067
G1 X144.91 Y101.432 E0.02113
G1 X145.662 Y102.412 E0.04026
G1 X145.899 Y102.733 E0.01301
G1 X146.038 Y102.929 E0.00783
G1 X146.284 Y103.291 E0.01427
G1 X146.648 Y103.852 E0.0218
G1 X146.897 Y104.255 E0.01544
G1 X147.227 Y104.817 E0.02124
G1 X147.448 Y105.212 E0.01475
G1 X147.764 Y105.807 E0.02196
G1 X147.967 Y106.211 E0.01474
G1 X148.233 Y106.768 E0.02012
G1 X148.433 Y107.213 E0.0159
G1 X148.634 Y107.689 E0.01684
G1 X148.829 Y108.183 E0.01731
G1 X149.244 Y109.322 E0.03951
G1 X149.371 Y109.693 E0.01278
G1 X149.444 Y109.919 E0.00774
G1 X149.577 Y110.364 E0.01514
G1 X149.757 Y111.018 E0.02211
G1 X149.87 Y111.465 E0.01503
G1 X150.014 Y112.094 E0.02103
G1 X150.104 Y112.529 E0.01448
G1 X150.225 Y113.182 E0.02165
G1 X150.299 Y113.637 E0.01503
G1 X150.388 Y114.27 E0.02084
G1 X150.445 Y114.761 E0.01611
G1 X150.507 Y115.425 E0.02174
G1 X150.539 Y115.859 E0.01418
G1 X150.573 Y116.512 E0.02131
G1 X150.587 Y116.982 E0.01533
G1 X150.592 Y117.639 E0.02142
G1 X150.586 Y118.089 E0.01467
G1 X150.564 Y118.72 E0.02058
G1 X150.536 Y119.198 E0.01561
G1 X150.483 Y119.859 E0.02161
G1 X150.435 Y120.325 E0.01527
G1 X150.352 Y120.99 E0.02184
G1 X150.287 Y121.438 E0.01476
G1 X150.178 Y122.085 E0.02139
G1 X150.092 Y122.536 E0.01497
G1 X149.958 Y123.164 E0.02093
G1 X149.849 Y123.624 E0.01541
G1 X149.688 Y124.242 E0.02082
G1 X149.568 Y124.666 E0.01436
G1 X149.422 Y125.144 E0.01629
G1 X149.244 Y125.676 E0.01829
G1 X148.832 Y126.807 E0.03923
G1 X148.701 Y127.147 E0.01188
G1 X148.592 Y127.417 E0.00949
G1 X148.402 Y127.859 E0.01568
G1 X148.138 Y128.436 E0.02068
G1 X147.937 Y128.852 E0.01506
G1 X147.643 Y129.427 E0.02105
G1 X147.425 Y129.831 E0.01496
G1 X147.1 Y130.404 E0.02147
G1 X146.871 Y130.789 E0.0146
G1 X146.52 Y131.351 E0.0216
G1 X146.251 Y131.759 E0.01593
G1 X145.981 Y132.15 E0.01549
G1 X145.67 Y132.578 E0.01724
G1 X144.926 Y133.548 E0.03985
G1 X144.608 Y133.943 E0.01653
G1 X144.289 Y134.308 E0.0158
G1 X143.449 Y135.227 E0.04058
G1 X143.082 Y135.609 E0.01727
G1 X142.741 Y135.936 E0.0154
G1 X141.815 Y136.783 E0.0409
G1 X141.57 Y137 E0.01067
G1 X141.068 Y137.41 E0.02113
G1 X140.088 Y138.162 E0.04026
G1 X139.767 Y138.399 E0.01301
G1 X139.571 Y138.538 E0.00783
G1 X139.213 Y138.781 E0.0141
G1 X138.648 Y139.148 E0.02196
G1 X138.233 Y139.404 E0.01589
G1 X137.675 Y139.731 E0.02108
G1 X137.288 Y139.948 E0.01446
G1 X136.693 Y140.264 E0.02196
G1 X136.282 Y140.47 E0.01499
G1 X135.724 Y140.736 E0.02015
G1 X135.286 Y140.933 E0.01565
G1 X134.817 Y141.131 E0.01659
G1 X134.332 Y141.322 E0.01699
G1 X133.188 Y141.74 E0.0397
G1 X132.808 Y141.871 E0.0131
G1 X132.582 Y141.944 E0.00774
G1 X132.129 Y142.079 E0.01541
G1 X131.473 Y142.259 E0.02217
G1 X131.037 Y142.369 E0.01466
G1 X130.409 Y142.513 E0.021
G1 X129.974 Y142.603 E0.01448
G1 X129.322 Y142.724 E0.02161
G1 X128.859 Y142.799 E0.01529
G1 X128.224 Y142.888 E0.0209
G1 X127.738 Y142.945 E0.01595
G1 X127.074 Y143.007 E0.02174
G1 X126.635 Y143.039 E0.01435
G1 X125.918 Y143.076 E0.0234
G1 X125.491 Y143.089 E0.01392
G1 X124.483 Y143.1 E0.03286
G1 X123.597 Y143.099 E0.02888
G1 X123.183 Y143.093 E0.0135
G1 X120.414 Y143.094 E0.09026
G1 X119.92 Y143.1 E0.0161
G1 X99.849 Y143.099 E0.65421
G1 X99.505 Y143.094 E0.01121
G1 X96.735 Y143.094 E0.09029
G1 X96.242 Y143.1 E0.01607
G1 X95.555 Y143.099 E0.02239
G1 X94.857 Y143.089 E0.02275
G1 X93.938 Y143.036 E0.03
G1 X93.027 Y142.903 E0.03001
G1 X92.131 Y142.692 E0.03
G1 X91.257 Y142.404 E0.02999
G1 X90.41 Y142.041 E0.03004
G1 X89.599 Y141.606 E0.03
G1 X88.829 Y141.102 E0.03
G1 X88.105 Y140.533 E0.03001
G1 X87.433 Y139.903 E0.03002
G1 X86.818 Y139.218 E0.03001
G1 X86.265 Y138.482 E0.03001
G1 X85.778 Y137.701 E0.03
G1 X85.361 Y136.88 E0.03001
G1 X85.016 Y136.026 E0.03002
G1 X84.747 Y135.146 E0.02999
G1 X84.555 Y134.245 E0.03003
G1 X84.442 Y133.332 E0.02999
G1 X84.413 Y132.777 E0.01811
G1 X84.404 Y132.445 E0.01083
G1 X84.4 Y132.158 E0.00936
G1 X84.401 Y119.193 E0.42259
G1 X84.406 Y118.848 E0.01125
G1 X84.406 Y116.08 E0.09022
G1 X84.4 Y115.587 E0.01607
G1 X84.401 Y103.039 E0.409
G1 X84.411 Y102.354 E0.02233
G1 X84.465 Y101.435 E0.03001
G1 X84.597 Y100.524 E0.03
G1 X84.809 Y99.628 E0.03001
G1 X85.097 Y98.754 E0.02999
G1 X85.461 Y97.908 E0.03002
G1 X85.896 Y97.097 E0.03
G1 X86.4 Y96.326 E0.03002
G1 X86.765 Y95.861 E0.01927
G0 F1620 X86.969 Y95.602
G0 X87.599 Y94.931
G0 F9000 X87.99 Y95.109
G1 F1800 X88.672 Y94.517 E0.02944
G1 X89.404 Y93.988 E0.02944
G1 X90.179 Y93.525 E0.02943
G1 X90.993 Y93.133 E0.02945
G1 X91.838 Y92.815 E0.02943
G1 X92.708 Y92.572 E0.02944
G1 X93.596 Y92.408 E0.02943
G1 X94.723 Y92.313 E0.03686
G1 X95.043 Y92.304 E0.01043
G1 X95.33 Y92.3 E0.00936
G1 X96.25 Y92.3 E0.02999
G1 X96.811 Y92.307 E0.01829
G1 X99.593 Y92.306 E0.09068
G1 X100.08 Y92.3 E0.01587
G1 X120.145 Y92.301 E0.65402
G1 X120.489 Y92.306 E0.01121
G1 X123.271 Y92.306 E0.09068
G1 X123.758 Y92.3 E0.01587
G1 X124.594 Y92.301 E0.02725
G1 X125.328 Y92.309 E0.02393
G1 X125.571 Y92.314 E0.00792
G1 X126.205 Y92.336 E0.02068
G1 X126.666 Y92.363 E0.01505
G1 X127.327 Y92.416 E0.02161
G1 X127.775 Y92.462 E0.01468
G1 X128.44 Y92.545 E0.02184
G1 X128.872 Y92.608 E0.01423
G1 X129.519 Y92.717 E0.02139
G1 X129.953 Y92.8 E0.0144
G1 X130.581 Y92.934 E0.02093
G1 X131.023 Y93.038 E0.0148
G1 X131.641 Y93.199 E0.02082
G1 X132.05 Y93.315 E0.01386
G1 X132.528 Y93.461 E0.01629
G1 X133.039 Y93.632 E0.01756
G1 X134.17 Y94.044 E0.03923
G1 X134.497 Y94.17 E0.01142
G1 X134.767 Y94.279 E0.00949
G1 X135.193 Y94.462 E0.01511
G1 X135.77 Y94.726 E0.02068
G1 X136.169 Y94.919 E0.01445
G1 X136.746 Y95.214 E0.02112
G1 X137.137 Y95.425 E0.01448
G1 X137.708 Y95.749 E0.0214
G1 X138.081 Y95.971 E0.01415
G1 X138.644 Y96.323 E0.02164
G1 X139.028 Y96.576 E0.01499
G1 X139.418 Y96.845 E0.01544
G1 X139.835 Y97.148 E0.0168
G1 X140.805 Y97.892 E0.03985
G1 X141.187 Y98.199 E0.01597
G1 X141.54 Y98.507 E0.01527
G1 X142.462 Y99.35 E0.04072
G1 X142.826 Y99.701 E0.01648
G1 X143.14 Y100.029 E0.0148
G1 X143.987 Y100.955 E0.0409
G1 X144.198 Y101.192 E0.01034
G1 X144.593 Y101.676 E0.02036
G1 X145.345 Y102.656 E0.04026
G1 X145.573 Y102.965 E0.01252
G1 X145.712 Y103.161 E0.00783
G1 X145.949 Y103.509 E0.01372
G1 X146.313 Y104.07 E0.0218
G1 X146.552 Y104.457 E0.01483
G1 X146.882 Y105.019 E0.02124
G1 X147.094 Y105.4 E0.01421
G1 X147.41 Y105.995 E0.02196
G1 X147.606 Y106.383 E0.01417
G1 X147.872 Y106.94 E0.02012
G1 X148.065 Y107.368 E0.0153
G1 X148.266 Y107.844 E0.01684
G1 X148.453 Y108.32 E0.01667
G1 X148.868 Y109.459 E0.03951
G1 X148.99 Y109.816 E0.0123
G1 X149.063 Y110.042 E0.00774
G1 X149.191 Y110.47 E0.01456
G1 X149.371 Y111.124 E0.02211
G1 X149.48 Y111.555 E0.01449
G1 X149.624 Y112.184 E0.02103
G1 X149.71 Y112.602 E0.01391
G1 X149.831 Y113.255 E0.02165
G1 X149.903 Y113.693 E0.01447
G1 X149.992 Y114.326 E0.02084
G1 X150.047 Y114.798 E0.01549
G1 X150.109 Y115.462 E0.02174
G1 X150.139 Y115.88 E0.01366
G1 X150.173 Y116.533 E0.02131
G1 X150.187 Y116.985 E0.01474
G1 X150.192 Y117.642 E0.02142
G1 X150.186 Y118.075 E0.01411
G1 X150.164 Y118.706 E0.02058
G1 X150.137 Y119.166 E0.01502
G1 X150.084 Y119.827 E0.02161
G1 X150.038 Y120.275 E0.01468
G1 X149.955 Y120.94 E0.02184
G1 X149.892 Y121.372 E0.01423
G1 X149.783 Y122.019 E0.02139
G1 X149.7 Y122.453 E0.0144
G1 X149.566 Y123.081 E0.02093
G1 X149.462 Y123.523 E0.0148
G1 X149.301 Y124.141 E0.02082
G1 X149.185 Y124.55 E0.01386
G1 X149.039 Y125.028 E0.01629
G1 X148.868 Y125.539 E0.01756
G1 X148.456 Y126.67 E0.03923
G1 X148.33 Y126.997 E0.01142
G1 X148.221 Y127.267 E0.00949
G1 X148.038 Y127.693 E0.01511
G1 X147.774 Y128.27 E0.02068
G1 X147.581 Y128.67 E0.01448
G1 X147.287 Y129.245 E0.02105
G1 X147.077 Y129.633 E0.01438
G1 X146.752 Y130.206 E0.02147
G1 X146.531 Y130.577 E0.01408
G1 X146.18 Y131.139 E0.0216
G1 X145.922 Y131.532 E0.01532
G1 X145.652 Y131.923 E0.01549
G1 X145.352 Y132.335 E0.01661
G1 X144.608 Y133.305 E0.03985
G1 X144.301 Y133.687 E0.01597
G1 X143.994 Y134.039 E0.01522
G1 X143.154 Y134.958 E0.04058
G1 X142.799 Y135.326 E0.01667
G1 X142.471 Y135.64 E0.0148
G1 X141.545 Y136.487 E0.0409
G1 X141.308 Y136.698 E0.01034
G1 X140.824 Y137.093 E0.02036
G1 X139.844 Y137.845 E0.04026
G1 X139.535 Y138.073 E0.01252
G1 X139.339 Y138.212 E0.00783
G1 X138.995 Y138.446 E0.01356
G1 X138.43 Y138.813 E0.02196
G1 X138.031 Y139.059 E0.01528
G1 X137.473 Y139.386 E0.02108
G1 X137.1 Y139.594 E0.01392
G1 X136.505 Y139.91 E0.02196
G1 X136.11 Y140.109 E0.01442
G1 X135.552 Y140.375 E0.02015
G1 X135.13 Y140.565 E0.01508
G1 X134.661 Y140.763 E0.01659
G1 X134.195 Y140.947 E0.01633
G1 X133.051 Y141.365 E0.0397
G1 X132.685 Y141.49 E0.01261
G1 X132.459 Y141.563 E0.00774
G1 X132.023 Y141.693 E0.01483
G1 X131.367 Y141.873 E0.02217
G1 X130.948 Y141.979 E0.01409
G1 X130.32 Y142.123 E0.021
G1 X129.901 Y142.21 E0.01395
G1 X129.249 Y142.331 E0.02161
G1 X128.804 Y142.403 E0.01469
G1 X128.169 Y142.492 E0.0209
G1 X127.701 Y142.547 E0.01536
G1 X127.037 Y142.609 E0.02174
G1 X126.615 Y142.639 E0.01379
G1 X125.898 Y142.676 E0.0234
G1 X125.487 Y142.689 E0.0134
G1 X124.483 Y142.7 E0.03273
G1 X123.603 Y142.699 E0.02868
G1 X123.189 Y142.693 E0.0135
G1 X120.407 Y142.694 E0.09068
G1 X119.92 Y142.7 E0.01587
G1 X99.855 Y142.699 E0.65402
G1 X99.511 Y142.694 E0.01121
G1 X96.729 Y142.694 E0.09068
G1 X96.242 Y142.7 E0.01587
G1 X95.561 Y142.699 E0.0222
G1 X94.863 Y142.689 E0.02275
G1 X93.961 Y142.636 E0.02945
G1 X93.068 Y142.504 E0.02942
G1 X92.19 Y142.293 E0.02943
G1 X91.334 Y142.005 E0.02944
G1 X90.507 Y141.643 E0.02943
G1 X89.715 Y141.208 E0.02945
G1 X88.964 Y140.706 E0.02944
G1 X88.261 Y140.139 E0.02944
G1 X87.611 Y139.512 E0.02944
G1 X87.019 Y138.83 E0.02944
G1 X86.489 Y138.099 E0.02943
G1 X86.027 Y137.323 E0.02944
G1 X85.634 Y136.51 E0.02943
G1 X85.316 Y135.665 E0.02943
G1 X85.073 Y134.795 E0.02944
G1 X84.908 Y133.907 E0.02944
G1 X84.813 Y132.766 E0.03732
G1 X84.804 Y132.434 E0.01083
G1 X84.8 Y132.158 E0.009
G1 X84.801 Y119.199 E0.4224
G1 X84.806 Y118.854 E0.01125
G1 X84.806 Y116.074 E0.09061
G1 X84.8 Y115.587 E0.01587
G1 X84.801 Y103.045 E0.40881
G1 X84.811 Y102.36 E0.02233
G1 X84.864 Y101.459 E0.02942
G1 X84.997 Y100.565 E0.02946
G1 X85.208 Y99.687 E0.02943
G1 X85.496 Y98.831 E0.02944
G1 X85.859 Y98.004 E0.02944
G1 X86.293 Y97.212 E0.02944
G1 X86.796 Y96.462 E0.02944
G1 X87.146 Y96.029 E0.01815
G0 F1620 X87.363 Y95.759
G0 X87.99 Y95.109
G10
G1 F300 Z0.6
;MESH:Teaching_Tech_speed_test.stl
G0 F9000 X133.526 Y106.395 Z0.6
;TYPE:WALL-INNER
G1 F300 Z0.2
G11
G1 F1800 X134.01 Y106.783 E0.02022
G1 X134.455 Y107.175 E0.01933
G1 X134.896 Y107.597 E0.0199
G1 X135.325 Y108.045 E0.02022
G1 X135.711 Y108.483 E0.01903
G1 X136.1 Y108.968 E0.02027
G1 X136.455 Y109.451 E0.01954
G1 X136.814 Y109.989 E0.02108
G1 X137.117 Y110.49 E0.01908
G1 X137.424 Y111.049 E0.02079
G1 X137.694 Y111.595 E0.01985
G1 X137.929 Y112.13 E0.01905
G1 X138.148 Y112.693 E0.01969
G1 X138.356 Y113.303 E0.02101
G1 X138.519 Y113.864 E0.01904
G1 X138.67 Y114.482 E0.02074
G1 X138.784 Y115.048 E0.01882
G1 X138.877 Y115.65 E0.01985
G1 X138.947 Y116.292 E0.02105
G1 X138.986 Y116.877 E0.01911
G1 X139 Y117.478 E0.01959
G1 X138.986 Y118.118 E0.02087
G1 X138.948 Y118.699 E0.01898
G1 X138.878 Y119.341 E0.02105
G1 X138.79 Y119.918 E0.01902
G1 X138.672 Y120.51 E0.01968
G1 X138.519 Y121.136 E0.02101
G1 X138.359 Y121.688 E0.01873
G1 X138.152 Y122.298 E0.021
G1 X137.929 Y122.869 E0.01998
G1 X137.698 Y123.396 E0.01876
G1 X137.424 Y123.951 E0.02017
G1 X137.117 Y124.51 E0.02079
G1 X136.814 Y125.011 E0.01908
G1 X136.46 Y125.542 E0.0208
G1 X136.12 Y126.006 E0.01875
G1 X135.731 Y126.492 E0.02029
G1 X135.324 Y126.956 E0.02012
G1 X134.909 Y127.39 E0.01957
G1 X134.455 Y127.825 E0.02049
G1 X134.017 Y128.211 E0.01903
G1 X133.52 Y128.61 E0.02077
G1 X133.049 Y128.955 E0.01903
G1 X132.511 Y129.314 E0.02108
G1 X132.01 Y129.617 E0.01908
G1 X131.455 Y129.922 E0.02064
G1 X130.897 Y130.198 E0.02029
G1 X130.37 Y130.429 E0.01876
G1 X129.798 Y130.652 E0.02001
G1 X129.199 Y130.856 E0.02063
G1 X128.636 Y131.019 E0.0191
G1 X128.018 Y131.17 E0.02074
G1 X127.434 Y131.286 E0.01941
G1 X126.841 Y131.378 E0.01956
G1 X126.208 Y131.447 E0.02075
G1 X125.617 Y131.486 E0.01931
G1 X124.978 Y131.5 E0.02083
G1 X123.577 Y131.5 E0.04567
G1 X122.422 Y129.5 E0.07528
G1 X121.267 Y129.5 E0.03765
G1 X120.113 Y131.5 E0.07526
G1 X99.887 Y131.5 E0.65927
G1 X98.733 Y129.5 E0.07526
G1 X97.578 Y129.5 E0.03765
G1 X96.423 Y131.5 E0.07528
G1 X96 Y131.5 E0.01379
G1 X96 Y119.232 E0.39987
G1 X98.2 Y117.962 E0.0828
G1 X98.2 Y117.038 E0.03012
G1 X96 Y115.768 E0.0828
G1 X96 Y103.5 E0.39987
G1 X96.423 Y103.5 E0.01379
G1 X97.578 Y105.5 E0.07528
G1 X98.733 Y105.5 E0.03765
G1 X99.887 Y103.5 E0.07526
G1 X120.113 Y103.5 E0.65927
G1 X121.267 Y105.5 E0.07526
G1 X122.422 Y105.5 E0.03765
G1 X123.577 Y103.5 E0.07528
G1 X124.978 Y103.5 E0.04567
G1 X125.617 Y103.514 E0.02083
G1 X126.208 Y103.553 E0.01931
G1 X126.841 Y103.622 E0.02075
G1 X127.434 Y103.714 E0.01956
G1 X128.018 Y103.83 E0.01941
G1 X128.636 Y103.981 E0.02074
G1 X129.197 Y104.144 E0.01904
G1 X129.798 Y104.348 E0.02069
G1 X130.37 Y104.571 E0.02001
G1 X130.896 Y104.802 E0.01873
G1 X131.451 Y105.076 E0.02017
G1 X132.01 Y105.383 E0.02079
G1 X132.501 Y105.68 E0.0187
G0 F1620 X132.511 Y105.686
G0 X133.042 Y106.04
G0 X133.526 Y106.395
G0 F9000 X133.769 Y106.078
G1 F1800 X134.26 Y106.471 E0.0205
G1 X134.273 Y106.483 E0.00058
G1 X134.732 Y106.886 E0.01991
G1 X135.179 Y107.314 E0.02017
G1 X135.614 Y107.768 E0.02049
G1 X136.01 Y108.219 E0.01956
G1 X136.023 Y108.233 E0.00062
G1 X136.422 Y108.731 E0.0208
G1 X136.788 Y109.229 E0.02014
G1 X137.147 Y109.767 E0.02108
G1 X137.468 Y110.297 E0.0202
